(G-CODE GENERATED BY FLATCAM v8.994 - www.flatcam.org - Version Date: 2020/11/7)

(Name: Drill_PTH_Through.DRL_edit_cnc)
(Type: G-code from Geometry)
(Units: MM)

(Created on Wednesday, 10 May 2023 at 19:23)


/TOOLS DIAMETER = ДИАМЕТР ИНСТРУМЕНТА: 
/Tool: 1 -> Dia: 0.8

/FEEDRATE Z = ПОДАЧА по Z: 
/Tool = Инструмент: 1 -> Feedrate = подача: 500.0

/FEEDRATE RAPIDS = БЫСТРЫЕ ПОДАЧИ: 
/Tool = Инструмент: 1 -> Feedrate Rapids = быстрая подача: 1500

/Z_CUT = ПРОХОДЫ по Z: 
/Tool = Инструмент: 1 -> Z_Cut: -1.8

/Tools Offset: 
/Tool: 1 -> Offset Z: 0.0

/Z_MOVE: 
/Tool: 1 -> Z_Move: 2.0

/Z Toolchange: 15 mm
/X,Y Toolchange: 0.0000, 0.0000 mm
/Z Start: None mm
/Z End: 0.5 mm
/X,Y End: None mm
(Steps per circle: 64)
/Steps per circle: 64
/Preprocessor Excellon: Charly4U

/X range:    1.3399 ...   48.6219  mm
/Y range:  -88.4110 ...   -4.1720  mm

/Скорость шпинделя: 15000 RPM
G71 / измерения в мм
G90 / программирование в абсолютных координатах

F500
/Tool switching while working is not supported! = Смена инструмента в процессе работы не поддерживается!
F500
M3 S15000
G0 X33.4899 Y-63.5430
G1 Z-1.8000 F500
G1 Z0
G0 Z2.0000
G0 X27.5459 Y-60.0460
G1 Z-1.8000 F500
G1 Z0
G0 Z2.0000
G0 X27.5459 Y-57.5060
G1 Z-1.8000 F500
G1 Z0
G0 Z2.0000
G0 X27.5459 Y-54.9660
G1 Z-1.8000 F500
G1 Z0
G0 Z2.0000
G0 X33.4899 Y-53.0430
G1 Z-1.8000 F500
G1 Z0
G0 Z2.0000
G0 X27.5459 Y-52.4260
G1 Z-1.8000 F500
G1 Z0
G0 Z2.0000
G0 X27.5459 Y-49.8860
G1 Z-1.8000 F500
G1 Z0
G0 Z2.0000
G0 X27.5459 Y-47.3460
G1 Z-1.8000 F500
G1 Z0
G0 Z2.0000
G0 X27.5459 Y-44.8060
G1 Z-1.8000 F500
G1 Z0
G0 Z2.0000
G0 X27.5459 Y-42.2660
G1 Z-1.8000 F500
G1 Z0
G0 Z2.0000
G0 X27.5459 Y-39.7260
G1 Z-1.8000 F500
G1 Z0
G0 Z2.0000
G0 X27.5459 Y-37.1860
G1 Z-1.8000 F500
G1 Z0
G0 Z2.0000
G0 X27.5459 Y-34.6460
G1 Z-1.8000 F500
G1 Z0
G0 Z2.0000
G0 X27.5459 Y-32.1060
G1 Z-1.8000 F500
G1 Z0
G0 Z2.0000
G0 X27.5459 Y-29.5660
G1 Z-1.8000 F500
G1 Z0
G0 Z2.0000
G0 X27.5459 Y-27.0260
G1 Z-1.8000 F500
G1 Z0
G0 Z2.0000
G0 X27.5459 Y-24.4860
G1 Z-1.8000 F500
G1 Z0
G0 Z2.0000
G0 X27.5459 Y-21.9460
G1 Z-1.8000 F500
G1 Z0
G0 Z2.0000
G0 X33.6169 Y-18.6690
G1 Z-1.8000 F500
G1 Z0
G0 Z2.0000
G0 X33.6169 Y-16.1290
G1 Z-1.8000 F500
G1 Z0
G0 Z2.0000
G0 X33.6169 Y-13.5890
G1 Z-1.8000 F500
G1 Z0
G0 Z2.0000
G0 X33.4899 Y-9.6520
G1 Z-1.8000 F500
G1 Z0
G0 Z2.0000
G0 X33.4899 Y-7.1120
G1 Z-1.8000 F500
G1 Z0
G0 Z2.0000
G0 X33.4899 Y-4.5720
G1 Z-1.8000 F500
G1 Z0
G0 Z2.0000
G0 X27.5459 Y-11.7860
G1 Z-1.8000 F500
G1 Z0
G0 Z2.0000
G0 X27.5459 Y-14.3260
G1 Z-1.8000 F500
G1 Z0
G0 Z2.0000
G0 X27.5459 Y-16.8660
G1 Z-1.8000 F500
G1 Z0
G0 Z2.0000
G0 X27.5459 Y-19.4060
G1 Z-1.8000 F500
G1 Z0
G0 Z2.0000
G0 X12.3059 Y-34.6460
G1 Z-1.8000 F500
G1 Z0
G0 Z2.0000
G0 X12.3059 Y-32.1060
G1 Z-1.8000 F500
G1 Z0
G0 Z2.0000
G0 X12.3059 Y-29.5660
G1 Z-1.8000 F500
G1 Z0
G0 Z2.0000
G0 X12.3059 Y-27.0260
G1 Z-1.8000 F500
G1 Z0
G0 Z2.0000
G0 X12.3059 Y-24.4860
G1 Z-1.8000 F500
G1 Z0
G0 Z2.0000
G0 X12.3059 Y-21.9460
G1 Z-1.8000 F500
G1 Z0
G0 Z2.0000
G0 X12.3059 Y-19.4060
G1 Z-1.8000 F500
G1 Z0
G0 Z2.0000
G0 X12.3059 Y-16.8660
G1 Z-1.8000 F500
G1 Z0
G0 Z2.0000
G0 X12.3059 Y-14.3260
G1 Z-1.8000 F500
G1 Z0
G0 Z2.0000
G0 X12.3059 Y-11.7860
G1 Z-1.8000 F500
G1 Z0
G0 Z2.0000
G0 X5.5499 Y-6.7310
G1 Z-1.8000 F500
G1 Z0
G0 Z2.0000
G0 X5.5499 Y-9.2710
G1 Z-1.8000 F500
G1 Z0
G0 Z2.0000
G0 X5.5499 Y-11.8110
G1 Z-1.8000 F500
G1 Z0
G0 Z2.0000
G0 X5.5499 Y-14.3510
G1 Z-1.8000 F500
G1 Z0
G0 Z2.0000
G0 X3.1369 Y-23.4950
G1 Z-1.8000 F500
G1 Z0
G0 Z2.0000
G0 X3.1369 Y-26.0350
G1 Z-1.8000 F500
G1 Z0
G0 Z2.0000
G0 X3.0099 Y-30.6070
G1 Z-1.8000 F500
G1 Z0
G0 Z2.0000
G0 X3.0099 Y-33.1470
G1 Z-1.8000 F500
G1 Z0
G0 Z2.0000
G0 X4.4069 Y-38.2430
G1 Z-1.8000 F500
G1 Z0
G0 Z2.0000
G0 X4.4069 Y-40.2430
G1 Z-1.8000 F500
G1 Z0
G0 Z2.0000
G0 X4.5339 Y-45.4820
G1 Z-1.8000 F500
G1 Z0
G0 Z2.0000
G0 X4.5339 Y-47.4820
G1 Z-1.8000 F500
G1 Z0
G0 Z2.0000
G0 X12.3059 Y-37.1860
G1 Z-1.8000 F500
G1 Z0
G0 Z2.0000
G0 X12.3059 Y-39.7260
G1 Z-1.8000 F500
G1 Z0
G0 Z2.0000
G0 X12.3059 Y-42.2660
G1 Z-1.8000 F500
G1 Z0
G0 Z2.0000
G0 X12.3059 Y-44.8060
G1 Z-1.8000 F500
G1 Z0
G0 Z2.0000
G0 X12.3059 Y-47.3460
G1 Z-1.8000 F500
G1 Z0
G0 Z2.0000
G0 X12.3059 Y-49.8860
G1 Z-1.8000 F500
G1 Z0
G0 Z2.0000
G0 X12.3059 Y-52.4260
G1 Z-1.8000 F500
G1 Z0
G0 Z2.0000
G0 X12.3059 Y-54.9660
G1 Z-1.8000 F500
G1 Z0
G0 Z2.0000
G0 X12.3059 Y-57.5060
G1 Z-1.8000 F500
G1 Z0
G0 Z2.0000
G0 X12.3059 Y-60.0460
G1 Z-1.8000 F500
G1 Z0
G0 Z2.0000
G0 X14.4399 Y-67.5640
G1 Z-1.8000 F500
G1 Z0
G0 Z2.0000
G0 X11.8999 Y-67.5640
G1 Z-1.8000 F500
G1 Z0
G0 Z2.0000
G0 X1.7399 Y-82.8040
G1 Z-1.8000 F500
G1 Z0
G0 Z2.0000
G0 X4.2799 Y-82.8040
G1 Z-1.8000 F500
G1 Z0
G0 Z2.0000
G0 X6.8199 Y-82.8040
G1 Z-1.8000 F500
G1 Z0
G0 Z2.0000
G0 X9.3599 Y-82.8040
G1 Z-1.8000 F500
G1 Z0
G0 Z2.0000
G0 X11.8999 Y-82.8040
G1 Z-1.8000 F500
G1 Z0
G0 Z2.0000
G0 X14.4399 Y-82.8040
G1 Z-1.8000 F500
G1 Z0
G0 Z2.0000
G0 X16.9799 Y-82.8040
G1 Z-1.8000 F500
G1 Z0
G0 Z2.0000
G0 X19.5199 Y-82.8040
G1 Z-1.8000 F500
G1 Z0
G0 Z2.0000
G0 X22.0599 Y-82.8040
G1 Z-1.8000 F500
G1 Z0
G0 Z2.0000
G0 X24.5999 Y-82.8040
G1 Z-1.8000 F500
G1 Z0
G0 Z2.0000
G0 X30.4419 Y-88.0110
G1 Z-1.8000 F500
G1 Z0
G0 Z2.0000
G0 X32.9819 Y-88.0110
G1 Z-1.8000 F500
G1 Z0
G0 Z2.0000
G0 X35.5219 Y-88.0110
G1 Z-1.8000 F500
G1 Z0
G0 Z2.0000
G0 X38.0619 Y-88.0110
G1 Z-1.8000 F500
G1 Z0
G0 Z2.0000
G0 X40.6019 Y-88.0110
G1 Z-1.8000 F500
G1 Z0
G0 Z2.0000
G0 X43.1419 Y-88.0110
G1 Z-1.8000 F500
G1 Z0
G0 Z2.0000
G0 X45.6819 Y-88.0110
G1 Z-1.8000 F500
G1 Z0
G0 Z2.0000
G0 X48.2219 Y-88.0110
G1 Z-1.8000 F500
G1 Z0
G0 Z2.0000
G0 X39.8399 Y-82.8040
G1 Z-1.8000 F500
G1 Z0
G0 Z2.0000
G0 X37.2999 Y-82.8040
G1 Z-1.8000 F500
G1 Z0
G0 Z2.0000
G0 X34.7599 Y-82.8040
G1 Z-1.8000 F500
G1 Z0
G0 Z2.0000
G0 X32.2199 Y-82.8040
G1 Z-1.8000 F500
G1 Z0
G0 Z2.0000
G0 X29.6799 Y-82.8040
G1 Z-1.8000 F500
G1 Z0
G0 Z2.0000
G0 X27.1399 Y-82.8040
G1 Z-1.8000 F500
G1 Z0
G0 Z2.0000
G0 X16.9799 Y-67.5640
G1 Z-1.8000 F500
G1 Z0
G0 Z2.0000
G0 X19.5199 Y-67.5640
G1 Z-1.8000 F500
G1 Z0
G0 Z2.0000
G0 X22.0599 Y-67.5640
G1 Z-1.8000 F500
G1 Z0
G0 Z2.0000
G0 X24.5999 Y-67.5640
G1 Z-1.8000 F500
G1 Z0
G0 Z2.0000
G0 X27.1399 Y-67.5640
G1 Z-1.8000 F500
G1 Z0
G0 Z2.0000
G0 X29.6799 Y-67.5640
G1 Z-1.8000 F500
G1 Z0
G0 Z2.0000
M5 / выключение шпинделя
G0 Z0.50 X0 Y0


