(G-CODE GENERATED BY FLATCAM v8.994 - www.flatcam.org - Version Date: 2020/11/7)

(Name: Gerber_TopLayer.GTL_iso_combined_cnc)
(Type: G-code from Geometry)
(Units: MM)

(Created on Wednesday, 10 May 2023 at 19:15)

/TOOL DIAMETER = ДИАМЕТР ИНСТРУМЕНТА: 0.2 mm
/Feedrate_XY = подача XY: 500.0 mm/min
/Feedrate_Z = подача Z: 500.0 mm/min
/Feedrate rapids = быстрая подача1500.0 mm/min

/Z_Cut = проходы по Z: 0.0 mm
/Z_Move: 2.0 mm
/Z Start: None mm
/Z End: 15.0 mm
/X,Y End: None mm
(Steps per circle: 64)
/Steps per circle: 64
/Preprocessor Geometry: Charly4U

/X range:    0.1592 ...   49.6119  mm
/Y range:  -89.4010 ...   -2.6311  mm

/Скорость шпинделя: 20000.0 RPM
G71 / измерения в мм
G90 / программирование в абсолютных координатах

F500
/Tool switching while working is not supported! = Смена инструмента в процессе работы не поддерживается!
M3 S20000.0
F500
G0 X4.2624 Y-6.4906
F500
G1 Z0.0000 F500
F500
G1 X3.2928 Y-7.4601
G1 X3.2928 Y-7.9131
G1 X4.2587 Y-6.9472
G1 X4.2490 Y-6.8818
G1 X4.2462 Y-6.8594
G1 X4.2445 Y-6.8369
G1 X4.2405 Y-6.7536
G1 X4.2399 Y-6.7310
G1 X4.2405 Y-6.7084
G1 X4.2445 Y-6.6251
G1 X4.2462 Y-6.6026
G1 X4.2490 Y-6.5802
G1 X4.2624 Y-6.4906
G0 Z2.0000
G0 X4.6585 Y-7.0565
F500
G1 Z0.0000 F500
F500
G1 X3.4482 Y-8.2669
G1 X3.4252 Y-8.2925
G1 X3.4047 Y-8.3200
G1 X3.3992 Y-8.3282
G1 X3.3841 Y-8.3534
G1 X3.3795 Y-8.3621
G1 X3.3649 Y-8.3932
G1 X3.3517 Y-8.4302
G1 X3.3421 Y-8.4683
G1 X3.3369 Y-8.5022
G1 X3.3360 Y-8.5120
G1 X3.3344 Y-8.5463
G1 X3.3344 Y-16.1940
G1 X3.3363 Y-16.2332
G1 X3.3421 Y-16.2721
G1 X3.3517 Y-16.3102
G1 X3.3658 Y-16.3494
G1 X3.3817 Y-16.3826
G1 X3.4019 Y-16.4163
G1 X3.4252 Y-16.4479
G1 X3.4516 Y-16.4770
G1 X11.2178 Y-24.2432
G1 X11.2113 Y-24.2703
G1 X11.1960 Y-24.3738
G1 X11.1953 Y-24.3811
G1 X11.1904 Y-24.4807
G1 X11.1903 Y-24.4881
G1 X11.1957 Y-24.5950
G1 X11.2109 Y-24.6985
G1 X11.2128 Y-24.7081
G1 X11.2384 Y-24.8096
G1 X11.2753 Y-24.9127
G1 X11.3199 Y-25.0073
G1 X11.3245 Y-25.0159
G1 X11.3784 Y-25.1056
G1 X11.4406 Y-25.1897
G1 X11.4468 Y-25.1973
G1 X11.5172 Y-25.2747
G1 X11.5946 Y-25.3451
G1 X11.6022 Y-25.3513
G1 X11.6863 Y-25.4135
G1 X11.7802 Y-25.4698
G1 X11.8747 Y-25.5147
G1 X11.8838 Y-25.5184
G1 X11.9824 Y-25.5535
G1 X12.0886 Y-25.5802
G1 X12.1969 Y-25.5962
G1 X12.3014 Y-25.6015
G1 X12.3112 Y-25.6015
G1 X12.4157 Y-25.5962
G1 X12.5240 Y-25.5802
G1 X12.6255 Y-25.5549
G1 X12.6349 Y-25.5520
G1 X12.7288 Y-25.5184
G1 X12.7356 Y-25.5157
G1 X12.8280 Y-25.4720
G1 X12.8367 Y-25.4674
G1 X12.9263 Y-25.4135
G1 X13.0104 Y-25.3513
G1 X13.0180 Y-25.3451
G1 X13.0954 Y-25.2747
G1 X13.1690 Y-25.1936
G1 X13.2342 Y-25.1056
G1 X13.2881 Y-25.0159
G1 X13.2927 Y-25.0073
G1 X13.3374 Y-24.9127
G1 X13.3727 Y-24.8142
G1 X13.3756 Y-24.8048
G1 X13.4009 Y-24.7033
G1 X13.4163 Y-24.5999
G1 X13.4173 Y-24.5901
G1 X13.4223 Y-24.4856
G1 X13.4173 Y-24.3811
G1 X13.4163 Y-24.3713
G1 X13.4009 Y-24.2679
G1 X13.3743 Y-24.1616
G1 X13.3374 Y-24.0585
G1 X13.2927 Y-23.9639
G1 X13.2881 Y-23.9553
G1 X13.2342 Y-23.8656
G1 X13.1720 Y-23.7815
G1 X13.1658 Y-23.7739
G1 X13.0988 Y-23.7000
G1 X13.0919 Y-23.6931
G1 X13.0180 Y-23.6261
G1 X13.0104 Y-23.6199
G1 X12.9263 Y-23.5577
G1 X12.8367 Y-23.5038
G1 X12.8280 Y-23.4992
G1 X12.7334 Y-23.4546
G1 X12.6303 Y-23.4177
G1 X12.5240 Y-23.3910
G1 X12.4157 Y-23.3750
G1 X12.3063 Y-23.3696
G1 X12.1969 Y-23.3750
G1 X12.0886 Y-23.3910
G1 X11.9871 Y-23.4163
G1 X11.9777 Y-23.4192
G1 X11.8792 Y-23.4546
G1 X11.7846 Y-23.4992
G1 X11.7760 Y-23.5038
G1 X11.6904 Y-23.5551
G1 X11.6843 Y-23.5591
G1 X11.6735 Y-23.5670
G1 X4.1347 Y-16.0283
G1 X4.1347 Y-8.7121
G1 X5.2244 Y-7.6224
G1 X5.2765 Y-7.6408
G1 X5.3622 Y-7.6622
G1 X5.4519 Y-7.6758
G1 X5.4592 Y-7.6766
G1 X5.5499 Y-7.6810
G1 X5.6381 Y-7.6768
G1 X5.6479 Y-7.6758
G1 X5.7376 Y-7.6622
G1 X5.8257 Y-7.6401
G1 X5.9089 Y-7.6105
G1 X5.9179 Y-7.6067
G1 X5.9977 Y-7.5688
G1 X6.0777 Y-7.5209
G1 X6.1487 Y-7.4684
G1 X6.1563 Y-7.4622
G1 X6.2217 Y-7.4028
G1 X6.2843 Y-7.3337
G1 X6.3370 Y-7.2628
G1 X6.3424 Y-7.2546
G1 X6.3877 Y-7.1788
G1 X6.4276 Y-7.0945
G1 X6.4575 Y-7.0114
G1 X6.4603 Y-7.0020
G1 X6.4816 Y-6.9163
G1 X6.4947 Y-6.8290
G1 X6.4957 Y-6.8192
G1 X6.4999 Y-6.7310
G1 X6.4953 Y-6.6379
G1 X6.4825 Y-6.5505
G1 X6.4806 Y-6.5409
G1 X6.4590 Y-6.4552
G1 X6.4285 Y-6.3697
G1 X6.4256 Y-6.3630
G1 X6.3877 Y-6.2832
G1 X6.3398 Y-6.2032
G1 X6.2843 Y-6.1283
G1 X6.2217 Y-6.0592
G1 X6.1526 Y-5.9966
G1 X6.0777 Y-5.9411
G1 X5.9977 Y-5.8932
G1 X5.9134 Y-5.8533
G1 X5.8257 Y-5.8219
G1 X5.7352 Y-5.7993
G1 X5.6430 Y-5.7856
G1 X5.5499 Y-5.7810
G1 X5.4568 Y-5.7856
G1 X5.3646 Y-5.7993
G1 X5.2741 Y-5.8219
G1 X5.1886 Y-5.8524
G1 X5.1819 Y-5.8553
G1 X5.1021 Y-5.8932
G1 X5.0221 Y-5.9411
G1 X4.9472 Y-5.9966
G1 X4.8781 Y-6.0592
G1 X4.8155 Y-6.1283
G1 X4.7600 Y-6.2032
G1 X4.7121 Y-6.2832
G1 X4.6732 Y-6.3652
G1 X4.6704 Y-6.3720
G1 X4.6408 Y-6.4552
G1 X4.6182 Y-6.5457
G1 X4.6045 Y-6.6379
G1 X4.5999 Y-6.7285
G1 X4.6000 Y-6.7359
G1 X4.6045 Y-6.8241
G1 X4.6177 Y-6.9139
G1 X4.6192 Y-6.9211
G1 X4.6401 Y-7.0044
G1 X4.6585 Y-7.0565
G0 Z2.0000
G0 X5.8754 Y-8.3796
F500
G1 Z0.0000 F500
F500
G1 X5.8233 Y-8.3612
G1 X5.7400 Y-8.3403
G1 X5.7328 Y-8.3388
G1 X5.6430 Y-8.3256
G1 X5.5548 Y-8.3211
G1 X5.5474 Y-8.3210
G1 X5.4568 Y-8.3256
G1 X5.3646 Y-8.3393
G1 X5.2741 Y-8.3619
G1 X5.1909 Y-8.3915
G1 X5.1841 Y-8.3943
G1 X5.1021 Y-8.4332
G1 X5.0221 Y-8.4811
G1 X4.9472 Y-8.5366
G1 X4.8781 Y-8.5992
G1 X4.8155 Y-8.6683
G1 X4.7600 Y-8.7432
G1 X4.7121 Y-8.8232
G1 X4.6742 Y-8.9030
G1 X4.6713 Y-8.9097
G1 X4.6408 Y-8.9952
G1 X4.6182 Y-9.0857
G1 X4.6045 Y-9.1779
G1 X4.5999 Y-9.2710
G1 X4.6045 Y-9.3641
G1 X4.6182 Y-9.4563
G1 X4.6408 Y-9.5468
G1 X4.6722 Y-9.6345
G1 X4.7121 Y-9.7188
G1 X4.7600 Y-9.7988
G1 X4.8155 Y-9.8737
G1 X4.8781 Y-9.9428
G1 X4.9472 Y-10.0054
G1 X5.0221 Y-10.0609
G1 X5.1021 Y-10.1088
G1 X5.1819 Y-10.1467
G1 X5.1886 Y-10.1496
G1 X5.2741 Y-10.1801
G1 X5.3598 Y-10.2017
G1 X5.3694 Y-10.2036
G1 X5.4568 Y-10.2164
G1 X5.5450 Y-10.2209
G1 X5.5548 Y-10.2209
G1 X5.6430 Y-10.2164
G1 X5.7352 Y-10.2027
G1 X5.8257 Y-10.1801
G1 X5.9089 Y-10.1505
G1 X5.9179 Y-10.1467
G1 X5.9977 Y-10.1088
G1 X6.0735 Y-10.0635
G1 X6.0817 Y-10.0581
G1 X6.1526 Y-10.0054
G1 X6.2217 Y-9.9428
G1 X6.2843 Y-9.8737
G1 X6.3370 Y-9.8028
G1 X6.3424 Y-9.7946
G1 X6.3877 Y-9.7188
G1 X6.4256 Y-9.6390
G1 X6.4294 Y-9.6300
G1 X6.4590 Y-9.5468
G1 X6.4811 Y-9.4587
G1 X6.4947 Y-9.3690
G1 X6.4957 Y-9.3592
G1 X6.4999 Y-9.2710
G1 X6.4955 Y-9.1803
G1 X6.4825 Y-9.0905
G1 X6.4811 Y-9.0833
G1 X6.4597 Y-8.9976
G1 X6.4413 Y-8.9455
G1 X7.6040 Y-7.7828
G1 X7.6272 Y-7.7574
G1 X7.6334 Y-7.7498
G1 X7.6538 Y-7.7222
G1 X7.6728 Y-7.6906
G1 X7.6907 Y-7.6530
G1 X7.7024 Y-7.6207
G1 X7.7053 Y-7.6113
G1 X7.7135 Y-7.5779
G1 X7.7187 Y-7.5439
G1 X7.7196 Y-7.5342
G1 X7.7212 Y-7.5023
G1 X7.7212 Y-5.9444
G1 X7.7196 Y-5.9100
G1 X7.7187 Y-5.9003
G1 X7.7135 Y-5.8663
G1 X7.7040 Y-5.8282
G1 X7.6925 Y-5.7958
G1 X7.6888 Y-5.7867
G1 X7.6740 Y-5.7557
G1 X7.6564 Y-5.7262
G1 X7.6509 Y-5.7180
G1 X7.6304 Y-5.6905
G1 X7.6040 Y-5.6614
G1 X6.5258 Y-4.5832
G1 X6.4984 Y-4.5586
G1 X6.4669 Y-4.5352
G1 X6.4332 Y-4.5150
G1 X6.4000 Y-4.4992
G1 X6.3607 Y-4.4850
G1 X6.3227 Y-4.4754
G1 X6.2838 Y-4.4697
G1 X6.2446 Y-4.4678
G1 X4.8100 Y-4.4678
G1 X4.7757 Y-4.4693
G1 X4.7659 Y-4.4703
G1 X4.7319 Y-4.4754
G1 X4.6938 Y-4.4850
G1 X4.6569 Y-4.4982
G1 X4.6258 Y-4.5128
G1 X4.6171 Y-4.5174
G1 X4.5877 Y-4.5352
G1 X4.5600 Y-4.5556
G1 X4.5524 Y-4.5618
G1 X4.5288 Y-4.5832
G1 X2.2497 Y-6.8623
G1 X2.2265 Y-6.8877
G1 X2.2203 Y-6.8953
G1 X2.1999 Y-6.9230
G1 X2.1797 Y-6.9566
G1 X2.1629 Y-6.9921
G1 X2.1513 Y-7.0245
G1 X2.1484 Y-7.0338
G1 X2.1402 Y-7.0672
G1 X2.1344 Y-7.1060
G1 X2.1325 Y-7.1453
G1 X2.1325 Y-17.5489
G1 X2.1344 Y-17.5881
G1 X2.1393 Y-17.6221
G1 X2.1413 Y-17.6317
G1 X2.1505 Y-17.6674
G1 X2.1612 Y-17.6974
G1 X2.1649 Y-17.7065
G1 X2.1797 Y-17.7375
G1 X2.1973 Y-17.7670
G1 X2.2028 Y-17.7752
G1 X2.2233 Y-17.8027
G1 X2.2497 Y-17.8318
G1 X11.2145 Y-26.7966
G1 X11.2109 Y-26.8127
G1 X11.1957 Y-26.9162
G1 X11.1904 Y-27.0207
G1 X11.1904 Y-27.0305
G1 X11.1957 Y-27.1350
G1 X11.2109 Y-27.2385
G1 X11.2128 Y-27.2481
G1 X11.2384 Y-27.3496
G1 X11.2753 Y-27.4527
G1 X11.3199 Y-27.5473
G1 X11.3245 Y-27.5559
G1 X11.3784 Y-27.6456
G1 X11.4406 Y-27.7297
G1 X11.4468 Y-27.7373
G1 X11.5172 Y-27.8147
G1 X11.5946 Y-27.8851
G1 X11.6022 Y-27.8913
G1 X11.6863 Y-27.9535
G1 X11.7802 Y-28.0098
G1 X11.8747 Y-28.0547
G1 X11.8838 Y-28.0584
G1 X11.9824 Y-28.0935
G1 X12.0838 Y-28.1191
G1 X12.0934 Y-28.1210
G1 X12.1969 Y-28.1362
G1 X12.3014 Y-28.1415
G1 X12.3112 Y-28.1415
G1 X12.4157 Y-28.1362
G1 X12.5192 Y-28.1210
G1 X12.5288 Y-28.1191
G1 X12.6255 Y-28.0949
G1 X12.6326 Y-28.0928
G1 X12.7288 Y-28.0584
G1 X12.7379 Y-28.0547
G1 X12.8324 Y-28.0098
G1 X12.9222 Y-27.9561
G1 X12.9303 Y-27.9507
G1 X13.0143 Y-27.8883
G1 X13.0954 Y-27.8147
G1 X13.1690 Y-27.7336
G1 X13.2314 Y-27.6496
G1 X13.2369 Y-27.6415
G1 X13.2905 Y-27.5517
G1 X13.3354 Y-27.4572
G1 X13.3391 Y-27.4481
G1 X13.3743 Y-27.3496
G1 X13.4009 Y-27.2433
G1 X13.4163 Y-27.1399
G1 X13.4173 Y-27.1301
G1 X13.4223 Y-27.0256
G1 X13.4173 Y-26.9211
G1 X13.4163 Y-26.9113
G1 X13.4009 Y-26.8079
G1 X13.3756 Y-26.7064
G1 X13.3727 Y-26.6970
G1 X13.3374 Y-26.5985
G1 X13.2927 Y-26.5039
G1 X13.2881 Y-26.4953
G1 X13.2342 Y-26.4056
G1 X13.1720 Y-26.3215
G1 X13.1658 Y-26.3139
G1 X13.0954 Y-26.2365
G1 X13.0143 Y-26.1629
G1 X12.9263 Y-26.0977
G1 X12.8324 Y-26.0414
G1 X12.7334 Y-25.9946
G1 X12.6303 Y-25.9577
G1 X12.5240 Y-25.9310
G1 X12.4181 Y-25.9152
G1 X12.4108 Y-25.9146
G1 X12.3063 Y-25.9096
G1 X12.1969 Y-25.9150
G1 X12.0886 Y-25.9310
G1 X11.9847 Y-25.9570
G1 X11.9777 Y-25.9592
G1 X11.8792 Y-25.9946
G1 X11.7824 Y-26.0402
G1 X11.7760 Y-26.0438
G1 X11.6884 Y-26.0963
G1 X11.6639 Y-26.1142
G1 X2.9328 Y-17.3831
G1 X2.9328 Y-7.3110
G1 X4.9757 Y-5.2681
G1 X6.0788 Y-5.2680
G1 X6.9209 Y-6.1101
G1 X6.9209 Y-7.3341
G1 X5.8754 Y-8.3796
G0 Z2.0000
G0 X5.2329 Y-10.5410
F500
G1 Z0.0000 F500
F500
G1 X5.1805 Y-10.5277
G1 X5.1589 Y-10.5212
G1 X5.0696 Y-10.4894
G1 X5.0591 Y-10.4855
G1 X5.0382 Y-10.4768
G1 X4.9525 Y-10.4365
G1 X4.9324 Y-10.4263
G1 X4.9127 Y-10.4152
G1 X4.8412 Y-10.3723
G1 X4.8221 Y-10.3602
G1 X4.8036 Y-10.3472
G1 X4.7366 Y-10.2975
G1 X4.7188 Y-10.2836
G1 X4.7017 Y-10.2689
G1 X4.6317 Y-10.2052
G1 X4.6157 Y-10.1892
G1 X4.6080 Y-10.1810
G1 X4.5445 Y-10.1107
G1 X4.5302 Y-10.0932
G1 X4.4947 Y-10.0456
G1 X4.4947 Y-11.0364
G1 X4.5302 Y-10.9888
G1 X4.5445 Y-10.9713
G1 X4.6080 Y-10.9010
G1 X4.6157 Y-10.8928
G1 X4.6317 Y-10.8768
G1 X4.7017 Y-10.8131
G1 X4.7188 Y-10.7984
G1 X4.7366 Y-10.7845
G1 X4.8036 Y-10.7348
G1 X4.8221 Y-10.7218
G1 X4.8412 Y-10.7097
G1 X4.9127 Y-10.6668
G1 X4.9324 Y-10.6557
G1 X4.9525 Y-10.6455
G1 X5.0382 Y-10.6052
G1 X5.0591 Y-10.5965
G1 X5.0696 Y-10.5926
G1 X5.1589 Y-10.5608
G1 X5.1805 Y-10.5543
G1 X5.2329 Y-10.5410
G0 Z2.0000
G0 X4.7725 Y-10.5410
F500
G1 Z0.0000 F500
F500
G1 X4.7353 Y-10.5185
G1 X4.7221 Y-10.5099
G1 X4.7091 Y-10.5010
G1 X4.6747 Y-10.4757
G1 X4.6747 Y-10.6063
G1 X4.7091 Y-10.5810
G1 X4.7221 Y-10.5721
G1 X4.7353 Y-10.5635
G1 X4.7725 Y-10.5410
G0 Z2.0000
G0 X6.4224 Y-12.1858
F500
G1 Z0.0000 F500
F500
G1 X11.2655 Y-12.1857
G1 X11.2762 Y-12.2149
G1 X11.3199 Y-12.3073
G1 X11.3233 Y-12.3138
G1 X11.3784 Y-12.4056
G1 X11.4421 Y-12.4917
G1 X11.4468 Y-12.4973
G1 X11.5138 Y-12.5712
G1 X11.5207 Y-12.5781
G1 X11.5983 Y-12.6483
G1 X11.6823 Y-12.7107
G1 X11.6884 Y-12.7149
G1 X11.7802 Y-12.7698
G1 X11.8792 Y-12.8166
G1 X11.9824 Y-12.8535
G1 X12.0838 Y-12.8791
G1 X12.0934 Y-12.8810
G1 X12.1921 Y-12.8956
G1 X12.2018 Y-12.8966
G1 X12.3063 Y-12.9016
G1 X12.4133 Y-12.8964
G1 X12.4206 Y-12.8956
G1 X12.5240 Y-12.8802
G1 X12.6303 Y-12.8535
G1 X12.7334 Y-12.8166
G1 X12.8324 Y-12.7698
G1 X12.9263 Y-12.7135
G1 X13.0143 Y-12.6483
G1 X13.0954 Y-12.5747
G1 X13.1690 Y-12.4936
G1 X13.2342 Y-12.4056
G1 X13.2905 Y-12.3117
G1 X13.3374 Y-12.2127
G1 X13.3743 Y-12.1096
G1 X13.4009 Y-12.0033
G1 X13.4169 Y-11.8950
G1 X13.4223 Y-11.7856
G1 X13.4171 Y-11.6787
G1 X13.4163 Y-11.6713
G1 X13.4009 Y-11.5679
G1 X13.3743 Y-11.4616
G1 X13.3374 Y-11.3585
G1 X13.2927 Y-11.2639
G1 X13.2881 Y-11.2553
G1 X13.2342 Y-11.1656
G1 X13.1720 Y-11.0815
G1 X13.1658 Y-11.0739
G1 X13.0988 Y-11.0000
G1 X13.0919 Y-10.9931
G1 X13.0143 Y-10.9229
G1 X12.9263 Y-10.8577
G1 X12.8324 Y-10.8014
G1 X12.7334 Y-10.7546
G1 X12.6303 Y-10.7177
G1 X12.5240 Y-10.6910
G1 X12.4157 Y-10.6750
G1 X12.3088 Y-10.6696
G1 X12.3014 Y-10.6697
G1 X12.2018 Y-10.6746
G1 X12.1921 Y-10.6756
G1 X12.0886 Y-10.6910
G1 X11.9824 Y-10.7177
G1 X11.8792 Y-10.7546
G1 X11.7846 Y-10.7992
G1 X11.7760 Y-10.8038
G1 X11.6904 Y-10.8551
G1 X11.6843 Y-10.8591
G1 X11.5983 Y-10.9229
G1 X11.5207 Y-10.9931
G1 X11.5138 Y-11.0000
G1 X11.4468 Y-11.0739
G1 X11.4421 Y-11.0795
G1 X11.3784 Y-11.1656
G1 X11.3233 Y-11.2574
G1 X11.3199 Y-11.2639
G1 X11.2762 Y-11.3563
G1 X11.2655 Y-11.3854
G1 X6.3984 Y-11.3855
G1 X6.3865 Y-11.3610
G1 X6.3411 Y-11.2853
G1 X6.2873 Y-11.2122
G1 X6.2827 Y-11.2064
G1 X6.2217 Y-11.1392
G1 X6.1563 Y-11.0798
G1 X6.1487 Y-11.0736
G1 X6.0756 Y-11.0198
G1 X5.9977 Y-10.9732
G1 X5.9179 Y-10.9353
G1 X5.9089 Y-10.9315
G1 X5.8257 Y-10.9019
G1 X5.7400 Y-10.8803
G1 X5.7304 Y-10.8784
G1 X5.6430 Y-10.8656
G1 X5.5499 Y-10.8610
G1 X5.4617 Y-10.8652
G1 X5.4519 Y-10.8662
G1 X5.3646 Y-10.8793
G1 X5.2741 Y-10.9019
G1 X5.1864 Y-10.9333
G1 X5.1065 Y-10.9710
G1 X5.0978 Y-10.9756
G1 X5.0221 Y-11.0211
G1 X4.9472 Y-11.0766
G1 X4.8817 Y-11.1359
G1 X4.8748 Y-11.1428
G1 X4.8155 Y-11.2083
G1 X4.7600 Y-11.2832
G1 X4.7145 Y-11.3589
G1 X4.7099 Y-11.3676
G1 X4.6722 Y-11.4475
G1 X4.6408 Y-11.5352
G1 X4.6182 Y-11.6257
G1 X4.6045 Y-11.7179
G1 X4.5999 Y-11.8110
G1 X4.6045 Y-11.9041
G1 X4.6182 Y-11.9963
G1 X4.6408 Y-12.0868
G1 X4.6722 Y-12.1745
G1 X4.7121 Y-12.2588
G1 X4.7600 Y-12.3388
G1 X4.8155 Y-12.4137
G1 X4.8781 Y-12.4828
G1 X4.9472 Y-12.5454
G1 X5.0221 Y-12.6009
G1 X5.1021 Y-12.6488
G1 X5.1864 Y-12.6887
G1 X5.2741 Y-12.7201
G1 X5.3646 Y-12.7427
G1 X5.4568 Y-12.7564
G1 X5.5499 Y-12.7610
G1 X5.6430 Y-12.7564
G1 X5.7352 Y-12.7427
G1 X5.8257 Y-12.7201
G1 X5.9134 Y-12.6887
G1 X5.9977 Y-12.6488
G1 X6.0777 Y-12.6009
G1 X6.1526 Y-12.5454
G1 X6.2217 Y-12.4828
G1 X6.2843 Y-12.4137
G1 X6.3398 Y-12.3388
G1 X6.3877 Y-12.2588
G1 X6.4224 Y-12.1858
G0 Z2.0000
G0 X6.5800 Y-12.8869
F500
G1 Z0.0000 F500
F500
G1 X6.6007 Y-12.8933
G1 X6.6155 Y-12.8984
G1 X6.6302 Y-12.9039
G1 X6.6593 Y-12.9159
G1 X6.6877 Y-12.9293
G1 X6.7016 Y-12.9366
G1 X6.7154 Y-12.9441
G1 X6.7423 Y-12.9603
G1 X6.7555 Y-12.9689
G1 X6.7811 Y-12.9869
G1 X6.8059 Y-13.0063
G1 X6.8179 Y-13.0164
G1 X6.8412 Y-13.0375
G1 X6.8524 Y-13.0485
G1 X6.8634 Y-13.0597
G1 X6.8845 Y-13.0830
G1 X6.9044 Y-13.1073
G1 X6.9140 Y-13.1198
G1 X6.9320 Y-13.1454
G1 X6.9406 Y-13.1586
G1 X6.9488 Y-13.1720
G1 X6.9643 Y-13.1993
G1 X6.9785 Y-13.2274
G1 X6.9850 Y-13.2416
G1 X6.9912 Y-13.2561
G1 X7.0025 Y-13.2854
G1 X7.0123 Y-13.3152
G1 X7.0167 Y-13.3303
G1 X7.0207 Y-13.3455
G1 X7.0276 Y-13.3761
G1 X7.0332 Y-13.4089
G1 X7.1189 Y-13.4086
G1 X7.1419 Y-13.4035
G1 X7.1573 Y-13.4006
G1 X7.2176 Y-13.3917
G1 X7.2332 Y-13.3900
G1 X7.2645 Y-13.3877
G1 X7.3096 Y-13.3856
G1 X7.3254 Y-13.3855
G1 X10.9435 Y-13.3854
G1 X11.0069 Y-13.2998
G1 X11.0262 Y-13.2750
G1 X11.0467 Y-13.2513
G1 X11.1137 Y-13.1774
G1 X11.1244 Y-13.1659
G1 X11.1466 Y-13.1437
G1 X11.2437 Y-13.0556
G1 X11.1466 Y-12.9675
G1 X11.1244 Y-12.9453
G1 X11.1137 Y-12.9338
G1 X11.0467 Y-12.8599
G1 X11.0262 Y-12.8362
G1 X11.0069 Y-12.8114
G1 X10.9435 Y-12.7257
G1 X6.7253 Y-12.7258
G1 X6.7115 Y-12.7440
G1 X6.7017 Y-12.7562
G1 X6.6812 Y-12.7800
G1 X6.6145 Y-12.8533
G1 X6.5922 Y-12.8756
G1 X6.5800 Y-12.8869
G0 Z2.0000
G0 X5.9978 Y-13.0410
F500
G1 Z0.0000 F500
F500
G1 X6.3999 Y-13.0410
G1 X6.4225 Y-13.0416
G1 X6.4450 Y-13.0432
G1 X6.4674 Y-13.0460
G1 X6.4785 Y-13.0478
G1 X6.5007 Y-13.0522
G1 X6.5226 Y-13.0577
G1 X6.5334 Y-13.0608
G1 X6.5549 Y-13.0679
G1 X6.5759 Y-13.0760
G1 X6.5966 Y-13.0852
G1 X6.6067 Y-13.0901
G1 X6.6266 Y-13.1008
G1 X6.6460 Y-13.1124
G1 X6.6648 Y-13.1249
G1 X6.6739 Y-13.1315
G1 X6.6829 Y-13.1384
G1 X6.7004 Y-13.1527
G1 X6.7171 Y-13.1678
G1 X6.7252 Y-13.1757
G1 X6.7407 Y-13.1921
G1 X6.7482 Y-13.2005
G1 X6.7625 Y-13.2180
G1 X6.7694 Y-13.2270
G1 X6.7760 Y-13.2361
G1 X6.7885 Y-13.2549
G1 X6.7945 Y-13.2645
G1 X6.8056 Y-13.2842
G1 X6.8157 Y-13.3043
G1 X6.8204 Y-13.3146
G1 X6.8291 Y-13.3354
G1 X6.8367 Y-13.3567
G1 X6.8401 Y-13.3675
G1 X6.8432 Y-13.3783
G1 X6.8487 Y-13.4002
G1 X6.8531 Y-13.4224
G1 X6.8549 Y-13.4335
G1 X6.8577 Y-13.4559
G1 X6.8587 Y-13.4672
G1 X6.8598 Y-13.4897
G1 X6.8599 Y-13.5909
G1 X7.1317 Y-13.5909
G1 X7.1550 Y-13.5850
G1 X7.1770 Y-13.5801
G1 X7.1993 Y-13.5762
G1 X7.2396 Y-13.5704
G1 X7.2508 Y-13.5691
G1 X7.2734 Y-13.5675
G1 X7.3028 Y-13.5660
G1 X7.3254 Y-13.5655
G1 X11.0425 Y-13.5654
G1 X11.0729 Y-13.5150
G1 X11.0854 Y-13.4963
G1 X11.1583 Y-13.3980
G1 X11.1726 Y-13.3806
G1 X11.1801 Y-13.3721
G1 X11.2471 Y-13.2983
G1 X11.2626 Y-13.2819
G1 X11.2790 Y-13.2663
G1 X11.3528 Y-13.1994
G1 X11.3699 Y-13.1846
G1 X11.3788 Y-13.1776
G1 X11.4770 Y-13.1047
G1 X11.4958 Y-13.0922
G1 X11.5565 Y-13.0556
G1 X11.4958 Y-13.0190
G1 X11.4770 Y-13.0065
G1 X11.3788 Y-12.9336
G1 X11.3613 Y-12.9193
G1 X11.3528 Y-12.9118
G1 X11.2790 Y-12.8449
G1 X11.2626 Y-12.8293
G1 X11.2471 Y-12.8129
G1 X11.1801 Y-12.7391
G1 X11.1653 Y-12.7220
G1 X11.1583 Y-12.7132
G1 X11.0854 Y-12.6149
G1 X11.0729 Y-12.5962
G1 X11.0425 Y-12.5457
G1 X6.6344 Y-12.5458
G1 X6.5764 Y-12.6243
G1 X6.5625 Y-12.6421
G1 X6.5478 Y-12.6592
G1 X6.4918 Y-12.7210
G1 X6.4762 Y-12.7373
G1 X6.4599 Y-12.7529
G1 X6.3981 Y-12.8089
G1 X6.3810 Y-12.8236
G1 X6.3721 Y-12.8307
G1 X6.2962 Y-12.8872
G1 X6.2777 Y-12.9002
G1 X6.2586 Y-12.9123
G1 X6.1773 Y-12.9609
G1 X6.1674 Y-12.9663
G1 X6.1473 Y-12.9765
G1 X6.0616 Y-13.0168
G1 X6.0407 Y-13.0255
G1 X5.9978 Y-13.0410
G0 Z2.0000
G0 X4.4947 Y-13.0893
F500
G1 Z0.0000 F500
F500
G1 X4.5135 Y-13.0805
G1 X4.5343 Y-13.0718
G1 X4.5556 Y-13.0642
G1 X4.5772 Y-13.0577
G1 X4.5991 Y-13.0522
G1 X4.6213 Y-13.0478
G1 X4.6436 Y-13.0445
G1 X4.6661 Y-13.0422
G1 X4.6773 Y-13.0416
G1 X4.6999 Y-13.0410
G1 X5.1020 Y-13.0410
G1 X5.0591 Y-13.0255
G1 X5.0382 Y-13.0168
G1 X4.9525 Y-12.9765
G1 X4.9324 Y-12.9663
G1 X4.9225 Y-12.9609
G1 X4.8412 Y-12.9123
G1 X4.8221 Y-12.9002
G1 X4.8036 Y-12.8872
G1 X4.7366 Y-12.8375
G1 X4.7188 Y-12.8236
G1 X4.7017 Y-12.8089
G1 X4.6399 Y-12.7529
G1 X4.6317 Y-12.7452
G1 X4.6157 Y-12.7292
G1 X4.5445 Y-12.6507
G1 X4.5302 Y-12.6332
G1 X4.4947 Y-12.5856
G1 X4.4947 Y-13.0893
G0 Z2.0000
G0 X3.2928 Y-16.8273
F500
G1 Z0.0000 F500
F500
G1 X3.2928 Y-17.2340
G1 X10.8667 Y-24.8079
G1 X10.8587 Y-24.7736
G1 X10.8548 Y-24.7513
G1 X10.8402 Y-24.6527
G1 X10.8374 Y-24.6303
G1 X10.8364 Y-24.6190
G1 X10.8309 Y-24.5082
G1 X10.8303 Y-24.4856
G1 X10.8309 Y-24.4630
G1 X10.8354 Y-24.3699
G1 X3.2928 Y-16.8273
G0 Z2.0000
G0 X2.2709 Y-18.6167
F500
G1 Z0.0000 F500
F500
G1 X2.2709 Y-21.4962
G1 X2.6917 Y-21.9171
G1 X2.7863 Y-21.8934
G1 X2.8170 Y-21.8865
G1 X2.8479 Y-21.8811
G1 X2.9450 Y-21.8667
G1 X2.9762 Y-21.8629
G1 X2.9918 Y-21.8615
G1 X3.1055 Y-21.8558
G1 X3.1212 Y-21.8552
G1 X3.1526 Y-21.8552
G1 X3.2820 Y-21.8615
G1 X3.2976 Y-21.8629
G1 X3.3288 Y-21.8667
G1 X3.4259 Y-21.8811
G1 X3.4414 Y-21.8836
G1 X3.4722 Y-21.8898
G1 X3.5979 Y-21.9212
G1 X3.6130 Y-21.9256
G1 X3.6428 Y-21.9355
G1 X3.7499 Y-21.9740
G1 X3.7789 Y-21.9860
G1 X3.7932 Y-21.9926
G1 X3.8819 Y-22.0345
G1 X3.9100 Y-22.0486
G1 X3.9373 Y-22.0641
G1 X4.0349 Y-22.1228
G1 X4.0480 Y-22.1314
G1 X4.0737 Y-22.1495
G1 X4.1650 Y-22.2174
G1 X4.1893 Y-22.2374
G1 X4.2011 Y-22.2478
G1 X4.2738 Y-22.3137
G1 X4.2853 Y-22.3244
G1 X4.3075 Y-22.3466
G1 X4.3841 Y-22.4308
G1 X4.4046 Y-22.4546
G1 X4.4240 Y-22.4794
G1 X4.4824 Y-22.5582
G1 X4.5005 Y-22.5839
G1 X4.5173 Y-22.6104
G1 X4.5678 Y-22.6946
G1 X4.5833 Y-22.7219
G1 X4.5974 Y-22.7500
G1 X4.6393 Y-22.8387
G1 X4.6521 Y-22.8674
G1 X4.6634 Y-22.8967
G1 X4.7015 Y-23.0040
G1 X4.7107 Y-23.0340
G1 X4.7147 Y-23.0492
G1 X4.7385 Y-23.1444
G1 X4.7454 Y-23.1751
G1 X4.7508 Y-23.2060
G1 X4.7652 Y-23.3031
G1 X4.7690 Y-23.3343
G1 X4.7713 Y-23.3656
G1 X4.7761 Y-23.4636
G1 X4.7769 Y-23.4950
G1 X4.7761 Y-23.5264
G1 X4.7713 Y-23.6244
G1 X4.7690 Y-23.6557
G1 X4.7652 Y-23.6869
G1 X4.7508 Y-23.7840
G1 X4.7454 Y-23.8149
G1 X4.7385 Y-23.8456
G1 X4.7147 Y-23.9408
G1 X4.7063 Y-23.9711
G1 X4.6964 Y-24.0009
G1 X4.6634 Y-24.0933
G1 X4.6521 Y-24.1226
G1 X4.6393 Y-24.1513
G1 X4.5974 Y-24.2400
G1 X4.5833 Y-24.2681
G1 X4.5678 Y-24.2954
G1 X4.5173 Y-24.3796
G1 X4.5005 Y-24.4061
G1 X4.4824 Y-24.4318
G1 X4.4240 Y-24.5106
G1 X4.4046 Y-24.5354
G1 X4.3841 Y-24.5592
G1 X4.3182 Y-24.6319
G1 X4.2966 Y-24.6547
G1 X4.2738 Y-24.6763
G1 X4.2011 Y-24.7422
G1 X4.1893 Y-24.7526
G1 X4.1745 Y-24.7650
G1 X4.1893 Y-24.7774
G1 X4.2011 Y-24.7878
G1 X4.2738 Y-24.8537
G1 X4.2966 Y-24.8753
G1 X4.3182 Y-24.8981
G1 X4.3841 Y-24.9708
G1 X4.4046 Y-24.9946
G1 X4.4240 Y-25.0194
G1 X4.4824 Y-25.0982
G1 X4.5005 Y-25.1239
G1 X4.5173 Y-25.1504
G1 X4.5678 Y-25.2346
G1 X4.5833 Y-25.2619
G1 X4.5974 Y-25.2900
G1 X4.6393 Y-25.3787
G1 X4.6521 Y-25.4074
G1 X4.6634 Y-25.4367
G1 X4.6964 Y-25.5291
G1 X4.7063 Y-25.5589
G1 X4.7147 Y-25.5892
G1 X4.7385 Y-25.6844
G1 X4.7454 Y-25.7151
G1 X4.7508 Y-25.7460
G1 X4.7652 Y-25.8431
G1 X4.7690 Y-25.8743
G1 X4.7713 Y-25.9056
G1 X4.7761 Y-26.0036
G1 X4.7769 Y-26.0350
G1 X4.7761 Y-26.0664
G1 X4.7713 Y-26.1644
G1 X4.7690 Y-26.1957
G1 X4.7652 Y-26.2269
G1 X4.7514 Y-26.3199
G1 X9.2993 Y-30.8678
G1 X9.3209 Y-30.8905
G1 X9.3511 Y-30.9241
G1 X9.3612 Y-30.9361
G1 X9.3806 Y-30.9609
G1 X9.4073 Y-30.9973
G1 X9.4248 Y-31.0234
G1 X9.4560 Y-31.0756
G1 X9.4709 Y-31.1033
G1 X9.4903 Y-31.1441
G1 X9.5031 Y-31.1728
G1 X9.5089 Y-31.1874
G1 X9.5294 Y-31.2447
G1 X9.5385 Y-31.2747
G1 X9.5533 Y-31.3338
G1 X9.5594 Y-31.3646
G1 X9.5684 Y-31.4248
G1 X9.5715 Y-31.4561
G1 X9.5744 Y-31.5169
G1 X9.5746 Y-35.8554
G1 X10.6685 Y-36.9492
G1 X10.6793 Y-36.8780
G1 X10.6854 Y-36.8472
G1 X10.7132 Y-36.7352
G1 X10.7172 Y-36.7200
G1 X10.7264 Y-36.6899
G1 X10.7651 Y-36.5812
G1 X10.7764 Y-36.5519
G1 X10.7891 Y-36.5232
G1 X10.8317 Y-36.4330
G1 X10.8458 Y-36.4050
G1 X10.8534 Y-36.3912
G1 X10.9126 Y-36.2921
G1 X10.9294 Y-36.2656
G1 X10.9475 Y-36.2399
G1 X11.0069 Y-36.1598
G1 X11.0262 Y-36.1350
G1 X11.0467 Y-36.1113
G1 X11.1137 Y-36.0374
G1 X11.1353 Y-36.0146
G1 X11.1581 Y-35.9930
G1 X11.2437 Y-35.9156
G1 X11.1466 Y-35.8275
G1 X11.1353 Y-35.8166
G1 X11.1137 Y-35.7938
G1 X11.0467 Y-35.7199
G1 X11.0262 Y-35.6962
G1 X11.0069 Y-35.6714
G1 X10.9383 Y-35.5786
G1 X10.9208 Y-35.5525
G1 X10.9126 Y-35.5391
G1 X10.8613 Y-35.4536
G1 X10.8458 Y-35.4262
G1 X10.8317 Y-35.3982
G1 X10.7891 Y-35.3080
G1 X10.7764 Y-35.2793
G1 X10.7651 Y-35.2500
G1 X10.7315 Y-35.1561
G1 X10.7216 Y-35.1263
G1 X10.7132 Y-35.0960
G1 X10.6890 Y-34.9993
G1 X10.6821 Y-34.9687
G1 X10.6768 Y-34.9377
G1 X10.6621 Y-34.8391
G1 X10.6583 Y-34.8079
G1 X10.6560 Y-34.7766
G1 X10.6511 Y-34.6770
G1 X10.6503 Y-34.6456
G1 X10.6511 Y-34.6142
G1 X10.6560 Y-34.5146
G1 X10.6583 Y-34.4833
G1 X10.6621 Y-34.4521
G1 X10.6793 Y-34.3380
G1 X10.6854 Y-34.3072
G1 X10.6890 Y-34.2919
G1 X10.7172 Y-34.1800
G1 X10.7216 Y-34.1649
G1 X10.7315 Y-34.1351
G1 X10.7651 Y-34.0412
G1 X10.7764 Y-34.0119
G1 X10.7891 Y-33.9832
G1 X10.8386 Y-33.8789
G1 X10.8458 Y-33.8650
G1 X10.8613 Y-33.8376
G1 X10.9126 Y-33.7521
G1 X10.9294 Y-33.7256
G1 X10.9475 Y-33.6999
G1 X11.0069 Y-33.6198
G1 X11.0262 Y-33.5950
G1 X11.0467 Y-33.5713
G1 X11.1137 Y-33.4974
G1 X11.1353 Y-33.4746
G1 X11.1581 Y-33.4530
G1 X11.2437 Y-33.3756
G1 X11.1466 Y-33.2875
G1 X11.1244 Y-33.2653
G1 X11.1137 Y-33.2538
G1 X11.0467 Y-33.1799
G1 X11.0262 Y-33.1562
G1 X11.0069 Y-33.1314
G1 X10.9475 Y-33.0513
G1 X10.9294 Y-33.0256
G1 X10.9126 Y-32.9991
G1 X10.8613 Y-32.9136
G1 X10.8458 Y-32.8862
G1 X10.8317 Y-32.8582
G1 X10.7891 Y-32.7680
G1 X10.7764 Y-32.7393
G1 X10.7651 Y-32.7100
G1 X10.7315 Y-32.6161
G1 X10.7216 Y-32.5863
G1 X10.7132 Y-32.5560
G1 X10.6890 Y-32.4593
G1 X10.6821 Y-32.4287
G1 X10.6768 Y-32.3977
G1 X10.6621 Y-32.2991
G1 X10.6583 Y-32.2679
G1 X10.6560 Y-32.2366
G1 X10.6511 Y-32.1370
G1 X10.6503 Y-32.1056
G1 X10.6511 Y-32.0742
G1 X10.6560 Y-31.9746
G1 X10.6583 Y-31.9433
G1 X10.6621 Y-31.9121
G1 X10.6768 Y-31.8135
G1 X10.6821 Y-31.7825
G1 X10.6890 Y-31.7519
G1 X10.7132 Y-31.6552
G1 X10.7216 Y-31.6249
G1 X10.7315 Y-31.5951
G1 X10.7651 Y-31.5012
G1 X10.7764 Y-31.4719
G1 X10.7891 Y-31.4432
G1 X10.8317 Y-31.3530
G1 X10.8458 Y-31.3250
G1 X10.8613 Y-31.2976
G1 X10.9126 Y-31.2121
G1 X10.9294 Y-31.1856
G1 X10.9475 Y-31.1599
G1 X11.0069 Y-31.0798
G1 X11.0262 Y-31.0550
G1 X11.0467 Y-31.0313
G1 X11.1137 Y-30.9574
G1 X11.1353 Y-30.9346
G1 X11.1581 Y-30.9130
G1 X11.2437 Y-30.8356
G1 X11.1466 Y-30.7475
G1 X11.1244 Y-30.7253
G1 X11.1137 Y-30.7138
G1 X11.0467 Y-30.6399
G1 X11.0262 Y-30.6162
G1 X11.0069 Y-30.5914
G1 X10.9475 Y-30.5113
G1 X10.9294 Y-30.4856
G1 X10.9126 Y-30.4591
G1 X10.8613 Y-30.3736
G1 X10.8458 Y-30.3462
G1 X10.8317 Y-30.3182
G1 X10.7891 Y-30.2280
G1 X10.7764 Y-30.1993
G1 X10.7651 Y-30.1700
G1 X10.7315 Y-30.0761
G1 X10.7216 Y-30.0463
G1 X10.7132 Y-30.0160
G1 X10.6890 Y-29.9193
G1 X10.6821 Y-29.8887
G1 X10.6768 Y-29.8577
G1 X10.6621 Y-29.7591
G1 X10.6583 Y-29.7279
G1 X10.6560 Y-29.6966
G1 X10.6511 Y-29.5970
G1 X10.6505 Y-29.5813
G1 X10.6505 Y-29.5499
G1 X10.6569 Y-29.4189
G1 X10.6583 Y-29.4033
G1 X10.6621 Y-29.3721
G1 X10.6768 Y-29.2735
G1 X10.6821 Y-29.2425
G1 X10.6890 Y-29.2119
G1 X10.7132 Y-29.1152
G1 X10.7216 Y-29.0849
G1 X10.7315 Y-29.0551
G1 X10.7651 Y-28.9612
G1 X10.7764 Y-28.9319
G1 X10.7891 Y-28.9032
G1 X10.8317 Y-28.8130
G1 X10.8458 Y-28.7850
G1 X10.8613 Y-28.7576
G1 X10.9126 Y-28.6721
G1 X10.9294 Y-28.6456
G1 X10.9475 Y-28.6199
G1 X11.0069 Y-28.5398
G1 X11.0262 Y-28.5150
G1 X11.0467 Y-28.4913
G1 X11.1137 Y-28.4174
G1 X11.1353 Y-28.3946
G1 X11.1581 Y-28.3730
G1 X11.2437 Y-28.2956
G1 X11.1581 Y-28.2182
G1 X11.1466 Y-28.2075
G1 X11.1244 Y-28.1853
G1 X11.0363 Y-28.0882
G1 X11.0262 Y-28.0762
G1 X11.0069 Y-28.0514
G1 X10.9475 Y-27.9713
G1 X10.9294 Y-27.9456
G1 X10.9126 Y-27.9191
G1 X10.8613 Y-27.8336
G1 X10.8534 Y-27.8200
G1 X10.8386 Y-27.7923
G1 X10.7826 Y-27.6738
G1 X10.7705 Y-27.6447
G1 X10.7651 Y-27.6300
G1 X10.7315 Y-27.5361
G1 X10.7216 Y-27.5063
G1 X10.7132 Y-27.4760
G1 X10.6890 Y-27.3793
G1 X10.6821 Y-27.3487
G1 X10.6768 Y-27.3177
G1 X10.6621 Y-27.2191
G1 X10.6583 Y-27.1879
G1 X10.6560 Y-27.1566
G1 X10.6511 Y-27.0570
G1 X10.6503 Y-27.0256
G1 X10.6510 Y-26.9968
G1 X2.2709 Y-18.6167
G0 Z2.0000
G0 X2.0783 Y-23.7909
F500
G1 Z0.0000 F500
F500
G1 X0.8130 Y-25.0563
G1 X0.7900 Y-25.0819
G1 X0.7666 Y-25.1134
G1 X0.7464 Y-25.1471
G1 X0.7316 Y-25.1781
G1 X0.7279 Y-25.1872
G1 X0.7179 Y-25.2149
G1 X0.7151 Y-25.2243
G1 X0.7069 Y-25.2577
G1 X0.7011 Y-25.2965
G1 X0.6992 Y-25.3357
G1 X0.6992 Y-37.9199
G1 X0.7007 Y-37.9542
G1 X0.7017 Y-37.9640
G1 X0.7069 Y-37.9980
G1 X0.7151 Y-38.0313
G1 X0.7179 Y-38.0407
G1 X0.7279 Y-38.0685
G1 X0.7316 Y-38.0775
G1 X0.7464 Y-38.1085
G1 X0.7666 Y-38.1422
G1 X0.7900 Y-38.1738
G1 X0.8147 Y-38.2011
G1 X3.3488 Y-40.7352
G1 X2.5489 Y-41.5351
G1 X2.5257 Y-41.5605
G1 X2.5195 Y-41.5681
G1 X2.5020 Y-41.5917
G1 X2.4965 Y-41.5999
G1 X2.4789 Y-41.6294
G1 X2.4641 Y-41.6604
G1 X2.4604 Y-41.6695
G1 X2.4489 Y-41.7019
G1 X2.4405 Y-41.7352
G1 X2.4385 Y-41.7448
G1 X2.4336 Y-41.7788
G1 X2.4317 Y-41.8181
G1 X2.4318 Y-46.8489
G1 X2.4336 Y-46.8832
G1 X2.4394 Y-46.9220
G1 X2.4489 Y-46.9601
G1 X2.4604 Y-46.9925
G1 X2.4641 Y-47.0016
G1 X2.4767 Y-47.0282
G1 X2.4814 Y-47.0369
G1 X2.4991 Y-47.0663
G1 X2.5225 Y-47.0978
G1 X2.5489 Y-47.1269
G1 X3.1870 Y-47.7649
G1 X3.2142 Y-47.7897
G1 X3.2436 Y-47.8119
G1 X3.2517 Y-47.8173
G1 X3.2813 Y-47.8349
G1 X3.3123 Y-47.8497
G1 X3.3214 Y-47.8534
G1 X3.3537 Y-47.8649
G1 X3.3942 Y-47.8749
G1 X3.4307 Y-47.8802
G1 X3.4674 Y-47.8821
G1 X3.7286 Y-47.8821
G1 X3.7414 Y-47.9084
G1 X3.7830 Y-47.9779
G1 X3.7870 Y-47.9840
G1 X3.8382 Y-48.0529
G1 X3.8975 Y-48.1184
G1 X3.9629 Y-48.1777
G1 X4.0319 Y-48.2289
G1 X4.0380 Y-48.2329
G1 X4.1075 Y-48.2745
G1 X4.1337 Y-48.2873
G1 X4.1338 Y-58.3580
G1 X4.1357 Y-58.3972
G1 X4.1414 Y-58.4361
G1 X4.1510 Y-58.4742
G1 X4.1624 Y-58.5066
G1 X4.1662 Y-58.5156
G1 X4.1810 Y-58.5466
G1 X4.2012 Y-58.5803
G1 X4.2216 Y-58.6080
G1 X4.2278 Y-58.6156
G1 X4.2510 Y-58.6410
G1 X11.4997 Y-65.8898
G1 X11.4998 Y-66.5242
G1 X10.9601 Y-66.5242
G1 X10.9479 Y-66.5250
G1 X10.9406 Y-66.5261
G1 X10.9334 Y-66.5278
G1 X10.9264 Y-66.5300
G1 X10.9196 Y-66.5328
G1 X10.9130 Y-66.5360
G1 X10.9066 Y-66.5397
G1 X10.9005 Y-66.5439
G1 X10.8948 Y-66.5485
G1 X10.8894 Y-66.5535
G1 X10.8828 Y-66.5608
G1 X10.8783 Y-66.5666
G1 X10.8743 Y-66.5728
G1 X10.8708 Y-66.5792
G1 X10.8677 Y-66.5859
G1 X10.8651 Y-66.5928
G1 X10.8631 Y-66.5999
G1 X10.8609 Y-66.6120
G1 X10.8601 Y-66.6242
G1 X10.8601 Y-68.5063
G1 X10.8606 Y-68.5136
G1 X10.8620 Y-68.5233
G1 X10.8644 Y-68.5328
G1 X10.8668 Y-68.5398
G1 X10.8697 Y-68.5466
G1 X10.8743 Y-68.5552
G1 X10.8783 Y-68.5614
G1 X10.8844 Y-68.5691
G1 X10.8911 Y-68.5762
G1 X10.8986 Y-68.5826
G1 X10.9066 Y-68.5883
G1 X10.9130 Y-68.5920
G1 X10.9196 Y-68.5952
G1 X10.9287 Y-68.5988
G1 X10.9358 Y-68.6008
G1 X10.9454 Y-68.6027
G1 X10.9527 Y-68.6035
G1 X10.9601 Y-68.6038
G1 X11.4997 Y-68.6038
G1 X11.4998 Y-69.4040
G1 X11.5015 Y-69.4407
G1 X11.5066 Y-69.4772
G1 X11.5085 Y-69.4868
G1 X11.5170 Y-69.5201
G1 X11.5284 Y-69.5525
G1 X11.5322 Y-69.5616
G1 X11.5470 Y-69.5926
G1 X11.5686 Y-69.6283
G1 X11.5906 Y-69.6578
G1 X11.6169 Y-69.6869
G1 X13.0363 Y-71.1062
G1 X13.0636 Y-71.1309
G1 X13.0952 Y-71.1543
G1 X13.1289 Y-71.1744
G1 X13.1599 Y-71.1892
G1 X13.1689 Y-71.1930
G1 X13.1967 Y-71.2029
G1 X13.2061 Y-71.2058
G1 X13.2394 Y-71.2140
G1 X13.2807 Y-71.2200
G1 X13.3175 Y-71.2217
G1 X32.5169 Y-71.2217
G1 X47.8217 Y-86.5265
G1 X47.8218 Y-87.1610
G1 X47.4719 Y-87.1610
G1 X47.4621 Y-87.1615
G1 X47.4548 Y-87.1625
G1 X47.4476 Y-87.1640
G1 X47.4405 Y-87.1660
G1 X47.4336 Y-87.1686
G1 X47.4269 Y-87.1717
G1 X47.4184 Y-87.1765
G1 X47.4123 Y-87.1807
G1 X47.4066 Y-87.1853
G1 X47.4012 Y-87.1903
G1 X47.3962 Y-87.1957
G1 X47.3916 Y-87.2014
G1 X47.3874 Y-87.2075
G1 X47.3837 Y-87.2139
G1 X47.3805 Y-87.2205
G1 X47.3777 Y-87.2273
G1 X47.3749 Y-87.2367
G1 X47.3734 Y-87.2439
G1 X47.3722 Y-87.2536
G1 X47.3719 Y-87.2610
G1 X47.3719 Y-88.7635
G1 X47.3724 Y-88.7708
G1 X47.3738 Y-88.7805
G1 X47.3762 Y-88.7900
G1 X47.3795 Y-88.7993
G1 X47.3837 Y-88.8081
G1 X47.3888 Y-88.8166
G1 X47.3931 Y-88.8225
G1 X47.3995 Y-88.8300
G1 X47.4085 Y-88.8383
G1 X47.4163 Y-88.8441
G1 X47.4248 Y-88.8492
G1 X47.4336 Y-88.8534
G1 X47.4429 Y-88.8567
G1 X47.4524 Y-88.8591
G1 X47.4621 Y-88.8605
G1 X47.4719 Y-88.8610
G1 X48.9719 Y-88.8610
G1 X48.9817 Y-88.8605
G1 X48.9890 Y-88.8595
G1 X48.9962 Y-88.8580
G1 X49.0033 Y-88.8560
G1 X49.0102 Y-88.8534
G1 X49.0169 Y-88.8503
G1 X49.0233 Y-88.8468
G1 X49.0295 Y-88.8428
G1 X49.0391 Y-88.8351
G1 X49.0476 Y-88.8263
G1 X49.0537 Y-88.8186
G1 X49.0601 Y-88.8081
G1 X49.0652 Y-88.7970
G1 X49.0689 Y-88.7853
G1 X49.0708 Y-88.7757
G1 X49.0719 Y-88.7635
G1 X49.0719 Y-87.2610
G1 X49.0714 Y-87.2512
G1 X49.0704 Y-87.2439
G1 X49.0683 Y-87.2343
G1 X49.0661 Y-87.2273
G1 X49.0633 Y-87.2205
G1 X49.0601 Y-87.2139
G1 X49.0564 Y-87.2075
G1 X49.0522 Y-87.2014
G1 X49.0476 Y-87.1957
G1 X49.0426 Y-87.1903
G1 X49.0372 Y-87.1853
G1 X49.0315 Y-87.1807
G1 X49.0254 Y-87.1765
G1 X49.0169 Y-87.1717
G1 X49.0102 Y-87.1686
G1 X49.0033 Y-87.1660
G1 X48.9962 Y-87.1640
G1 X48.9890 Y-87.1625
G1 X48.9817 Y-87.1615
G1 X48.9719 Y-87.1610
G1 X48.6221 Y-87.1610
G1 X48.6220 Y-86.3608
G1 X48.6201 Y-86.3215
G1 X48.6144 Y-86.2827
G1 X48.6061 Y-86.2493
G1 X48.6033 Y-86.2399
G1 X48.5916 Y-86.2076
G1 X48.5748 Y-86.1721
G1 X48.5572 Y-86.1426
G1 X48.5518 Y-86.1344
G1 X48.5296 Y-86.1050
G1 X48.5048 Y-86.0778
G1 X32.9656 Y-70.5386
G1 X32.9365 Y-70.5122
G1 X32.9070 Y-70.4902
G1 X32.8756 Y-70.4711
G1 X32.8669 Y-70.4664
G1 X32.8358 Y-70.4518
G1 X32.7988 Y-70.4386
G1 X32.7608 Y-70.4291
G1 X32.7268 Y-70.4239
G1 X32.7170 Y-70.4230
G1 X32.6827 Y-70.4214
G1 X13.4832 Y-70.4214
G1 X12.3001 Y-69.2382
G1 X12.3000 Y-68.6038
G1 X12.8397 Y-68.6038
G1 X12.8519 Y-68.6030
G1 X12.8592 Y-68.6019
G1 X12.8664 Y-68.6002
G1 X12.8734 Y-68.5980
G1 X12.8802 Y-68.5952
G1 X12.8868 Y-68.5920
G1 X12.8932 Y-68.5883
G1 X12.8993 Y-68.5841
G1 X12.9050 Y-68.5795
G1 X12.9104 Y-68.5745
G1 X12.9170 Y-68.5672
G1 X12.9215 Y-68.5614
G1 X12.9255 Y-68.5552
G1 X12.9290 Y-68.5488
G1 X12.9321 Y-68.5421
G1 X12.9347 Y-68.5352
G1 X12.9367 Y-68.5281
G1 X12.9389 Y-68.5160
G1 X12.9397 Y-68.5038
G1 X12.9397 Y-66.6217
G1 X12.9392 Y-66.6144
G1 X12.9378 Y-66.6047
G1 X12.9361 Y-66.5975
G1 X12.9330 Y-66.5882
G1 X12.9301 Y-66.5814
G1 X12.9255 Y-66.5728
G1 X12.9215 Y-66.5666
G1 X12.9154 Y-66.5589
G1 X12.9087 Y-66.5518
G1 X12.9012 Y-66.5454
G1 X12.8932 Y-66.5397
G1 X12.8868 Y-66.5360
G1 X12.8802 Y-66.5328
G1 X12.8711 Y-66.5292
G1 X12.8640 Y-66.5272
G1 X12.8544 Y-66.5253
G1 X12.8471 Y-66.5245
G1 X12.8397 Y-66.5242
G1 X12.3001 Y-66.5242
G1 X12.3000 Y-65.7240
G1 X12.2983 Y-65.6872
G1 X12.2932 Y-65.6508
G1 X12.2913 Y-65.6412
G1 X12.2828 Y-65.6079
G1 X12.2714 Y-65.5755
G1 X12.2676 Y-65.5664
G1 X12.2528 Y-65.5354
G1 X12.2312 Y-65.4997
G1 X12.2092 Y-65.4702
G1 X12.1828 Y-65.4411
G1 X4.9341 Y-58.1923
G1 X4.9340 Y-48.2873
G1 X4.9603 Y-48.2745
G1 X5.0298 Y-48.2329
G1 X5.0359 Y-48.2289
G1 X5.1049 Y-48.1777
G1 X5.1685 Y-48.1201
G1 X5.2264 Y-48.0567
G1 X5.2326 Y-48.0491
G1 X5.2822 Y-47.9820
G1 X5.3264 Y-47.9084
G1 X5.3634 Y-47.8309
G1 X5.3672 Y-47.8218
G1 X5.3951 Y-47.7432
G1 X5.4166 Y-47.6576
G1 X5.4290 Y-47.5751
G1 X5.4299 Y-47.5653
G1 X5.4339 Y-47.4820
G1 X5.4296 Y-47.3938
G1 X5.4174 Y-47.3112
G1 X5.4155 Y-47.3016
G1 X5.3951 Y-47.2207
G1 X5.3654 Y-47.1376
G1 X5.3298 Y-47.0621
G1 X5.3252 Y-47.0535
G1 X5.2822 Y-46.9820
G1 X5.2296 Y-46.9110
G1 X5.1737 Y-46.8491
G1 X5.1667 Y-46.8422
G1 X5.1049 Y-46.7863
G1 X5.0339 Y-46.7337
G1 X4.9624 Y-46.6907
G1 X4.9538 Y-46.6861
G1 X4.8783 Y-46.6505
G1 X4.7975 Y-46.6215
G1 X4.7904 Y-46.6194
G1 X4.7095 Y-46.5993
G1 X4.6221 Y-46.5863
G1 X4.5339 Y-46.5820
G1 X4.4506 Y-46.5860
G1 X4.4408 Y-46.5869
G1 X4.3632 Y-46.5984
G1 X4.3535 Y-46.6004
G1 X4.2726 Y-46.6207
G1 X4.1941 Y-46.6487
G1 X4.1872 Y-46.6515
G1 X4.1096 Y-46.6883
G1 X4.0339 Y-46.7337
G1 X3.9629 Y-46.7863
G1 X3.8993 Y-46.8439
G1 X3.8941 Y-46.8491
G1 X3.8382 Y-46.9110
G1 X3.7870 Y-46.9800
G1 X3.7830 Y-46.9861
G1 X3.7414 Y-47.0556
G1 X3.7286 Y-47.0818
G1 X3.6356 Y-47.0818
G1 X3.2320 Y-46.6782
G1 X3.2320 Y-41.9838
G1 X4.1204 Y-41.0953
G1 X4.1480 Y-41.1049
G1 X4.2289 Y-41.1252
G1 X4.2362 Y-41.1265
G1 X4.3211 Y-41.1389
G1 X4.4069 Y-41.1430
G1 X4.4902 Y-41.1390
G1 X4.5000 Y-41.1381
G1 X4.5849 Y-41.1252
G1 X4.6682 Y-41.1042
G1 X4.7467 Y-41.0762
G1 X4.7558 Y-41.0725
G1 X4.8312 Y-41.0367
G1 X4.9028 Y-40.9939
G1 X4.9109 Y-40.9885
G1 X4.9779 Y-40.9387
G1 X5.0415 Y-40.8811
G1 X5.0467 Y-40.8758
G1 X5.1026 Y-40.8139
G1 X5.1524 Y-40.7470
G1 X5.1578 Y-40.7389
G1 X5.2006 Y-40.6672
G1 X5.2364 Y-40.5919
G1 X5.2402 Y-40.5828
G1 X5.2681 Y-40.5042
G1 X5.2896 Y-40.4186
G1 X5.3020 Y-40.3361
G1 X5.3029 Y-40.3263
G1 X5.3069 Y-40.2430
G1 X5.3029 Y-40.1597
G1 X5.3020 Y-40.1499
G1 X5.2901 Y-40.0698
G1 X5.2695 Y-39.9865
G1 X5.2666 Y-39.9771
G1 X5.2384 Y-39.8986
G1 X5.2006 Y-39.8187
G1 X5.1552 Y-39.7430
G1 X5.1056 Y-39.6759
G1 X5.0994 Y-39.6683
G1 X5.0467 Y-39.6101
G1 X5.0397 Y-39.6032
G1 X4.9779 Y-39.5473
G1 X4.9069 Y-39.4947
G1 X4.8312 Y-39.4493
G1 X4.7558 Y-39.4135
G1 X4.7467 Y-39.4097
G1 X4.6728 Y-39.3833
G1 X4.6634 Y-39.3804
G1 X4.5825 Y-39.3603
G1 X4.4976 Y-39.3476
G1 X4.4118 Y-39.3431
G1 X4.4020 Y-39.3431
G1 X4.3187 Y-39.3473
G1 X4.2313 Y-39.3603
G1 X4.1456 Y-39.3817
G1 X4.0671 Y-39.4097
G1 X4.0580 Y-39.4135
G1 X3.9805 Y-39.4504
G1 X3.9069 Y-39.4947
G1 X3.8398 Y-39.5443
G1 X3.8322 Y-39.5505
G1 X3.7688 Y-39.6084
G1 X3.7112 Y-39.6720
G1 X3.6600 Y-39.7410
G1 X3.6560 Y-39.7471
G1 X3.6144 Y-39.8166
G1 X3.5973 Y-39.8520
G1 X1.4995 Y-37.7542
G1 X1.4995 Y-31.0072
G1 X1.9861 Y-31.0071
G1 X1.9946 Y-31.0302
G1 X2.0376 Y-31.1212
G1 X2.0422 Y-31.1298
G1 X2.0953 Y-31.2181
G1 X2.1566 Y-31.3010
G1 X2.1628 Y-31.3085
G1 X2.2321 Y-31.3848
G1 X2.3121 Y-31.4573
G1 X2.3988 Y-31.5216
G1 X2.4892 Y-31.5759
G1 X2.4957 Y-31.5793
G1 X2.5889 Y-31.6233
G1 X2.6859 Y-31.6581
G1 X2.6953 Y-31.6609
G1 X2.7905 Y-31.6848
G1 X2.8001 Y-31.6867
G1 X2.9021 Y-31.7017
G1 X3.0099 Y-31.7070
G1 X3.1177 Y-31.7017
G1 X3.2197 Y-31.6867
G1 X3.2293 Y-31.6848
G1 X3.3292 Y-31.6596
G1 X3.4263 Y-31.6250
G1 X3.4353 Y-31.6213
G1 X3.5241 Y-31.5793
G1 X3.5327 Y-31.5747
G1 X3.6210 Y-31.5216
G1 X3.7077 Y-31.4573
G1 X3.7877 Y-31.3848
G1 X3.8602 Y-31.3048
G1 X3.9245 Y-31.2181
G1 X3.9776 Y-31.1298
G1 X3.9822 Y-31.1212
G1 X4.0242 Y-31.0324
G1 X4.0279 Y-31.0234
G1 X4.0625 Y-30.9263
G1 X4.0888 Y-30.8216
G1 X4.1046 Y-30.7148
G1 X4.1099 Y-30.6070
G1 X4.1046 Y-30.4992
G1 X4.0888 Y-30.3924
G1 X4.0625 Y-30.2877
G1 X4.0279 Y-30.1906
G1 X4.0242 Y-30.1816
G1 X3.9822 Y-30.0928
G1 X3.9776 Y-30.0842
G1 X3.9245 Y-29.9959
G1 X3.8602 Y-29.9092
G1 X3.7877 Y-29.8292
G1 X3.7077 Y-29.7567
G1 X3.6210 Y-29.6924
G1 X3.5327 Y-29.6393
G1 X3.5241 Y-29.6347
G1 X3.4353 Y-29.5927
G1 X3.4263 Y-29.5890
G1 X3.3292 Y-29.5544
G1 X3.2293 Y-29.5292
G1 X3.2197 Y-29.5273
G1 X3.1177 Y-29.5123
G1 X3.0099 Y-29.5070
G1 X2.9021 Y-29.5123
G1 X2.8001 Y-29.5273
G1 X2.7905 Y-29.5292
G1 X2.6953 Y-29.5531
G1 X2.6859 Y-29.5559
G1 X2.5889 Y-29.5907
G1 X2.4957 Y-29.6347
G1 X2.4892 Y-29.6381
G1 X2.3988 Y-29.6924
G1 X2.3121 Y-29.7567
G1 X2.2321 Y-29.8292
G1 X2.1628 Y-29.9055
G1 X2.1566 Y-29.9130
G1 X2.0953 Y-29.9959
G1 X2.0422 Y-30.0842
G1 X2.0376 Y-30.0928
G1 X1.9946 Y-30.1838
G1 X1.9861 Y-30.2068
G1 X1.4995 Y-30.2069
G1 X1.4995 Y-25.5015
G1 X2.5667 Y-24.4343
G1 X2.6205 Y-24.4662
G1 X2.7137 Y-24.5103
G1 X2.7205 Y-24.5130
G1 X2.8129 Y-24.5461
G1 X2.8199 Y-24.5483
G1 X2.9223 Y-24.5739
G1 X3.0242 Y-24.5891
G1 X3.0340 Y-24.5901
G1 X3.1320 Y-24.5949
G1 X3.1394 Y-24.5950
G1 X3.2447 Y-24.5897
G1 X3.3467 Y-24.5747
G1 X3.3563 Y-24.5728
G1 X3.4562 Y-24.5476
G1 X3.5579 Y-24.5113
G1 X3.6511 Y-24.4673
G1 X3.6597 Y-24.4627
G1 X3.7439 Y-24.4122
G1 X3.7520 Y-24.4068
G1 X3.8309 Y-24.3483
G1 X3.8384 Y-24.3421
G1 X3.9147 Y-24.2728
G1 X3.9840 Y-24.1965
G1 X3.9902 Y-24.1890
G1 X4.0515 Y-24.1061
G1 X4.1070 Y-24.0135
G1 X4.1512 Y-23.9204
G1 X4.1549 Y-23.9114
G1 X4.1895 Y-23.8143
G1 X4.2147 Y-23.7144
G1 X4.2166 Y-23.7048
G1 X4.2316 Y-23.6028
G1 X4.2369 Y-23.4950
G1 X4.2316 Y-23.3872
G1 X4.2166 Y-23.2852
G1 X4.2147 Y-23.2756
G1 X4.1895 Y-23.1757
G1 X4.1549 Y-23.0786
G1 X4.1512 Y-23.0696
G1 X4.1070 Y-22.9765
G1 X4.0515 Y-22.8839
G1 X3.9902 Y-22.8010
G1 X3.9840 Y-22.7935
G1 X3.9147 Y-22.7172
G1 X3.8384 Y-22.6479
G1 X3.8309 Y-22.6417
G1 X3.7501 Y-22.5818
G1 X3.7439 Y-22.5778
G1 X3.6597 Y-22.5273
G1 X3.6511 Y-22.5227
G1 X3.5579 Y-22.4787
G1 X3.4562 Y-22.4424
G1 X3.3563 Y-22.4172
G1 X3.3467 Y-22.4153
G1 X3.2447 Y-22.4003
G1 X3.1394 Y-22.3950
G1 X3.1320 Y-22.3951
G1 X3.0340 Y-22.3999
G1 X3.0242 Y-22.4009
G1 X2.9223 Y-22.4161
G1 X2.8199 Y-22.4417
G1 X2.8129 Y-22.4439
G1 X2.7205 Y-22.4770
G1 X2.7137 Y-22.4797
G1 X2.6205 Y-22.5238
G1 X2.5667 Y-22.5557
G1 X1.7309 Y-21.7199
G1 X1.7309 Y-6.6755
G1 X4.4350 Y-3.9714
G1 X6.6874 Y-3.9714
G1 X14.5116 Y-11.7955
G1 X12.9159 Y-13.3913
G1 X12.8324 Y-13.3414
G1 X12.7379 Y-13.2965
G1 X12.7288 Y-13.2928
G1 X12.6349 Y-13.2592
G1 X12.6255 Y-13.2563
G1 X12.5240 Y-13.2310
G1 X12.4206 Y-13.2156
G1 X12.4108 Y-13.2146
G1 X12.3063 Y-13.2096
G1 X12.1969 Y-13.2150
G1 X12.0886 Y-13.2310
G1 X11.9871 Y-13.2563
G1 X11.9800 Y-13.2584
G1 X11.8792 Y-13.2946
G1 X11.7846 Y-13.3392
G1 X11.7760 Y-13.3438
G1 X11.6863 Y-13.3977
G1 X11.6022 Y-13.4599
G1 X11.5946 Y-13.4661
G1 X11.5189 Y-13.5348
G1 X11.5138 Y-13.5400
G1 X11.4436 Y-13.6176
G1 X11.3812 Y-13.7016
G1 X11.3771 Y-13.7076
G1 X11.3245 Y-13.7953
G1 X11.3210 Y-13.8017
G1 X11.2762 Y-13.8963
G1 X11.2655 Y-13.9254
G1 X7.3254 Y-13.9255
G1 X7.2861 Y-13.9274
G1 X7.2497 Y-13.9327
G1 X7.2115 Y-13.9420
G1 X7.1860 Y-13.9509
G1 X6.4999 Y-13.9509
G1 X6.4999 Y-13.5010
G1 X6.4991 Y-13.4888
G1 X6.4980 Y-13.4815
G1 X6.4963 Y-13.4743
G1 X6.4941 Y-13.4673
G1 X6.4913 Y-13.4605
G1 X6.4881 Y-13.4539
G1 X6.4844 Y-13.4475
G1 X6.4802 Y-13.4414
G1 X6.4756 Y-13.4357
G1 X6.4706 Y-13.4303
G1 X6.4652 Y-13.4253
G1 X6.4595 Y-13.4207
G1 X6.4534 Y-13.4165
G1 X6.4427 Y-13.4106
G1 X6.4359 Y-13.4077
G1 X6.4289 Y-13.4053
G1 X6.4218 Y-13.4034
G1 X6.4146 Y-13.4021
G1 X6.4073 Y-13.4013
G1 X6.3999 Y-13.4010
G1 X4.6999 Y-13.4010
G1 X4.6901 Y-13.4015
G1 X4.6828 Y-13.4025
G1 X4.6732 Y-13.4046
G1 X4.6662 Y-13.4068
G1 X4.6594 Y-13.4096
G1 X4.6528 Y-13.4128
G1 X4.6464 Y-13.4165
G1 X4.6403 Y-13.4207
G1 X4.6346 Y-13.4253
G1 X4.6292 Y-13.4303
G1 X4.6242 Y-13.4357
G1 X4.6196 Y-13.4414
G1 X4.6154 Y-13.4475
G1 X4.6106 Y-13.4560
G1 X4.6075 Y-13.4627
G1 X4.6049 Y-13.4696
G1 X4.6029 Y-13.4767
G1 X4.6014 Y-13.4839
G1 X4.6004 Y-13.4912
G1 X4.5999 Y-13.4985
G1 X4.5999 Y-15.2010
G1 X4.6007 Y-15.2132
G1 X4.6029 Y-15.2253
G1 X4.6066 Y-15.2370
G1 X4.6106 Y-15.2460
G1 X4.6141 Y-15.2524
G1 X4.6181 Y-15.2586
G1 X4.6258 Y-15.2682
G1 X4.6309 Y-15.2734
G1 X4.6365 Y-15.2783
G1 X4.6464 Y-15.2855
G1 X4.6528 Y-15.2892
G1 X4.6594 Y-15.2924
G1 X4.6709 Y-15.2967
G1 X4.6828 Y-15.2995
G1 X4.6901 Y-15.3005
G1 X4.6974 Y-15.3010
G1 X6.3999 Y-15.3010
G1 X6.4121 Y-15.3002
G1 X6.4242 Y-15.2980
G1 X6.4313 Y-15.2960
G1 X6.4382 Y-15.2934
G1 X6.4449 Y-15.2903
G1 X6.4513 Y-15.2868
G1 X6.4575 Y-15.2828
G1 X6.4633 Y-15.2783
G1 X6.4689 Y-15.2734
G1 X6.4740 Y-15.2682
G1 X6.4787 Y-15.2625
G1 X6.4830 Y-15.2566
G1 X6.4869 Y-15.2503
G1 X6.4903 Y-15.2438
G1 X6.4932 Y-15.2370
G1 X6.4956 Y-15.2300
G1 X6.4975 Y-15.2229
G1 X6.4988 Y-15.2157
G1 X6.4996 Y-15.2084
G1 X6.4999 Y-15.2010
G1 X6.4999 Y-14.7512
G1 X7.3025 Y-14.7511
G1 X7.3393 Y-14.7492
G1 X7.3756 Y-14.7439
G1 X7.4138 Y-14.7346
G1 X7.4393 Y-14.7257
G1 X11.2655 Y-14.7257
G1 X11.2762 Y-14.7549
G1 X11.3199 Y-14.8473
G1 X11.3233 Y-14.8538
G1 X11.3784 Y-14.9456
G1 X11.4421 Y-15.0317
G1 X11.4468 Y-15.0373
G1 X11.5138 Y-15.1112
G1 X11.5207 Y-15.1181
G1 X11.5983 Y-15.1883
G1 X11.6823 Y-15.2507
G1 X11.6884 Y-15.2549
G1 X11.7802 Y-15.3098
G1 X11.8747 Y-15.3547
G1 X11.8838 Y-15.3584
G1 X11.9777 Y-15.3920
G1 X11.9871 Y-15.3949
G1 X12.0886 Y-15.4202
G1 X12.1969 Y-15.4362
G1 X12.3063 Y-15.4416
G1 X12.4108 Y-15.4366
G1 X12.4206 Y-15.4356
G1 X12.5192 Y-15.4210
G1 X12.5288 Y-15.4191
G1 X12.6303 Y-15.3935
G1 X12.7288 Y-15.3584
G1 X12.7379 Y-15.3547
G1 X12.8324 Y-15.3098
G1 X12.9263 Y-15.2535
G1 X13.0143 Y-15.1883
G1 X13.0919 Y-15.1181
G1 X13.0972 Y-15.1130
G1 X13.1658 Y-15.0373
G1 X13.1720 Y-15.0297
G1 X13.2342 Y-14.9456
G1 X13.2881 Y-14.8559
G1 X13.2927 Y-14.8473
G1 X13.3374 Y-14.7527
G1 X13.3727 Y-14.6542
G1 X13.3749 Y-14.6472
G1 X13.4009 Y-14.5433
G1 X13.4163 Y-14.4399
G1 X13.4173 Y-14.4301
G1 X13.4223 Y-14.3281
G1 X13.4222 Y-14.3207
G1 X13.4173 Y-14.2211
G1 X13.4167 Y-14.2138
G1 X13.4013 Y-14.1103
G1 X13.3870 Y-14.0520
G1 X22.4669 Y-4.9722
G1 X32.5741 Y-4.9721
G1 X32.6080 Y-5.0434
G1 X32.6558 Y-5.1234
G1 X32.6613 Y-5.1316
G1 X32.7139 Y-5.2025
G1 X32.7201 Y-5.2101
G1 X32.7828 Y-5.2791
G1 X32.8518 Y-5.3418
G1 X32.8594 Y-5.3480
G1 X32.9343 Y-5.4035
G1 X33.0185 Y-5.4539
G1 X33.1072 Y-5.4959
G1 X33.1973 Y-5.5282
G1 X33.2043 Y-5.5302
G1 X33.2948 Y-5.5528
G1 X33.3919 Y-5.5672
G1 X33.4899 Y-5.5720
G1 X33.5830 Y-5.5675
G1 X33.5904 Y-5.5669
G1 X33.6850 Y-5.5528
G1 X33.7755 Y-5.5302
G1 X33.7825 Y-5.5282
G1 X33.8680 Y-5.4976
G1 X33.8748 Y-5.4949
G1 X33.9591 Y-5.4551
G1 X33.9856 Y-5.4395
G1 X34.9851 Y-6.4390
G1 X34.9851 Y-11.6549
G1 X33.9815 Y-12.6585
G1 X33.9072 Y-12.6321
G1 X33.8168 Y-12.6093
G1 X33.8072 Y-12.6074
G1 X33.7149 Y-12.5938
G1 X33.6218 Y-12.5891
G1 X33.6120 Y-12.5891
G1 X33.5189 Y-12.5938
G1 X33.4266 Y-12.6074
G1 X33.4170 Y-12.6093
G1 X33.3266 Y-12.6321
G1 X33.2388 Y-12.6634
G1 X33.2297 Y-12.6671
G1 X33.1455 Y-12.7071
G1 X33.0655 Y-12.7549
G1 X33.0573 Y-12.7604
G1 X32.9864 Y-12.8130
G1 X32.9788 Y-12.8192
G1 X32.9133 Y-12.8785
G1 X32.9064 Y-12.8854
G1 X32.8439 Y-12.9546
G1 X32.7883 Y-13.0294
G1 X32.7828 Y-13.0376
G1 X32.7350 Y-13.1176
G1 X32.6930 Y-13.2063
G1 X32.6600 Y-13.2987
G1 X32.6372 Y-13.3891
G1 X32.6353 Y-13.3987
G1 X32.6217 Y-13.4910
G1 X32.6170 Y-13.5841
G1 X32.6170 Y-13.5939
G1 X32.6214 Y-13.6821
G1 X32.6223 Y-13.6919
G1 X32.6361 Y-13.7841
G1 X32.6600 Y-13.8793
G1 X32.6930 Y-13.9717
G1 X32.7328 Y-14.0560
G1 X32.7374 Y-14.0647
G1 X32.7854 Y-14.1446
G1 X32.8409 Y-14.2195
G1 X32.8471 Y-14.2271
G1 X32.9064 Y-14.2926
G1 X32.9133 Y-14.2995
G1 X32.9825 Y-14.3620
G1 X33.0613 Y-14.4205
G1 X33.1455 Y-14.4709
G1 X33.2297 Y-14.5109
G1 X33.2388 Y-14.5146
G1 X33.3220 Y-14.5444
G1 X33.3313 Y-14.5472
G1 X33.4218 Y-14.5698
G1 X33.5140 Y-14.5836
G1 X33.5238 Y-14.5845
G1 X33.6169 Y-14.5890
G1 X33.7125 Y-14.5844
G1 X33.7198 Y-14.5836
G1 X33.8120 Y-14.5698
G1 X33.9072 Y-14.5459
G1 X33.9996 Y-14.5129
G1 X34.0883 Y-14.4709
G1 X34.1725 Y-14.4205
G1 X34.2513 Y-14.3620
G1 X34.3240 Y-14.2961
G1 X34.3867 Y-14.2271
G1 X34.3929 Y-14.2195
G1 X34.4455 Y-14.1486
G1 X34.4510 Y-14.1404
G1 X34.4988 Y-14.0604
G1 X34.5388 Y-13.9762
G1 X34.5425 Y-13.9671
G1 X34.5738 Y-13.8793
G1 X34.5966 Y-13.7889
G1 X34.5985 Y-13.7793
G1 X34.6121 Y-13.6870
G1 X34.6168 Y-13.5939
G1 X34.6168 Y-13.5841
G1 X34.6121 Y-13.4910
G1 X34.5985 Y-13.3987
G1 X34.5966 Y-13.3891
G1 X34.5738 Y-13.2987
G1 X34.5474 Y-13.2244
G1 X35.6682 Y-12.1036
G1 X35.6914 Y-12.0782
G1 X35.6976 Y-12.0706
G1 X35.7151 Y-12.0470
G1 X35.7206 Y-12.0388
G1 X35.7382 Y-12.0093
G1 X35.7549 Y-11.9738
G1 X35.7682 Y-11.9368
G1 X35.7766 Y-11.9035
G1 X35.7786 Y-11.8939
G1 X35.7829 Y-11.8647
G1 X35.7838 Y-11.8550
G1 X35.7854 Y-11.8206
G1 X35.7854 Y-6.2733
G1 X35.7835 Y-6.2341
G1 X35.7777 Y-6.1952
G1 X35.7682 Y-6.1571
G1 X35.7567 Y-6.1247
G1 X35.7530 Y-6.1157
G1 X35.7382 Y-6.0847
G1 X35.7206 Y-6.0551
G1 X35.7151 Y-6.0470
G1 X35.6946 Y-6.0194
G1 X35.6699 Y-5.9921
G1 X34.4656 Y-4.7878
G1 X34.4711 Y-4.7647
G1 X34.4848 Y-4.6725
G1 X34.4854 Y-4.6651
G1 X34.4899 Y-4.5745
G1 X34.4898 Y-4.5671
G1 X34.4851 Y-4.4740
G1 X34.4707 Y-4.3769
G1 X34.4468 Y-4.2817
G1 X34.4138 Y-4.1893
G1 X34.3718 Y-4.1006
G1 X34.3240 Y-4.0206
G1 X34.3200 Y-4.0144
G1 X34.2659 Y-3.9415
G1 X34.2597 Y-3.9339
G1 X34.1970 Y-3.8649
G1 X34.1280 Y-3.8022
G1 X34.1204 Y-3.7960
G1 X34.0455 Y-3.7405
G1 X33.9613 Y-3.6901
G1 X33.8771 Y-3.6501
G1 X33.8680 Y-3.6464
G1 X33.7802 Y-3.6151
G1 X33.6898 Y-3.5923
G1 X33.6802 Y-3.5904
G1 X33.5879 Y-3.5768
G1 X33.4948 Y-3.5721
G1 X33.4874 Y-3.5720
G1 X33.3919 Y-3.5768
G1 X33.2996 Y-3.5904
G1 X33.2900 Y-3.5923
G1 X33.1996 Y-3.6151
G1 X33.1072 Y-3.6481
G1 X33.0229 Y-3.6879
G1 X33.0142 Y-3.6925
G1 X32.9343 Y-3.7405
G1 X32.8555 Y-3.7990
G1 X32.7863 Y-3.8615
G1 X32.7794 Y-3.8684
G1 X32.7169 Y-3.9376
G1 X32.6613 Y-4.0124
G1 X32.6558 Y-4.0206
G1 X32.6080 Y-4.1006
G1 X32.5741 Y-4.1718
G1 X22.3012 Y-4.1719
G1 X22.2620 Y-4.1738
G1 X22.2231 Y-4.1795
G1 X22.1850 Y-4.1891
G1 X22.1504 Y-4.2014
G1 X22.1126 Y-4.2191
G1 X22.0789 Y-4.2393
G1 X22.0474 Y-4.2627
G1 X22.0183 Y-4.2890
G1 X15.0775 Y-11.2296
G1 X7.1361 Y-3.2883
G1 X7.1070 Y-3.2619
G1 X7.0795 Y-3.2413
G1 X7.0713 Y-3.2359
G1 X7.0461 Y-3.2207
G1 X7.0374 Y-3.2161
G1 X7.0063 Y-3.2015
G1 X6.9693 Y-3.1883
G1 X6.9312 Y-3.1788
G1 X6.8973 Y-3.1736
G1 X6.8875 Y-3.1726
G1 X6.8532 Y-3.1711
G1 X4.2668 Y-3.1711
G1 X4.2300 Y-3.1730
G1 X4.1960 Y-3.1779
G1 X4.1864 Y-3.1798
G1 X4.1531 Y-3.1883
G1 X4.1207 Y-3.1998
G1 X4.1116 Y-3.2035
G1 X4.0806 Y-3.2183
G1 X4.0511 Y-3.2359
G1 X4.0429 Y-3.2413
G1 X4.0154 Y-3.2619
G1 X3.9863 Y-3.2883
G1 X1.0460 Y-6.2286
G1 X1.0214 Y-6.2559
G1 X0.9980 Y-6.2874
G1 X0.9778 Y-6.3211
G1 X0.9630 Y-6.3521
G1 X0.9593 Y-6.3612
G1 X0.9493 Y-6.3889
G1 X0.9465 Y-6.3983
G1 X0.9382 Y-6.4317
G1 X0.9325 Y-6.4705
G1 X0.9306 Y-6.5098
G1 X0.9306 Y-21.8856
G1 X0.9323 Y-21.9224
G1 X0.9374 Y-21.9589
G1 X0.9393 Y-21.9685
G1 X0.9478 Y-22.0018
G1 X0.9610 Y-22.0388
G1 X0.9778 Y-22.0743
G1 X0.9954 Y-22.1038
G1 X1.0008 Y-22.1120
G1 X1.0184 Y-22.1356
G1 X1.0246 Y-22.1432
G1 X1.0478 Y-22.1686
G1 X2.0783 Y-23.1991
G1 X2.0580 Y-23.2804
G1 X2.0428 Y-23.3823
G1 X2.0418 Y-23.3921
G1 X2.0369 Y-23.4950
G1 X2.0418 Y-23.5979
G1 X2.0428 Y-23.6077
G1 X2.0580 Y-23.7096
G1 X2.0783 Y-23.7909
G0 Z2.0000
G0 X2.9833 Y-24.7650
F500
G1 Z0.0000 F500
F500
G1 X2.9007 Y-24.7528
G1 X2.8872 Y-24.7504
G1 X2.8738 Y-24.7474
G1 X2.7719 Y-24.7218
G1 X2.7523 Y-24.7156
G1 X2.6534 Y-24.6801
G1 X2.6407 Y-24.6749
G1 X2.5999 Y-24.6556
G1 X1.6795 Y-25.5760
G1 X1.6795 Y-30.0269
G1 X1.8697 Y-30.0268
G1 X1.8779 Y-30.0097
G1 X1.8878 Y-29.9917
G1 X1.9383 Y-29.9075
G1 X1.9495 Y-29.8902
G1 X2.0120 Y-29.8058
G1 X2.0204 Y-29.7950
G1 X2.0294 Y-29.7846
G1 X2.1000 Y-29.7068
G1 X2.1148 Y-29.6924
G1 X2.1875 Y-29.6265
G1 X2.1979 Y-29.6175
G1 X2.2087 Y-29.6091
G1 X2.2875 Y-29.5506
G1 X2.2988 Y-29.5427
G1 X2.3104 Y-29.5354
G1 X2.4005 Y-29.4815
G1 X2.4188 Y-29.4720
G1 X2.5075 Y-29.4300
G1 X2.5201 Y-29.4244
G1 X2.5329 Y-29.4195
G1 X2.6253 Y-29.3864
G1 X2.6383 Y-29.3821
G1 X2.6516 Y-29.3785
G1 X2.7468 Y-29.3546
G1 X2.7602 Y-29.3516
G1 X2.7737 Y-29.3492
G1 X2.8708 Y-29.3348
G1 X2.8844 Y-29.3332
G1 X2.8981 Y-29.3322
G1 X2.9962 Y-29.3273
G1 X3.0099 Y-29.3270
G1 X3.0236 Y-29.3273
G1 X3.1217 Y-29.3322
G1 X3.1354 Y-29.3332
G1 X3.1490 Y-29.3348
G1 X3.2461 Y-29.3492
G1 X3.2596 Y-29.3516
G1 X3.2730 Y-29.3546
G1 X3.3682 Y-29.3785
G1 X3.3815 Y-29.3821
G1 X3.3945 Y-29.3864
G1 X3.4869 Y-29.4195
G1 X3.4997 Y-29.4244
G1 X3.5123 Y-29.4300
G1 X3.6010 Y-29.4720
G1 X3.6133 Y-29.4781
G1 X3.6252 Y-29.4849
G1 X3.7094 Y-29.5354
G1 X3.7210 Y-29.5427
G1 X3.7323 Y-29.5506
G1 X3.8111 Y-29.6091
G1 X3.8219 Y-29.6175
G1 X3.8323 Y-29.6265
G1 X3.9050 Y-29.6924
G1 X3.9198 Y-29.7068
G1 X3.9904 Y-29.7846
G1 X3.9994 Y-29.7950
G1 X4.0078 Y-29.8058
G1 X4.0663 Y-29.8846
G1 X4.0742 Y-29.8959
G1 X4.0815 Y-29.9075
G1 X4.1320 Y-29.9917
G1 X4.1388 Y-30.0036
G1 X4.1449 Y-30.0159
G1 X4.1869 Y-30.1046
G1 X4.1925 Y-30.1172
G1 X4.1974 Y-30.1300
G1 X4.2305 Y-30.2224
G1 X4.2348 Y-30.2354
G1 X4.2384 Y-30.2487
G1 X4.2623 Y-30.3439
G1 X4.2653 Y-30.3573
G1 X4.2677 Y-30.3708
G1 X4.2821 Y-30.4679
G1 X4.2837 Y-30.4815
G1 X4.2847 Y-30.4952
G1 X4.2896 Y-30.5933
G1 X4.2899 Y-30.6070
G1 X4.2896 Y-30.6207
G1 X4.2847 Y-30.7188
G1 X4.2837 Y-30.7325
G1 X4.2821 Y-30.7461
G1 X4.2677 Y-30.8432
G1 X4.2653 Y-30.8567
G1 X4.2623 Y-30.8701
G1 X4.2384 Y-30.9653
G1 X4.2348 Y-30.9786
G1 X4.2305 Y-30.9916
G1 X4.1974 Y-31.0840
G1 X4.1925 Y-31.0968
G1 X4.1869 Y-31.1094
G1 X4.1449 Y-31.1981
G1 X4.1388 Y-31.2104
G1 X4.1320 Y-31.2223
G1 X4.0815 Y-31.3065
G1 X4.0742 Y-31.3181
G1 X4.0663 Y-31.3294
G1 X4.0078 Y-31.4082
G1 X3.9994 Y-31.4190
G1 X3.9904 Y-31.4294
G1 X3.9245 Y-31.5021
G1 X3.9150 Y-31.5121
G1 X3.9050 Y-31.5216
G1 X3.8323 Y-31.5875
G1 X3.8219 Y-31.5965
G1 X3.8111 Y-31.6049
G1 X3.7323 Y-31.6634
G1 X3.7210 Y-31.6713
G1 X3.7094 Y-31.6786
G1 X3.6252 Y-31.7291
G1 X3.6133 Y-31.7359
G1 X3.6010 Y-31.7420
G1 X3.5123 Y-31.7840
G1 X3.4997 Y-31.7896
G1 X3.4869 Y-31.7945
G1 X3.3945 Y-31.8276
G1 X3.3815 Y-31.8319
G1 X3.3682 Y-31.8355
G1 X3.2730 Y-31.8594
G1 X3.2596 Y-31.8624
G1 X3.2461 Y-31.8648
G1 X3.1635 Y-31.8770
G1 X3.2461 Y-31.8892
G1 X3.2596 Y-31.8916
G1 X3.2730 Y-31.8946
G1 X3.3682 Y-31.9185
G1 X3.3815 Y-31.9221
G1 X3.3945 Y-31.9264
G1 X3.4869 Y-31.9595
G1 X3.4997 Y-31.9644
G1 X3.5123 Y-31.9700
G1 X3.6010 Y-32.0120
G1 X3.6133 Y-32.0181
G1 X3.6252 Y-32.0249
G1 X3.7153 Y-32.0790
G1 X3.7323 Y-32.0906
G1 X3.8111 Y-32.1491
G1 X3.8219 Y-32.1575
G1 X3.8323 Y-32.1665
G1 X3.9050 Y-32.2324
G1 X3.9150 Y-32.2419
G1 X3.9245 Y-32.2519
G1 X3.9904 Y-32.3246
G1 X3.9994 Y-32.3350
G1 X4.0078 Y-32.3458
G1 X4.0663 Y-32.4246
G1 X4.0779 Y-32.4416
G1 X4.1320 Y-32.5317
G1 X4.1388 Y-32.5436
G1 X4.1449 Y-32.5559
G1 X4.1869 Y-32.6446
G1 X4.1925 Y-32.6572
G1 X4.1974 Y-32.6700
G1 X4.2305 Y-32.7624
G1 X4.2348 Y-32.7754
G1 X4.2384 Y-32.7887
G1 X4.2623 Y-32.8839
G1 X4.2653 Y-32.8973
G1 X4.2677 Y-32.9108
G1 X4.2830 Y-33.0147
G1 X4.2847 Y-33.0352
G1 X4.2896 Y-33.1333
G1 X4.2899 Y-33.1470
G1 X4.2896 Y-33.1607
G1 X4.2847 Y-33.2588
G1 X4.2837 Y-33.2725
G1 X4.2821 Y-33.2861
G1 X4.2677 Y-33.3832
G1 X4.2639 Y-33.4034
G1 X4.2367 Y-33.5120
G1 X4.2327 Y-33.5251
G1 X4.2264 Y-33.5430
G1 X11.7702 Y-41.0869
G1 X11.8040 Y-41.0710
G1 X11.8167 Y-41.0657
G1 X11.9235 Y-41.0275
G1 X11.9433 Y-41.0217
G1 X12.0483 Y-40.9956
G1 X11.9433 Y-40.9695
G1 X11.9301 Y-40.9658
G1 X11.9171 Y-40.9615
G1 X11.8232 Y-40.9279
G1 X11.8104 Y-40.9229
G1 X11.7978 Y-40.9174
G1 X11.7077 Y-40.8747
G1 X11.6954 Y-40.8686
G1 X11.6834 Y-40.8618
G1 X11.5979 Y-40.8105
G1 X11.5863 Y-40.8032
G1 X11.5751 Y-40.7953
G1 X11.4950 Y-40.7359
G1 X11.4841 Y-40.7274
G1 X11.4737 Y-40.7184
G1 X11.3999 Y-40.6515
G1 X11.3899 Y-40.6420
G1 X11.3804 Y-40.6321
G1 X11.3089 Y-40.5530
G1 X11.2960 Y-40.5369
G1 X11.2366 Y-40.4569
G1 X11.2287 Y-40.4456
G1 X11.2214 Y-40.4340
G1 X11.1701 Y-40.3485
G1 X11.1633 Y-40.3365
G1 X11.1572 Y-40.3243
G1 X11.1145 Y-40.2341
G1 X11.1090 Y-40.2216
G1 X11.1040 Y-40.2087
G1 X11.0704 Y-40.1149
G1 X11.0661 Y-40.1018
G1 X11.0624 Y-40.0886
G1 X11.0382 Y-39.9918
G1 X11.0352 Y-39.9784
G1 X11.0329 Y-39.9649
G1 X11.0182 Y-39.8663
G1 X11.0166 Y-39.8526
G1 X11.0155 Y-39.8389
G1 X11.0106 Y-39.7393
G1 X11.0103 Y-39.7256
G1 X11.0106 Y-39.7119
G1 X11.0155 Y-39.6123
G1 X11.0166 Y-39.5986
G1 X11.0182 Y-39.5849
G1 X11.0329 Y-39.4863
G1 X11.0364 Y-39.4672
G1 X8.2243 Y-36.6550
G1 X8.2148 Y-36.6451
G1 X8.1860 Y-36.6128
G1 X8.1600 Y-36.5783
G1 X8.1521 Y-36.5671
G1 X8.1296 Y-36.5302
G1 X8.1228 Y-36.5183
G1 X8.1167 Y-36.5060
G1 X8.1012 Y-36.4731
G1 X8.0935 Y-36.4540
G1 X8.0793 Y-36.4132
G1 X8.0685 Y-36.3714
G1 X8.0655 Y-36.3580
G1 X8.0631 Y-36.3444
G1 X8.0571 Y-36.3016
G1 X8.0561 Y-36.2879
G1 X8.0543 Y-36.2448
G1 X8.0543 Y-31.7729
G1 X3.5329 Y-27.2515
G1 X3.5150 Y-27.2578
G1 X3.4952 Y-27.2635
G1 X3.4000 Y-27.2874
G1 X3.3866 Y-27.2904
G1 X3.3731 Y-27.2928
G1 X3.2760 Y-27.3072
G1 X3.2624 Y-27.3088
G1 X3.2487 Y-27.3098
G1 X3.1506 Y-27.3147
G1 X3.1300 Y-27.3149
G1 X3.0251 Y-27.3098
G1 X3.0114 Y-27.3088
G1 X2.9978 Y-27.3072
G1 X2.9007 Y-27.2928
G1 X2.8872 Y-27.2904
G1 X2.8738 Y-27.2874
G1 X2.7786 Y-27.2635
G1 X2.7653 Y-27.2599
G1 X2.7523 Y-27.2556
G1 X2.6534 Y-27.2201
G1 X2.6345 Y-27.2120
G1 X2.5458 Y-27.1700
G1 X2.5335 Y-27.1639
G1 X2.5216 Y-27.1571
G1 X2.4374 Y-27.1066
G1 X2.4258 Y-27.0993
G1 X2.4145 Y-27.0914
G1 X2.3357 Y-27.0329
G1 X2.3249 Y-27.0245
G1 X2.3145 Y-27.0155
G1 X2.2418 Y-26.9496
G1 X2.2318 Y-26.9401
G1 X2.2223 Y-26.9301
G1 X2.1564 Y-26.8574
G1 X2.1474 Y-26.8470
G1 X2.1390 Y-26.8362
G1 X2.0805 Y-26.7574
G1 X2.0726 Y-26.7461
G1 X2.0653 Y-26.7345
G1 X2.0114 Y-26.6444
G1 X2.0019 Y-26.6261
G1 X1.9599 Y-26.5374
G1 X1.9543 Y-26.5248
G1 X1.9494 Y-26.5120
G1 X1.9163 Y-26.4196
G1 X1.9120 Y-26.4066
G1 X1.9084 Y-26.3933
G1 X1.8845 Y-26.2981
G1 X1.8815 Y-26.2847
G1 X1.8791 Y-26.2712
G1 X1.8647 Y-26.1741
G1 X1.8631 Y-26.1605
G1 X1.8621 Y-26.1468
G1 X1.8572 Y-26.0487
G1 X1.8569 Y-26.0350
G1 X1.8572 Y-26.0213
G1 X1.8621 Y-25.9232
G1 X1.8631 Y-25.9095
G1 X1.8647 Y-25.8959
G1 X1.8791 Y-25.7988
G1 X1.8815 Y-25.7853
G1 X1.8845 Y-25.7719
G1 X1.9084 Y-25.6767
G1 X1.9120 Y-25.6634
G1 X1.9163 Y-25.6504
G1 X1.9494 Y-25.5580
G1 X1.9543 Y-25.5452
G1 X1.9599 Y-25.5326
G1 X2.0049 Y-25.4377
G1 X2.0148 Y-25.4197
G1 X2.0653 Y-25.3355
G1 X2.0726 Y-25.3239
G1 X2.0805 Y-25.3126
G1 X2.1390 Y-25.2338
G1 X2.1474 Y-25.2230
G1 X2.1564 Y-25.2126
G1 X2.2223 Y-25.1399
G1 X2.2318 Y-25.1299
G1 X2.2418 Y-25.1204
G1 X2.3145 Y-25.0545
G1 X2.3249 Y-25.0455
G1 X2.3357 Y-25.0371
G1 X2.4201 Y-24.9746
G1 X2.4374 Y-24.9634
G1 X2.5216 Y-24.9129
G1 X2.5335 Y-24.9061
G1 X2.5458 Y-24.9000
G1 X2.6345 Y-24.8580
G1 X2.6534 Y-24.8499
G1 X2.7523 Y-24.8144
G1 X2.7653 Y-24.8101
G1 X2.7786 Y-24.8065
G1 X2.8738 Y-24.7826
G1 X2.8872 Y-24.7796
G1 X2.9007 Y-24.7772
G1 X2.9833 Y-24.7650
G0 Z2.0000
G0 X1.8595 Y-26.7412
F500
G1 Z0.0000 F500
F500
G1 X1.8595 Y-29.7093
G1 X1.8743 Y-29.6896
G1 X1.8886 Y-29.6721
G1 X1.9620 Y-29.5910
G1 X1.9775 Y-29.5746
G1 X1.9939 Y-29.5591
G1 X2.0666 Y-29.4932
G1 X2.0837 Y-29.4784
G1 X2.0925 Y-29.4714
G1 X2.1803 Y-29.4061
G1 X2.1988 Y-29.3931
G1 X2.2178 Y-29.3810
G1 X2.3020 Y-29.3305
G1 X2.3217 Y-29.3194
G1 X2.3418 Y-29.3092
G1 X2.4305 Y-29.2673
G1 X2.4512 Y-29.2581
G1 X2.4722 Y-29.2500
G1 X2.5646 Y-29.2169
G1 X2.5861 Y-29.2099
G1 X2.6078 Y-29.2038
G1 X2.7030 Y-29.1800
G1 X2.7251 Y-29.1751
G1 X2.7473 Y-29.1712
G1 X2.8444 Y-29.1568
G1 X2.8668 Y-29.1540
G1 X2.8893 Y-29.1524
G1 X2.9873 Y-29.1476
G1 X3.0099 Y-29.1470
G1 X3.0325 Y-29.1476
G1 X3.1305 Y-29.1524
G1 X3.1530 Y-29.1540
G1 X3.1754 Y-29.1568
G1 X3.2725 Y-29.1712
G1 X3.2947 Y-29.1751
G1 X3.3168 Y-29.1800
G1 X3.4120 Y-29.2038
G1 X3.4337 Y-29.2099
G1 X3.4552 Y-29.2169
G1 X3.5476 Y-29.2500
G1 X3.5686 Y-29.2581
G1 X3.5893 Y-29.2673
G1 X3.6780 Y-29.3092
G1 X3.6981 Y-29.3194
G1 X3.7178 Y-29.3305
G1 X3.8020 Y-29.3810
G1 X3.8210 Y-29.3931
G1 X3.8395 Y-29.4061
G1 X3.9183 Y-29.4645
G1 X3.9361 Y-29.4784
G1 X3.9532 Y-29.4932
G1 X4.0259 Y-29.5591
G1 X4.0423 Y-29.5746
G1 X4.0578 Y-29.5910
G1 X4.1237 Y-29.6637
G1 X4.1385 Y-29.6808
G1 X4.1524 Y-29.6986
G1 X4.2108 Y-29.7774
G1 X4.2238 Y-29.7959
G1 X4.2359 Y-29.8149
G1 X4.2864 Y-29.8991
G1 X4.2975 Y-29.9188
G1 X4.3077 Y-29.9389
G1 X4.3496 Y-30.0276
G1 X4.3543 Y-30.0379
G1 X4.3630 Y-30.0588
G1 X4.4000 Y-30.1617
G1 X4.4070 Y-30.1832
G1 X4.4131 Y-30.2049
G1 X4.4369 Y-30.3001
G1 X4.4418 Y-30.3222
G1 X4.4457 Y-30.3444
G1 X4.4601 Y-30.4415
G1 X4.4629 Y-30.4639
G1 X4.4645 Y-30.4864
G1 X4.4693 Y-30.5844
G1 X4.4699 Y-30.6070
G1 X4.4698 Y-30.6183
G1 X4.4638 Y-30.7389
G1 X4.4616 Y-30.7613
G1 X4.4601 Y-30.7725
G1 X4.4457 Y-30.8696
G1 X4.4418 Y-30.8918
G1 X4.4369 Y-30.9139
G1 X4.4102 Y-31.0200
G1 X4.4070 Y-31.0308
G1 X4.4000 Y-31.0523
G1 X4.3669 Y-31.1447
G1 X4.3588 Y-31.1657
G1 X4.3496 Y-31.1864
G1 X4.3077 Y-31.2751
G1 X4.2975 Y-31.2952
G1 X4.2864 Y-31.3149
G1 X4.2359 Y-31.3991
G1 X4.2238 Y-31.4181
G1 X4.2108 Y-31.4366
G1 X4.1524 Y-31.5154
G1 X4.1385 Y-31.5332
G1 X4.1237 Y-31.5503
G1 X4.0578 Y-31.6230
G1 X4.0423 Y-31.6394
G1 X4.0259 Y-31.6549
G1 X3.9532 Y-31.7208
G1 X3.9361 Y-31.7356
G1 X3.9183 Y-31.7495
G1 X3.8395 Y-31.8079
G1 X3.8210 Y-31.8209
G1 X3.8020 Y-31.8330
G1 X3.7286 Y-31.8770
G1 X3.8020 Y-31.9210
G1 X3.8210 Y-31.9331
G1 X3.8395 Y-31.9461
G1 X3.9183 Y-32.0045
G1 X3.9361 Y-32.0184
G1 X3.9532 Y-32.0332
G1 X4.0259 Y-32.0991
G1 X4.0423 Y-32.1146
G1 X4.0578 Y-32.1310
G1 X4.1237 Y-32.2037
G1 X4.1385 Y-32.2208
G1 X4.1524 Y-32.2386
G1 X4.2175 Y-32.3266
G1 X4.2238 Y-32.3359
G1 X4.2359 Y-32.3549
G1 X4.2864 Y-32.4391
G1 X4.2975 Y-32.4588
G1 X4.3077 Y-32.4789
G1 X4.3543 Y-32.5779
G1 X4.3588 Y-32.5883
G1 X4.3669 Y-32.6093
G1 X4.4000 Y-32.7017
G1 X4.4070 Y-32.7232
G1 X4.4131 Y-32.7449
G1 X4.4369 Y-32.8401
G1 X4.4418 Y-32.8622
G1 X4.4457 Y-32.8844
G1 X4.4601 Y-32.9815
G1 X4.4629 Y-33.0039
G1 X4.4638 Y-33.0151
G1 X4.4693 Y-33.1244
G1 X4.4699 Y-33.1470
G1 X4.4693 Y-33.1696
G1 X4.4638 Y-33.2789
G1 X4.4616 Y-33.3013
G1 X4.4601 Y-33.3125
G1 X4.4439 Y-33.4207
G1 X4.4395 Y-33.4429
G1 X4.4279 Y-33.4899
G1 X10.8419 Y-39.9039
G1 X10.8387 Y-39.8815
G1 X10.8364 Y-39.8590
G1 X10.8309 Y-39.7482
G1 X10.8303 Y-39.7256
G1 X10.8309 Y-39.7030
G1 X10.8364 Y-39.5922
G1 X10.8387 Y-39.5697
G1 X10.8444 Y-39.5298
G1 X8.0891 Y-36.7742
G1 X8.0541 Y-36.7357
G1 X8.0398 Y-36.7182
G1 X8.0088 Y-36.6764
G1 X7.9963 Y-36.6576
G1 X7.9695 Y-36.6130
G1 X7.9589 Y-36.5931
G1 X7.9366 Y-36.5461
G1 X7.9322 Y-36.5357
G1 X7.9241 Y-36.5146
G1 X7.9105 Y-36.4762
G1 X7.9039 Y-36.4546
G1 X7.8913 Y-36.4041
G1 X7.8869 Y-36.3820
G1 X7.8808 Y-36.3417
G1 X7.8780 Y-36.3193
G1 X7.8763 Y-36.2968
G1 X7.8749 Y-36.2674
G1 X7.8743 Y-36.2448
G1 X7.8743 Y-31.8474
G1 X3.4798 Y-27.4530
G1 X3.4328 Y-27.4646
G1 X3.4106 Y-27.4690
G1 X3.3024 Y-27.4852
G1 X3.2912 Y-27.4867
G1 X3.2688 Y-27.4889
G1 X3.1595 Y-27.4944
G1 X3.1369 Y-27.4950
G1 X3.1143 Y-27.4944
G1 X3.0050 Y-27.4889
G1 X2.9826 Y-27.4867
G1 X2.9714 Y-27.4852
G1 X2.8743 Y-27.4708
G1 X2.8521 Y-27.4669
G1 X2.8300 Y-27.4620
G1 X2.7348 Y-27.4382
G1 X2.7131 Y-27.4321
G1 X2.6916 Y-27.4251
G1 X2.5992 Y-27.3920
G1 X2.5782 Y-27.3839
G1 X2.5678 Y-27.3794
G1 X2.4688 Y-27.3328
G1 X2.4487 Y-27.3226
G1 X2.4290 Y-27.3115
G1 X2.3448 Y-27.2610
G1 X2.3258 Y-27.2489
G1 X2.3165 Y-27.2426
G1 X2.2285 Y-27.1775
G1 X2.2107 Y-27.1636
G1 X2.1936 Y-27.1488
G1 X2.1209 Y-27.0829
G1 X2.1045 Y-27.0674
G1 X2.0890 Y-27.0510
G1 X2.0231 Y-26.9783
G1 X2.0083 Y-26.9612
G1 X1.9944 Y-26.9434
G1 X1.9360 Y-26.8646
G1 X1.9230 Y-26.8461
G1 X1.9109 Y-26.8271
G1 X1.8595 Y-26.7412
G0 Z2.0000
G0 X2.0395 Y-27.2521
F500
G1 Z0.0000 F500
F500
G1 X2.0395 Y-29.2864
G1 X2.0858 Y-29.2523
G1 X2.1119 Y-29.2348
G1 X2.2095 Y-29.1761
G1 X2.2230 Y-29.1682
G1 X2.2508 Y-29.1534
G1 X2.3536 Y-29.1046
G1 X2.3823 Y-29.0918
G1 X2.4116 Y-29.0805
G1 X2.5040 Y-29.0475
G1 X2.5189 Y-29.0424
G1 X2.5489 Y-29.0332
G1 X2.6593 Y-29.0054
G1 X2.6900 Y-28.9985
G1 X2.7209 Y-28.9931
G1 X2.8180 Y-28.9787
G1 X2.8492 Y-28.9749
G1 X2.8805 Y-28.9726
G1 X2.9785 Y-28.9678
G1 X3.0099 Y-28.9670
G1 X3.0413 Y-28.9678
G1 X3.1393 Y-28.9726
G1 X3.1706 Y-28.9749
G1 X3.1863 Y-28.9766
G1 X3.2989 Y-28.9931
G1 X3.3298 Y-28.9985
G1 X3.3605 Y-29.0054
G1 X3.4557 Y-29.0292
G1 X3.4860 Y-29.0376
G1 X3.5158 Y-29.0475
G1 X3.6082 Y-29.0805
G1 X3.6375 Y-29.0918
G1 X3.6662 Y-29.1046
G1 X3.7549 Y-29.1465
G1 X3.7830 Y-29.1606
G1 X3.8103 Y-29.1761
G1 X3.8945 Y-29.2266
G1 X3.9210 Y-29.2434
G1 X3.9467 Y-29.2615
G1 X4.0255 Y-29.3199
G1 X4.0503 Y-29.3393
G1 X4.0741 Y-29.3598
G1 X4.1468 Y-29.4257
G1 X4.1696 Y-29.4473
G1 X4.1912 Y-29.4701
G1 X4.2571 Y-29.5428
G1 X4.2776 Y-29.5666
G1 X4.2875 Y-29.5789
G1 X4.3554 Y-29.6702
G1 X4.3735 Y-29.6959
G1 X4.3903 Y-29.7224
G1 X4.4408 Y-29.8066
G1 X4.4563 Y-29.8339
G1 X4.4704 Y-29.8620
G1 X4.5123 Y-29.9507
G1 X4.5251 Y-29.9794
G1 X4.5364 Y-30.0087
G1 X4.5694 Y-30.1011
G1 X4.5793 Y-30.1309
G1 X4.5877 Y-30.1612
G1 X4.6115 Y-30.2564
G1 X4.6184 Y-30.2871
G1 X4.6238 Y-30.3180
G1 X4.6382 Y-30.4151
G1 X4.6420 Y-30.4463
G1 X4.6443 Y-30.4776
G1 X4.6491 Y-30.5756
G1 X4.6499 Y-30.6070
G1 X4.6491 Y-30.6384
G1 X4.6443 Y-30.7364
G1 X4.6420 Y-30.7677
G1 X4.6382 Y-30.7989
G1 X4.6238 Y-30.8960
G1 X4.6184 Y-30.9269
G1 X4.6115 Y-30.9576
G1 X4.5877 Y-31.0528
G1 X4.5793 Y-31.0831
G1 X4.5694 Y-31.1129
G1 X4.5364 Y-31.2053
G1 X4.5251 Y-31.2346
G1 X4.5123 Y-31.2633
G1 X4.4704 Y-31.3520
G1 X4.4563 Y-31.3801
G1 X4.4408 Y-31.4074
G1 X4.3903 Y-31.4916
G1 X4.3735 Y-31.5181
G1 X4.3554 Y-31.5438
G1 X4.2970 Y-31.6226
G1 X4.2776 Y-31.6474
G1 X4.2571 Y-31.6712
G1 X4.1912 Y-31.7439
G1 X4.1696 Y-31.7667
G1 X4.1468 Y-31.7883
G1 X4.0741 Y-31.8542
G1 X4.0623 Y-31.8646
G1 X4.0475 Y-31.8770
G1 X4.0623 Y-31.8894
G1 X4.0741 Y-31.8998
G1 X4.1468 Y-31.9657
G1 X4.1696 Y-31.9873
G1 X4.1912 Y-32.0101
G1 X4.2571 Y-32.0828
G1 X4.2776 Y-32.1066
G1 X4.2970 Y-32.1314
G1 X4.3554 Y-32.2102
G1 X4.3735 Y-32.2359
G1 X4.3903 Y-32.2624
G1 X4.4408 Y-32.3466
G1 X4.4563 Y-32.3739
G1 X4.4704 Y-32.4020
G1 X4.5123 Y-32.4907
G1 X4.5251 Y-32.5194
G1 X4.5364 Y-32.5487
G1 X4.5694 Y-32.6411
G1 X4.5793 Y-32.6709
G1 X4.5877 Y-32.7012
G1 X4.6115 Y-32.7964
G1 X4.6184 Y-32.8271
G1 X4.6238 Y-32.8580
G1 X4.6382 Y-32.9551
G1 X4.6420 Y-32.9863
G1 X4.6443 Y-33.0176
G1 X4.6491 Y-33.1156
G1 X4.6499 Y-33.1470
G1 X4.6491 Y-33.1784
G1 X4.6443 Y-33.2764
G1 X4.6420 Y-33.3077
G1 X4.6382 Y-33.3389
G1 X4.6244 Y-33.4319
G1 X7.7473 Y-36.5548
G1 X7.7396 Y-36.5327
G1 X7.7304 Y-36.5026
G1 X7.7156 Y-36.4436
G1 X7.7095 Y-36.4128
G1 X7.7027 Y-36.3681
G1 X7.6989 Y-36.3369
G1 X7.6965 Y-36.3056
G1 X7.6945 Y-36.2605
G1 X7.6943 Y-36.2448
G1 X7.6943 Y-31.9220
G1 X3.4218 Y-27.6495
G1 X3.3288 Y-27.6633
G1 X3.2976 Y-27.6671
G1 X3.2663 Y-27.6694
G1 X3.1683 Y-27.6742
G1 X3.1526 Y-27.6748
G1 X3.1212 Y-27.6748
G1 X3.0075 Y-27.6694
G1 X2.9762 Y-27.6671
G1 X2.9605 Y-27.6654
G1 X2.8324 Y-27.6464
G1 X2.8016 Y-27.6402
G1 X2.7863 Y-27.6366
G1 X2.6759 Y-27.6088
G1 X2.6608 Y-27.6044
G1 X2.6310 Y-27.5945
G1 X2.5386 Y-27.5615
G1 X2.5093 Y-27.5502
G1 X2.4806 Y-27.5374
G1 X2.3919 Y-27.4955
G1 X2.3778 Y-27.4886
G1 X2.3500 Y-27.4738
G1 X2.2523 Y-27.4154
G1 X2.2389 Y-27.4072
G1 X2.2128 Y-27.3897
G1 X2.1088 Y-27.3126
G1 X2.0845 Y-27.2926
G1 X2.0395 Y-27.2521
G0 Z2.0000
G0 X2.2912 Y-31.8770
F500
G1 Z0.0000 F500
F500
G1 X2.2178 Y-31.8330
G1 X2.1988 Y-31.8209
G1 X2.1895 Y-31.8146
G1 X2.1015 Y-31.7495
G1 X2.0837 Y-31.7356
G1 X2.0750 Y-31.7283
G1 X1.9939 Y-31.6549
G1 X1.9856 Y-31.6473
G1 X1.9696 Y-31.6313
G1 X1.8886 Y-31.5419
G1 X1.8743 Y-31.5244
G1 X1.8595 Y-31.5047
G1 X1.8595 Y-32.2493
G1 X1.8743 Y-32.2296
G1 X1.8886 Y-32.2121
G1 X1.9696 Y-32.1227
G1 X1.9856 Y-32.1067
G1 X1.9939 Y-32.0991
G1 X2.0750 Y-32.0257
G1 X2.0925 Y-32.0114
G1 X2.1015 Y-32.0045
G1 X2.1895 Y-31.9394
G1 X2.1988 Y-31.9331
G1 X2.2178 Y-31.9210
G1 X2.2912 Y-31.8770
G0 Z2.0000
G0 X2.8563 Y-31.8770
F500
G1 Z0.0000 F500
F500
G1 X2.7737 Y-31.8648
G1 X2.7602 Y-31.8624
G1 X2.7468 Y-31.8594
G1 X2.6516 Y-31.8355
G1 X2.6318 Y-31.8298
G1 X2.5329 Y-31.7945
G1 X2.5201 Y-31.7896
G1 X2.5075 Y-31.7840
G1 X2.4188 Y-31.7420
G1 X2.4065 Y-31.7359
G1 X2.3946 Y-31.7291
G1 X2.3104 Y-31.6786
G1 X2.2988 Y-31.6713
G1 X2.2875 Y-31.6634
G1 X2.2087 Y-31.6049
G1 X2.1979 Y-31.5965
G1 X2.1875 Y-31.5875
G1 X2.1148 Y-31.5216
G1 X2.1000 Y-31.5072
G1 X2.0294 Y-31.4294
G1 X2.0204 Y-31.4190
G1 X2.0120 Y-31.4082
G1 X1.9495 Y-31.3238
G1 X1.9383 Y-31.3065
G1 X1.8878 Y-31.2223
G1 X1.8779 Y-31.2043
G1 X1.8697 Y-31.1871
G1 X1.6795 Y-31.1872
G1 X1.6795 Y-37.6796
G1 X3.5657 Y-39.5659
G1 X3.5720 Y-39.5578
G1 X3.5810 Y-39.5474
G1 X3.6337 Y-39.4893
G1 X3.6432 Y-39.4793
G1 X3.6532 Y-39.4698
G1 X3.7165 Y-39.4126
G1 X3.7326 Y-39.3997
G1 X3.8012 Y-39.3489
G1 X3.8126 Y-39.3413
G1 X3.8429 Y-39.3230
G1 X3.6069 Y-39.3230
G1 X3.5863 Y-39.3222
G1 X3.5658 Y-39.3200
G1 X3.5523 Y-39.3176
G1 X3.5389 Y-39.3146
G1 X3.5191 Y-39.3089
G1 X3.5061 Y-39.3042
G1 X3.4934 Y-39.2990
G1 X3.4749 Y-39.2899
G1 X3.4630 Y-39.2832
G1 X3.4457 Y-39.2719
G1 X3.4346 Y-39.2637
G1 X3.4189 Y-39.2505
G1 X3.4089 Y-39.2410
G1 X3.3994 Y-39.2310
G1 X3.3862 Y-39.2153
G1 X3.3780 Y-39.2042
G1 X3.3667 Y-39.1869
G1 X3.3600 Y-39.1750
G1 X3.3509 Y-39.1565
G1 X3.3433 Y-39.1373
G1 X3.3390 Y-39.1243
G1 X3.3337 Y-39.1043
G1 X3.3310 Y-39.0909
G1 X3.3290 Y-39.0773
G1 X3.3277 Y-39.0636
G1 X3.3269 Y-39.0430
G1 X3.3269 Y-37.4430
G1 X3.3277 Y-37.4224
G1 X3.3290 Y-37.4087
G1 X3.3310 Y-37.3951
G1 X3.3353 Y-37.3750
G1 X3.3390 Y-37.3617
G1 X3.3433 Y-37.3487
G1 X3.3509 Y-37.3295
G1 X3.3568 Y-37.3171
G1 X3.3667 Y-37.2991
G1 X3.3780 Y-37.2818
G1 X3.3862 Y-37.2707
G1 X3.3949 Y-37.2601
G1 X3.4089 Y-37.2450
G1 X3.4240 Y-37.2310
G1 X3.4346 Y-37.2223
G1 X3.4457 Y-37.2141
G1 X3.4630 Y-37.2028
G1 X3.4810 Y-37.1929
G1 X3.4934 Y-37.1870
G1 X3.5126 Y-37.1794
G1 X3.5322 Y-37.1731
G1 X3.5456 Y-37.1698
G1 X3.5658 Y-37.1660
G1 X3.5795 Y-37.1643
G1 X3.6000 Y-37.1631
G1 X5.2069 Y-37.1630
G1 X5.2206 Y-37.1633
G1 X5.2343 Y-37.1643
G1 X5.2480 Y-37.1660
G1 X5.2615 Y-37.1684
G1 X5.2749 Y-37.1714
G1 X5.2947 Y-37.1771
G1 X5.3077 Y-37.1818
G1 X5.3266 Y-37.1899
G1 X5.3449 Y-37.1994
G1 X5.3567 Y-37.2064
G1 X5.3737 Y-37.2181
G1 X5.3845 Y-37.2266
G1 X5.3949 Y-37.2355
G1 X5.4097 Y-37.2499
G1 X5.4189 Y-37.2601
G1 X5.4276 Y-37.2707
G1 X5.4397 Y-37.2874
G1 X5.4471 Y-37.2991
G1 X5.4570 Y-37.3171
G1 X5.4629 Y-37.3295
G1 X5.4681 Y-37.3422
G1 X5.4728 Y-37.3552
G1 X5.4785 Y-37.3750
G1 X5.4815 Y-37.3884
G1 X5.4839 Y-37.4019
G1 X5.4861 Y-37.4224
G1 X5.4869 Y-37.4430
G1 X5.4869 Y-37.6629
G1 X6.1072 Y-37.6629
G1 X6.1503 Y-37.6646
G1 X6.1709 Y-37.6664
G1 X6.2068 Y-37.6716
G1 X6.2204 Y-37.6740
G1 X6.2623 Y-37.6842
G1 X6.2821 Y-37.6899
G1 X6.3164 Y-37.7021
G1 X6.3292 Y-37.7070
G1 X6.3418 Y-37.7126
G1 X6.3746 Y-37.7282
G1 X6.3926 Y-37.7381
G1 X6.4295 Y-37.7606
G1 X6.4407 Y-37.7685
G1 X6.4752 Y-37.7945
G1 X6.5075 Y-37.8233
G1 X6.5174 Y-37.8328
G1 X10.1534 Y-41.4688
G1 X10.1629 Y-41.4787
G1 X10.1917 Y-41.5110
G1 X10.2177 Y-41.5455
G1 X10.2256 Y-41.5567
G1 X10.2481 Y-41.5936
G1 X10.2548 Y-41.6055
G1 X10.2736 Y-41.6444
G1 X10.2817 Y-41.6634
G1 X10.2940 Y-41.6976
G1 X10.2984 Y-41.7106
G1 X10.3020 Y-41.7238
G1 X10.3108 Y-41.7591
G1 X10.3145 Y-41.7794
G1 X10.3205 Y-41.8221
G1 X10.3216 Y-41.8359
G1 X10.3233 Y-41.8721
G1 X10.3233 Y-44.7850
G1 X11.7261 Y-46.1877
G1 X11.7978 Y-46.1538
G1 X11.8104 Y-46.1483
G1 X11.8232 Y-46.1433
G1 X11.9171 Y-46.1097
G1 X11.9301 Y-46.1054
G1 X11.9433 Y-46.1017
G1 X12.0483 Y-46.0756
G1 X11.9433 Y-46.0495
G1 X11.9301 Y-46.0458
G1 X11.9171 Y-46.0415
G1 X11.8232 Y-46.0079
G1 X11.8104 Y-46.0029
G1 X11.7978 Y-45.9974
G1 X11.7077 Y-45.9547
G1 X11.6954 Y-45.9486
G1 X11.6834 Y-45.9418
G1 X11.5979 Y-45.8905
G1 X11.5863 Y-45.8832
G1 X11.5751 Y-45.8753
G1 X11.4950 Y-45.8159
G1 X11.4841 Y-45.8074
G1 X11.4737 Y-45.7984
G1 X11.3999 Y-45.7315
G1 X11.3899 Y-45.7220
G1 X11.3804 Y-45.7121
G1 X11.3135 Y-45.6382
G1 X11.3045 Y-45.6278
G1 X11.2960 Y-45.6169
G1 X11.2366 Y-45.5369
G1 X11.2287 Y-45.5256
G1 X11.2214 Y-45.5140
G1 X11.1701 Y-45.4285
G1 X11.1633 Y-45.4165
G1 X11.1572 Y-45.4043
G1 X11.1145 Y-45.3141
G1 X11.1090 Y-45.3016
G1 X11.1040 Y-45.2887
G1 X11.0704 Y-45.1949
G1 X11.0661 Y-45.1818
G1 X11.0624 Y-45.1686
G1 X11.0382 Y-45.0718
G1 X11.0352 Y-45.0584
G1 X11.0329 Y-45.0449
G1 X11.0182 Y-44.9463
G1 X11.0166 Y-44.9326
G1 X11.0155 Y-44.9189
G1 X11.0106 Y-44.8193
G1 X11.0103 Y-44.8056
G1 X11.0106 Y-44.7919
G1 X11.0155 Y-44.6923
G1 X11.0166 Y-44.6786
G1 X11.0182 Y-44.6649
G1 X11.0329 Y-44.5663
G1 X11.0352 Y-44.5528
G1 X11.0382 Y-44.5394
G1 X11.0624 Y-44.4426
G1 X11.0661 Y-44.4294
G1 X11.0704 Y-44.4163
G1 X11.1040 Y-44.3225
G1 X11.1090 Y-44.3096
G1 X11.1145 Y-44.2971
G1 X11.1572 Y-44.2069
G1 X11.1633 Y-44.1947
G1 X11.1701 Y-44.1827
G1 X11.2214 Y-44.0972
G1 X11.2287 Y-44.0856
G1 X11.2366 Y-44.0743
G1 X11.2960 Y-43.9943
G1 X11.3045 Y-43.9834
G1 X11.3135 Y-43.9730
G1 X11.3804 Y-43.8991
G1 X11.3899 Y-43.8892
G1 X11.3999 Y-43.8797
G1 X11.4737 Y-43.8128
G1 X11.4841 Y-43.8038
G1 X11.4950 Y-43.7953
G1 X11.5751 Y-43.7359
G1 X11.5863 Y-43.7280
G1 X11.5979 Y-43.7207
G1 X11.6834 Y-43.6694
G1 X11.6954 Y-43.6626
G1 X11.7077 Y-43.6565
G1 X11.7978 Y-43.6138
G1 X11.8104 Y-43.6083
G1 X11.8232 Y-43.6033
G1 X11.9171 Y-43.5697
G1 X11.9301 Y-43.5654
G1 X11.9433 Y-43.5617
G1 X12.0483 Y-43.5356
G1 X11.9433 Y-43.5095
G1 X11.9301 Y-43.5058
G1 X11.9171 Y-43.5015
G1 X11.8232 Y-43.4679
G1 X11.8104 Y-43.4629
G1 X11.7978 Y-43.4574
G1 X11.7077 Y-43.4147
G1 X11.6954 Y-43.4086
G1 X11.6834 Y-43.4018
G1 X11.5979 Y-43.3505
G1 X11.5863 Y-43.3432
G1 X11.5751 Y-43.3353
G1 X11.4950 Y-43.2759
G1 X11.4841 Y-43.2674
G1 X11.4737 Y-43.2584
G1 X11.3999 Y-43.1915
G1 X11.3899 Y-43.1820
G1 X11.3804 Y-43.1721
G1 X11.3135 Y-43.0982
G1 X11.3045 Y-43.0878
G1 X11.2960 Y-43.0769
G1 X11.2366 Y-42.9969
G1 X11.2287 Y-42.9856
G1 X11.2214 Y-42.9740
G1 X11.1701 Y-42.8885
G1 X11.1633 Y-42.8765
G1 X11.1572 Y-42.8643
G1 X11.1145 Y-42.7741
G1 X11.1090 Y-42.7616
G1 X11.1040 Y-42.7487
G1 X11.0704 Y-42.6549
G1 X11.0661 Y-42.6418
G1 X11.0624 Y-42.6286
G1 X11.0382 Y-42.5318
G1 X11.0352 Y-42.5184
G1 X11.0329 Y-42.5049
G1 X11.0182 Y-42.4063
G1 X11.0166 Y-42.3926
G1 X11.0155 Y-42.3789
G1 X11.0106 Y-42.2793
G1 X11.0103 Y-42.2656
G1 X11.0106 Y-42.2519
G1 X11.0155 Y-42.1523
G1 X11.0166 Y-42.1386
G1 X11.0182 Y-42.1249
G1 X11.0329 Y-42.0263
G1 X11.0352 Y-42.0128
G1 X11.0389 Y-41.9965
G1 X3.4059 Y-34.3635
G1 X3.3880 Y-34.3698
G1 X3.3682 Y-34.3755
G1 X3.2730 Y-34.3994
G1 X3.2596 Y-34.4024
G1 X3.2461 Y-34.4048
G1 X3.1490 Y-34.4192
G1 X3.1354 Y-34.4208
G1 X3.1217 Y-34.4218
G1 X3.0236 Y-34.4267
G1 X3.0099 Y-34.4270
G1 X2.9962 Y-34.4267
G1 X2.8981 Y-34.4218
G1 X2.8844 Y-34.4208
G1 X2.8708 Y-34.4192
G1 X2.7737 Y-34.4048
G1 X2.7602 Y-34.4024
G1 X2.7468 Y-34.3994
G1 X2.6516 Y-34.3755
G1 X2.6383 Y-34.3719
G1 X2.6253 Y-34.3676
G1 X2.5329 Y-34.3345
G1 X2.5201 Y-34.3296
G1 X2.5075 Y-34.3240
G1 X2.4188 Y-34.2820
G1 X2.4065 Y-34.2759
G1 X2.3946 Y-34.2691
G1 X2.3104 Y-34.2186
G1 X2.2988 Y-34.2113
G1 X2.2875 Y-34.2034
G1 X2.2087 Y-34.1449
G1 X2.1979 Y-34.1365
G1 X2.1875 Y-34.1275
G1 X2.1148 Y-34.0616
G1 X2.1048 Y-34.0521
G1 X2.0953 Y-34.0421
G1 X2.0294 Y-33.9694
G1 X2.0204 Y-33.9590
G1 X2.0120 Y-33.9482
G1 X1.9535 Y-33.8694
G1 X1.9419 Y-33.8524
G1 X1.8878 Y-33.7623
G1 X1.8810 Y-33.7504
G1 X1.8749 Y-33.7381
G1 X1.8329 Y-33.6494
G1 X1.8273 Y-33.6368
G1 X1.8224 Y-33.6240
G1 X1.7893 Y-33.5316
G1 X1.7850 Y-33.5186
G1 X1.7814 Y-33.5053
G1 X1.7575 Y-33.4101
G1 X1.7545 Y-33.3967
G1 X1.7521 Y-33.3832
G1 X1.7377 Y-33.2861
G1 X1.7361 Y-33.2725
G1 X1.7351 Y-33.2588
G1 X1.7302 Y-33.1607
G1 X1.7299 Y-33.1470
G1 X1.7302 Y-33.1333
G1 X1.7351 Y-33.0352
G1 X1.7361 Y-33.0215
G1 X1.7377 Y-33.0079
G1 X1.7521 Y-32.9108
G1 X1.7545 Y-32.8973
G1 X1.7575 Y-32.8839
G1 X1.7814 Y-32.7887
G1 X1.7850 Y-32.7754
G1 X1.7893 Y-32.7624
G1 X1.8224 Y-32.6700
G1 X1.8273 Y-32.6572
G1 X1.8329 Y-32.6446
G1 X1.8749 Y-32.5559
G1 X1.8810 Y-32.5436
G1 X1.8878 Y-32.5317
G1 X1.9383 Y-32.4475
G1 X1.9456 Y-32.4359
G1 X1.9535 Y-32.4246
G1 X2.0120 Y-32.3458
G1 X2.0204 Y-32.3350
G1 X2.0294 Y-32.3246
G1 X2.0953 Y-32.2519
G1 X2.1048 Y-32.2419
G1 X2.1148 Y-32.2324
G1 X2.1875 Y-32.1665
G1 X2.1979 Y-32.1575
G1 X2.2087 Y-32.1491
G1 X2.2875 Y-32.0906
G1 X2.2988 Y-32.0827
G1 X2.3104 Y-32.0754
G1 X2.3946 Y-32.0249
G1 X2.4065 Y-32.0181
G1 X2.4188 Y-32.0120
G1 X2.5075 Y-31.9700
G1 X2.5201 Y-31.9644
G1 X2.5329 Y-31.9595
G1 X2.6253 Y-31.9264
G1 X2.6383 Y-31.9221
G1 X2.6516 Y-31.9185
G1 X2.7468 Y-31.8946
G1 X2.7602 Y-31.8916
G1 X2.7737 Y-31.8892
G1 X2.8563 Y-31.8770
G0 Z2.0000
G0 X1.8595 Y-34.0447
F500
G1 Z0.0000 F500
F500
G1 X1.8595 Y-37.6050
G1 X3.1469 Y-38.8925
G1 X3.1469 Y-37.4430
G1 X3.1475 Y-37.4204
G1 X3.1481 Y-37.4092
G1 X3.1491 Y-37.3979
G1 X3.1519 Y-37.3755
G1 X3.1537 Y-37.3644
G1 X3.1581 Y-37.3422
G1 X3.1636 Y-37.3203
G1 X3.1667 Y-37.3095
G1 X3.1738 Y-37.2880
G1 X3.1819 Y-37.2670
G1 X3.1864 Y-37.2566
G1 X3.1960 Y-37.2362
G1 X3.2067 Y-37.2163
G1 X3.2123 Y-37.2065
G1 X3.2244 Y-37.1874
G1 X3.2374 Y-37.1690
G1 X3.2513 Y-37.1512
G1 X3.2661 Y-37.1341
G1 X3.2737 Y-37.1258
G1 X3.2816 Y-37.1177
G1 X3.2980 Y-37.1022
G1 X3.3151 Y-37.0874
G1 X3.3329 Y-37.0735
G1 X3.3513 Y-37.0605
G1 X3.3608 Y-37.0544
G1 X3.3802 Y-37.0428
G1 X3.3901 Y-37.0373
G1 X3.4102 Y-37.0272
G1 X3.4205 Y-37.0225
G1 X3.4413 Y-37.0138
G1 X3.4626 Y-37.0062
G1 X3.4842 Y-36.9997
G1 X3.5061 Y-36.9942
G1 X3.5283 Y-36.9898
G1 X3.5506 Y-36.9865
G1 X3.5731 Y-36.9842
G1 X3.5956 Y-36.9831
G1 X5.2069 Y-36.9830
G1 X5.2295 Y-36.9836
G1 X5.2520 Y-36.9852
G1 X5.2744 Y-36.9880
G1 X5.2855 Y-36.9898
G1 X5.3077 Y-36.9942
G1 X5.3296 Y-36.9997
G1 X5.3512 Y-37.0062
G1 X5.3619 Y-37.0099
G1 X5.3829 Y-37.0180
G1 X5.4036 Y-37.0272
G1 X5.4237 Y-37.0373
G1 X5.4434 Y-37.0484
G1 X5.4625 Y-37.0605
G1 X5.4809 Y-37.0735
G1 X5.4987 Y-37.0874
G1 X5.5158 Y-37.1022
G1 X5.5322 Y-37.1177
G1 X5.5401 Y-37.1258
G1 X5.5552 Y-37.1425
G1 X5.5695 Y-37.1600
G1 X5.5830 Y-37.1781
G1 X5.5955 Y-37.1969
G1 X5.6071 Y-37.2163
G1 X5.6178 Y-37.2362
G1 X5.6227 Y-37.2463
G1 X5.6319 Y-37.2670
G1 X5.6400 Y-37.2880
G1 X5.6471 Y-37.3095
G1 X5.6531 Y-37.3312
G1 X5.6557 Y-37.3422
G1 X5.6601 Y-37.3644
G1 X5.6634 Y-37.3867
G1 X5.6657 Y-37.4092
G1 X5.6668 Y-37.4317
G1 X5.6669 Y-37.4829
G1 X6.1072 Y-37.4829
G1 X6.1298 Y-37.4834
G1 X6.1704 Y-37.4855
G1 X6.1929 Y-37.4878
G1 X6.2041 Y-37.4893
G1 X6.2332 Y-37.4936
G1 X6.2555 Y-37.4975
G1 X6.2665 Y-37.4998
G1 X6.2946 Y-37.5067
G1 X3.3528 Y-34.5650
G1 X3.3058 Y-34.5766
G1 X3.2836 Y-34.5810
G1 X3.1642 Y-34.5987
G1 X3.1418 Y-34.6009
G1 X3.1305 Y-34.6016
G1 X3.0325 Y-34.6064
G1 X3.0212 Y-34.6069
G1 X2.9986 Y-34.6069
G1 X2.8893 Y-34.6016
G1 X2.8668 Y-34.6000
G1 X2.8444 Y-34.5972
G1 X2.7473 Y-34.5828
G1 X2.7251 Y-34.5789
G1 X2.7030 Y-34.5740
G1 X2.5969 Y-34.5473
G1 X2.5753 Y-34.5407
G1 X2.5646 Y-34.5371
G1 X2.4722 Y-34.5040
G1 X2.4512 Y-34.4959
G1 X2.4305 Y-34.4867
G1 X2.3418 Y-34.4448
G1 X2.3217 Y-34.4346
G1 X2.3020 Y-34.4235
G1 X2.2178 Y-34.3730
G1 X2.1988 Y-34.3609
G1 X2.1895 Y-34.3546
G1 X2.1015 Y-34.2895
G1 X2.0837 Y-34.2756
G1 X2.0666 Y-34.2608
G1 X1.9856 Y-34.1873
G1 X1.9696 Y-34.1713
G1 X1.9620 Y-34.1630
G1 X1.8961 Y-34.0903
G1 X1.8813 Y-34.0732
G1 X1.8595 Y-34.0447
G0 Z2.0000
G0 X2.0395 Y-34.4676
F500
G1 Z0.0000 F500
F500
G1 X2.0395 Y-37.5305
G1 X2.9669 Y-38.4579
G1 X2.9669 Y-37.4430
G1 X2.9677 Y-37.4116
G1 X2.9700 Y-37.3803
G1 X2.9738 Y-37.3491
G1 X2.9763 Y-37.3336
G1 X2.9825 Y-37.3028
G1 X2.9901 Y-37.2723
G1 X2.9992 Y-37.2422
G1 X3.0098 Y-37.2127
G1 X3.0218 Y-37.1836
G1 X3.0352 Y-37.1552
G1 X3.0500 Y-37.1275
G1 X3.0662 Y-37.1006
G1 X3.0836 Y-37.0745
G1 X3.1024 Y-37.0493
G1 X3.1223 Y-37.0250
G1 X3.1434 Y-37.0017
G1 X3.1656 Y-36.9795
G1 X3.1889 Y-36.9584
G1 X3.2132 Y-36.9385
G1 X3.2384 Y-36.9197
G1 X3.2645 Y-36.9023
G1 X3.2779 Y-36.8941
G1 X3.3052 Y-36.8786
G1 X3.3191 Y-36.8713
G1 X3.3475 Y-36.8579
G1 X3.3620 Y-36.8517
G1 X3.3913 Y-36.8404
G1 X3.4211 Y-36.8306
G1 X3.4362 Y-36.8262
G1 X3.4667 Y-36.8186
G1 X3.4820 Y-36.8153
G1 X3.5130 Y-36.8099
G1 X3.5286 Y-36.8078
G1 X3.5598 Y-36.8047
G1 X3.5755 Y-36.8038
G1 X3.6069 Y-36.8030
G1 X5.2069 Y-36.8030
G1 X5.2383 Y-36.8038
G1 X5.2540 Y-36.8047
G1 X5.2852 Y-36.8078
G1 X5.3163 Y-36.8124
G1 X5.3318 Y-36.8153
G1 X5.3534 Y-36.8200
G1 X3.2948 Y-34.7615
G1 X3.1863 Y-34.7774
G1 X3.1550 Y-34.7805
G1 X3.0413 Y-34.7862
G1 X3.0256 Y-34.7868
G1 X2.9942 Y-34.7868
G1 X2.8805 Y-34.7814
G1 X2.8492 Y-34.7791
G1 X2.8180 Y-34.7753
G1 X2.7209 Y-34.7609
G1 X2.7054 Y-34.7584
G1 X2.6746 Y-34.7522
G1 X2.5641 Y-34.7248
G1 X2.5338 Y-34.7164
G1 X2.5040 Y-34.7065
G1 X2.4116 Y-34.6735
G1 X2.3969 Y-34.6680
G1 X2.3679 Y-34.6560
G1 X2.2649 Y-34.6075
G1 X2.2368 Y-34.5934
G1 X2.2230 Y-34.5858
G1 X2.1119 Y-34.5192
G1 X2.0858 Y-34.5017
G1 X2.0395 Y-34.4676
G0 Z2.0000
G0 X5.8299 Y-37.2965
F500
G1 Z0.0000 F500
F500
G1 X5.8314 Y-37.3029
G1 X5.8362 Y-37.3029
G1 X5.8299 Y-37.2965
G0 Z2.0000
G0 X4.9709 Y-39.3230
F500
G1 Z0.0000 F500
F500
G1 X5.0012 Y-39.3413
G1 X5.0126 Y-39.3489
G1 X5.0812 Y-39.3997
G1 X5.0973 Y-39.4126
G1 X5.1606 Y-39.4698
G1 X5.1706 Y-39.4793
G1 X5.1801 Y-39.4893
G1 X5.2328 Y-39.5474
G1 X5.2460 Y-39.5632
G1 X5.2970 Y-39.6317
G1 X5.3049 Y-39.6430
G1 X5.3122 Y-39.6546
G1 X5.3526 Y-39.7219
G1 X5.3594 Y-39.7339
G1 X5.3656 Y-39.7462
G1 X5.3991 Y-39.8171
G1 X5.4047 Y-39.8297
G1 X5.4096 Y-39.8425
G1 X5.4361 Y-39.9164
G1 X5.4423 Y-39.9361
G1 X5.4631 Y-40.0189
G1 X5.4661 Y-40.0323
G1 X5.4685 Y-40.0458
G1 X5.4800 Y-40.1235
G1 X5.4817 Y-40.1371
G1 X5.4827 Y-40.1508
G1 X5.4866 Y-40.2293
G1 X5.4869 Y-40.2430
G1 X5.4866 Y-40.2567
G1 X5.4827 Y-40.3351
G1 X5.4817 Y-40.3488
G1 X5.4800 Y-40.3625
G1 X5.4685 Y-40.4401
G1 X5.4661 Y-40.4537
G1 X5.4631 Y-40.4671
G1 X5.4441 Y-40.5433
G1 X5.4404 Y-40.5565
G1 X5.4361 Y-40.5695
G1 X5.4096 Y-40.6435
G1 X5.4047 Y-40.6563
G1 X5.3991 Y-40.6689
G1 X5.3656 Y-40.7398
G1 X5.3561 Y-40.7581
G1 X5.3122 Y-40.8314
G1 X5.3049 Y-40.8430
G1 X5.2970 Y-40.8542
G1 X5.2502 Y-40.9173
G1 X5.2373 Y-40.9334
G1 X5.1801 Y-40.9967
G1 X5.1706 Y-41.0067
G1 X5.1606 Y-41.0161
G1 X5.1025 Y-41.0689
G1 X5.0920 Y-41.0778
G1 X5.0812 Y-41.0863
G1 X5.0182 Y-41.1331
G1 X5.0069 Y-41.1410
G1 X4.9953 Y-41.1483
G1 X4.9280 Y-41.1887
G1 X4.9160 Y-41.1955
G1 X4.9037 Y-41.2016
G1 X4.8265 Y-41.2381
G1 X4.8074 Y-41.2457
G1 X4.7335 Y-41.2722
G1 X4.7204 Y-41.2765
G1 X4.7072 Y-41.2802
G1 X4.6310 Y-41.2992
G1 X4.6176 Y-41.3022
G1 X4.6041 Y-41.3046
G1 X4.5264 Y-41.3161
G1 X4.5128 Y-41.3178
G1 X4.4991 Y-41.3188
G1 X4.4206 Y-41.3227
G1 X4.4069 Y-41.3230
G1 X4.3932 Y-41.3227
G1 X4.3079 Y-41.3184
G1 X4.2874 Y-41.3161
G1 X4.2097 Y-41.3046
G1 X4.1895 Y-41.3008
G1 X4.1735 Y-41.2969
G1 X3.4120 Y-42.0584
G1 X3.4120 Y-46.6036
G1 X3.6588 Y-46.8505
G1 X3.6906 Y-46.8077
G1 X3.7035 Y-46.7916
G1 X3.7607 Y-46.7283
G1 X3.7702 Y-46.7183
G1 X3.7802 Y-46.7088
G1 X3.8383 Y-46.6561
G1 X3.8541 Y-46.6428
G1 X3.9282 Y-46.5879
G1 X3.9396 Y-46.5803
G1 X3.9699 Y-46.5620
G1 X3.7339 Y-46.5620
G1 X3.7133 Y-46.5612
G1 X3.6928 Y-46.5590
G1 X3.6793 Y-46.5566
G1 X3.6659 Y-46.5536
G1 X3.6461 Y-46.5479
G1 X3.6331 Y-46.5432
G1 X3.6204 Y-46.5380
G1 X3.6019 Y-46.5289
G1 X3.5900 Y-46.5222
G1 X3.5783 Y-46.5148
G1 X3.5671 Y-46.5069
G1 X3.5510 Y-46.4940
G1 X3.5408 Y-46.4848
G1 X3.5311 Y-46.4751
G1 X3.5175 Y-46.4596
G1 X3.5050 Y-46.4432
G1 X3.4973 Y-46.4318
G1 X3.4870 Y-46.4140
G1 X3.4808 Y-46.4017
G1 X3.4752 Y-46.3892
G1 X3.4703 Y-46.3763
G1 X3.4660 Y-46.3633
G1 X3.4607 Y-46.3433
G1 X3.4569 Y-46.3231
G1 X3.4552 Y-46.3094
G1 X3.4542 Y-46.2957
G1 X3.4539 Y-46.2820
G1 X3.4540 Y-44.6751
G1 X3.4552 Y-44.6546
G1 X3.4569 Y-44.6409
G1 X3.4593 Y-44.6274
G1 X3.4623 Y-44.6140
G1 X3.4660 Y-44.6007
G1 X3.4703 Y-44.5877
G1 X3.4752 Y-44.5748
G1 X3.4838 Y-44.5561
G1 X3.4903 Y-44.5440
G1 X3.4973 Y-44.5322
G1 X3.5050 Y-44.5208
G1 X3.5132 Y-44.5097
G1 X3.5264 Y-44.4940
G1 X3.5359 Y-44.4840
G1 X3.5459 Y-44.4745
G1 X3.5563 Y-44.4656
G1 X3.5671 Y-44.4571
G1 X3.5783 Y-44.4492
G1 X3.5900 Y-44.4418
G1 X3.6019 Y-44.4351
G1 X3.6142 Y-44.4289
G1 X3.6267 Y-44.4233
G1 X3.6396 Y-44.4184
G1 X3.6526 Y-44.4141
G1 X3.6659 Y-44.4104
G1 X3.6793 Y-44.4074
G1 X3.6928 Y-44.4050
G1 X3.7065 Y-44.4033
G1 X3.7202 Y-44.4023
G1 X3.7339 Y-44.4020
G1 X5.3339 Y-44.4020
G1 X5.3476 Y-44.4023
G1 X5.3613 Y-44.4033
G1 X5.3818 Y-44.4061
G1 X5.3952 Y-44.4088
G1 X5.4086 Y-44.4121
G1 X5.4282 Y-44.4184
G1 X5.4411 Y-44.4233
G1 X5.4598 Y-44.4319
G1 X5.4719 Y-44.4384
G1 X5.4837 Y-44.4454
G1 X5.5007 Y-44.4571
G1 X5.5115 Y-44.4656
G1 X5.5219 Y-44.4745
G1 X5.5319 Y-44.4840
G1 X5.5414 Y-44.4940
G1 X5.5503 Y-44.5044
G1 X5.5588 Y-44.5152
G1 X5.5667 Y-44.5264
G1 X5.5775 Y-44.5440
G1 X5.5840 Y-44.5561
G1 X5.5899 Y-44.5685
G1 X5.5951 Y-44.5812
G1 X5.6018 Y-44.6007
G1 X5.6071 Y-44.6207
G1 X5.6109 Y-44.6409
G1 X5.6126 Y-44.6546
G1 X5.6136 Y-44.6683
G1 X5.6139 Y-44.6820
G1 X5.6139 Y-44.9019
G1 X6.2342 Y-44.9019
G1 X6.2479 Y-44.9022
G1 X6.2842 Y-44.9041
G1 X6.3047 Y-44.9063
G1 X6.3474 Y-44.9130
G1 X6.3608 Y-44.9160
G1 X6.3960 Y-44.9249
G1 X6.4156 Y-44.9311
G1 X6.4498 Y-44.9435
G1 X6.4625 Y-44.9487
G1 X6.4954 Y-44.9642
G1 X6.5077 Y-44.9704
G1 X6.5449 Y-44.9923
G1 X6.5565 Y-44.9996
G1 X6.5677 Y-45.0075
G1 X6.5969 Y-45.0292
G1 X6.6075 Y-45.0380
G1 X6.6345 Y-45.0623
G1 X6.6444 Y-45.0718
G1 X10.8781 Y-49.3055
G1 X11.1484 Y-49.3054
G1 X11.1602 Y-49.2808
G1 X11.1667 Y-49.2686
G1 X11.2250 Y-49.1713
G1 X11.2366 Y-49.1543
G1 X11.2960 Y-49.0743
G1 X11.3045 Y-49.0634
G1 X11.3135 Y-49.0530
G1 X11.3804 Y-48.9791
G1 X11.3899 Y-48.9692
G1 X11.3999 Y-48.9597
G1 X11.4737 Y-48.8928
G1 X11.4895 Y-48.8795
G1 X11.5751 Y-48.8159
G1 X11.5863 Y-48.8080
G1 X11.5979 Y-48.8007
G1 X11.6834 Y-48.7494
G1 X11.6954 Y-48.7426
G1 X11.7077 Y-48.7365
G1 X11.7978 Y-48.6938
G1 X11.8104 Y-48.6883
G1 X11.8232 Y-48.6833
G1 X11.9171 Y-48.6497
G1 X11.9301 Y-48.6454
G1 X11.9433 Y-48.6417
G1 X12.0483 Y-48.6156
G1 X11.9433 Y-48.5895
G1 X11.9301 Y-48.5858
G1 X11.9171 Y-48.5815
G1 X11.8232 Y-48.5479
G1 X11.8104 Y-48.5429
G1 X11.7978 Y-48.5374
G1 X11.7077 Y-48.4947
G1 X11.6954 Y-48.4886
G1 X11.6834 Y-48.4818
G1 X11.5979 Y-48.4305
G1 X11.5863 Y-48.4232
G1 X11.5751 Y-48.4153
G1 X11.4950 Y-48.3559
G1 X11.4841 Y-48.3474
G1 X11.4737 Y-48.3384
G1 X11.3999 Y-48.2715
G1 X11.3899 Y-48.2620
G1 X11.3804 Y-48.2521
G1 X11.3089 Y-48.1730
G1 X11.2960 Y-48.1569
G1 X11.2366 Y-48.0769
G1 X11.2287 Y-48.0656
G1 X11.2214 Y-48.0540
G1 X11.1701 Y-47.9685
G1 X11.1633 Y-47.9565
G1 X11.1572 Y-47.9443
G1 X11.1145 Y-47.8541
G1 X11.1090 Y-47.8416
G1 X11.1040 Y-47.8287
G1 X11.0704 Y-47.7349
G1 X11.0642 Y-47.7152
G1 X11.0382 Y-47.6118
G1 X11.0352 Y-47.5984
G1 X11.0329 Y-47.5849
G1 X11.0182 Y-47.4863
G1 X11.0166 Y-47.4726
G1 X11.0155 Y-47.4589
G1 X11.0106 Y-47.3593
G1 X11.0103 Y-47.3456
G1 X11.0106 Y-47.3319
G1 X11.0155 Y-47.2323
G1 X11.0166 Y-47.2186
G1 X11.0182 Y-47.2049
G1 X11.0291 Y-47.1317
G1 X9.3282 Y-45.4306
G1 X9.3037 Y-45.4037
G1 X9.2947 Y-45.3933
G1 X9.2687 Y-45.3588
G1 X9.2608 Y-45.3476
G1 X9.2383 Y-45.3107
G1 X9.2315 Y-45.2988
G1 X9.2254 Y-45.2865
G1 X9.2099 Y-45.2536
G1 X9.2023 Y-45.2345
G1 X9.1880 Y-45.1937
G1 X9.1772 Y-45.1519
G1 X9.1742 Y-45.1385
G1 X9.1718 Y-45.1249
G1 X9.1658 Y-45.0822
G1 X9.1648 Y-45.0685
G1 X9.1631 Y-45.0322
G1 X9.1630 Y-42.1193
G1 X5.8669 Y-38.8231
G1 X5.4869 Y-38.8232
G1 X5.4868 Y-39.0499
G1 X5.4856 Y-39.0704
G1 X5.4839 Y-39.0841
G1 X5.4815 Y-39.0976
G1 X5.4785 Y-39.1110
G1 X5.4748 Y-39.1243
G1 X5.4681 Y-39.1438
G1 X5.4600 Y-39.1627
G1 X5.4505 Y-39.1810
G1 X5.4397 Y-39.1986
G1 X5.4276 Y-39.2153
G1 X5.4144 Y-39.2310
G1 X5.4000 Y-39.2458
G1 X5.3845 Y-39.2594
G1 X5.3681 Y-39.2719
G1 X5.3508 Y-39.2832
G1 X5.3328 Y-39.2931
G1 X5.3141 Y-39.3017
G1 X5.2947 Y-39.3089
G1 X5.2749 Y-39.3146
G1 X5.2548 Y-39.3189
G1 X5.2343 Y-39.3217
G1 X5.2138 Y-39.3229
G1 X4.9709 Y-39.3230
G0 Z2.0000
G0 X5.3956 Y-39.4625
F500
G1 Z0.0000 F500
F500
G1 X5.4416 Y-39.5245
G1 X5.4546 Y-39.5430
G1 X5.4666 Y-39.5620
G1 X5.5070 Y-39.6294
G1 X5.5181 Y-39.6490
G1 X5.5283 Y-39.6692
G1 X5.5618 Y-39.7402
G1 X5.5710 Y-39.7608
G1 X5.5791 Y-39.7819
G1 X5.6056 Y-39.8558
G1 X5.6126 Y-39.8772
G1 X5.6187 Y-39.8990
G1 X5.6377 Y-39.9751
G1 X5.6427 Y-39.9972
G1 X5.6448 Y-40.0083
G1 X5.6581 Y-40.0971
G1 X5.6608 Y-40.1195
G1 X5.6625 Y-40.1420
G1 X5.6663 Y-40.2204
G1 X5.6669 Y-40.2430
G1 X5.6668 Y-40.2543
G1 X5.6625 Y-40.3440
G1 X5.6608 Y-40.3665
G1 X5.6581 Y-40.3889
G1 X5.6465 Y-40.4666
G1 X5.6427 Y-40.4888
G1 X5.6377 Y-40.5108
G1 X5.6187 Y-40.5870
G1 X5.6126 Y-40.6087
G1 X5.6056 Y-40.6302
G1 X5.5791 Y-40.7041
G1 X5.5710 Y-40.7252
G1 X5.5618 Y-40.7458
G1 X5.5283 Y-40.8168
G1 X5.5181 Y-40.8369
G1 X5.5070 Y-40.8566
G1 X5.4666 Y-40.9239
G1 X5.4546 Y-40.9430
G1 X5.4416 Y-40.9615
G1 X5.3948 Y-41.0245
G1 X5.3809 Y-41.0423
G1 X5.3661 Y-41.0594
G1 X5.3134 Y-41.1176
G1 X5.2979 Y-41.1339
G1 X5.2815 Y-41.1495
G1 X5.2233 Y-41.2022
G1 X5.2062 Y-41.2170
G1 X5.1884 Y-41.2309
G1 X5.1254 Y-41.2776
G1 X5.1069 Y-41.2906
G1 X5.0878 Y-41.3027
G1 X5.0205 Y-41.3431
G1 X5.0009 Y-41.3542
G1 X4.9807 Y-41.3644
G1 X4.8995 Y-41.4026
G1 X4.8786 Y-41.4113
G1 X4.8680 Y-41.4152
G1 X4.7941 Y-41.4417
G1 X4.7727 Y-41.4487
G1 X4.7509 Y-41.4548
G1 X4.6747 Y-41.4738
G1 X4.6527 Y-41.4788
G1 X4.6305 Y-41.4826
G1 X4.5416 Y-41.4957
G1 X4.5304 Y-41.4969
G1 X4.5079 Y-41.4986
G1 X4.4295 Y-41.5024
G1 X4.4069 Y-41.5030
G1 X4.3956 Y-41.5029
G1 X4.2946 Y-41.4979
G1 X4.2722 Y-41.4957
G1 X4.2347 Y-41.4903
G1 X3.5920 Y-42.1329
G1 X3.5920 Y-44.2445
G1 X3.6112 Y-44.2387
G1 X3.6331 Y-44.2332
G1 X3.6553 Y-44.2288
G1 X3.6664 Y-44.2270
G1 X3.6776 Y-44.2255
G1 X3.7001 Y-44.2232
G1 X3.7226 Y-44.2221
G1 X3.7339 Y-44.2220
G1 X5.3339 Y-44.2220
G1 X5.3565 Y-44.2226
G1 X5.3790 Y-44.2242
G1 X5.4014 Y-44.2270
G1 X5.4236 Y-44.2308
G1 X5.4347 Y-44.2332
G1 X5.4566 Y-44.2387
G1 X5.4782 Y-44.2452
G1 X5.4995 Y-44.2528
G1 X5.5203 Y-44.2615
G1 X5.5407 Y-44.2711
G1 X5.5606 Y-44.2818
G1 X5.5800 Y-44.2934
G1 X5.5988 Y-44.3059
G1 X5.6169 Y-44.3194
G1 X5.6344 Y-44.3337
G1 X5.6428 Y-44.3412
G1 X5.6592 Y-44.3567
G1 X5.6747 Y-44.3731
G1 X5.6895 Y-44.3902
G1 X5.7034 Y-44.4080
G1 X5.7164 Y-44.4264
G1 X5.7285 Y-44.4455
G1 X5.7396 Y-44.4652
G1 X5.7497 Y-44.4853
G1 X5.7589 Y-44.5060
G1 X5.7670 Y-44.5270
G1 X5.7741 Y-44.5485
G1 X5.7772 Y-44.5593
G1 X5.7827 Y-44.5812
G1 X5.7851 Y-44.5923
G1 X5.7889 Y-44.6145
G1 X5.7917 Y-44.6369
G1 X5.7927 Y-44.6482
G1 X5.7938 Y-44.6707
G1 X5.7939 Y-44.7219
G1 X6.2455 Y-44.7220
G1 X6.2862 Y-44.7238
G1 X6.3087 Y-44.7255
G1 X6.3311 Y-44.7283
G1 X6.3602 Y-44.7326
G1 X6.3714 Y-44.7344
G1 X6.3935 Y-44.7388
G1 X6.4440 Y-44.7514
G1 X6.4656 Y-44.7580
G1 X6.5146 Y-44.7755
G1 X6.5355 Y-44.7842
G1 X6.5457 Y-44.7889
G1 X6.5723 Y-44.8015
G1 X6.5925 Y-44.8116
G1 X6.6122 Y-44.8227
G1 X6.6374 Y-44.8379
G1 X6.6565 Y-44.8500
G1 X6.6750 Y-44.8630
G1 X6.6986 Y-44.8805
G1 X6.7164 Y-44.8944
G1 X6.7335 Y-44.9091
G1 X6.7553 Y-44.9289
G1 X6.7717 Y-44.9445
G1 X10.9526 Y-49.1255
G1 X11.0425 Y-49.1255
G1 X11.0729 Y-49.0750
G1 X11.0854 Y-49.0563
G1 X11.1583 Y-48.9580
G1 X11.1653 Y-48.9492
G1 X11.1801 Y-48.9321
G1 X11.2471 Y-48.8583
G1 X11.2626 Y-48.8419
G1 X11.2790 Y-48.8263
G1 X11.3528 Y-48.7594
G1 X11.3699 Y-48.7446
G1 X11.3788 Y-48.7376
G1 X11.4770 Y-48.6647
G1 X11.4958 Y-48.6522
G1 X11.5565 Y-48.6156
G1 X11.4958 Y-48.5790
G1 X11.4770 Y-48.5665
G1 X11.3788 Y-48.4936
G1 X11.3613 Y-48.4793
G1 X11.3528 Y-48.4718
G1 X11.2790 Y-48.4049
G1 X11.2707 Y-48.3972
G1 X11.2547 Y-48.3812
G1 X11.1801 Y-48.2991
G1 X11.1653 Y-48.2820
G1 X11.1515 Y-48.2642
G1 X11.0921 Y-48.1841
G1 X11.0791 Y-48.1656
G1 X11.0670 Y-48.1465
G1 X11.0157 Y-48.0610
G1 X11.0100 Y-48.0513
G1 X10.9994 Y-48.0314
G1 X10.9518 Y-47.9311
G1 X10.9427 Y-47.9104
G1 X10.9345 Y-47.8894
G1 X10.9009 Y-47.7955
G1 X10.8939 Y-47.7741
G1 X10.8878 Y-47.7523
G1 X10.8636 Y-47.6556
G1 X10.8587 Y-47.6336
G1 X10.8548 Y-47.6113
G1 X10.8402 Y-47.5127
G1 X10.8374 Y-47.4903
G1 X10.8358 Y-47.4678
G1 X10.8309 Y-47.3682
G1 X10.8303 Y-47.3456
G1 X10.8309 Y-47.3230
G1 X10.8358 Y-47.2234
G1 X10.8381 Y-47.1952
G1 X9.1978 Y-45.5547
G1 X9.1629 Y-45.5162
G1 X9.1556 Y-45.5075
G1 X9.1417 Y-45.4897
G1 X9.1241 Y-45.4661
G1 X9.1111 Y-45.4476
G1 X9.0991 Y-45.4285
G1 X9.0839 Y-45.4033
G1 X9.0782 Y-45.3935
G1 X9.0676 Y-45.3736
G1 X9.0454 Y-45.3266
G1 X9.0409 Y-45.3162
G1 X9.0328 Y-45.2951
G1 X9.0229 Y-45.2674
G1 X9.0158 Y-45.2460
G1 X9.0097 Y-45.2242
G1 X9.0000 Y-45.1846
G1 X8.9976 Y-45.1736
G1 X8.9938 Y-45.1514
G1 X8.9879 Y-45.1110
G1 X8.9857 Y-45.0886
G1 X8.9836 Y-45.0479
G1 X8.9830 Y-45.0253
G1 X8.9830 Y-42.1939
G1 X5.7923 Y-39.0031
G1 X5.6669 Y-39.0031
G1 X5.6668 Y-39.0543
G1 X5.6657 Y-39.0768
G1 X5.6634 Y-39.0993
G1 X5.6619 Y-39.1105
G1 X5.6581 Y-39.1327
G1 X5.6557 Y-39.1438
G1 X5.6502 Y-39.1657
G1 X5.6471 Y-39.1765
G1 X5.6400 Y-39.1980
G1 X5.6361 Y-39.2086
G1 X5.6274 Y-39.2294
G1 X5.6178 Y-39.2498
G1 X5.6126 Y-39.2598
G1 X5.6015 Y-39.2795
G1 X5.5894 Y-39.2986
G1 X5.5830 Y-39.3079
G1 X5.5695 Y-39.3260
G1 X5.5625 Y-39.3348
G1 X5.5477 Y-39.3519
G1 X5.5401 Y-39.3602
G1 X5.5241 Y-39.3762
G1 X5.5158 Y-39.3838
G1 X5.5074 Y-39.3913
G1 X5.4899 Y-39.4056
G1 X5.4718 Y-39.4191
G1 X5.4625 Y-39.4255
G1 X5.4530 Y-39.4316
G1 X5.4336 Y-39.4432
G1 X5.4137 Y-39.4539
G1 X5.3956 Y-39.4625
G0 Z2.0000
G0 X5.6450 Y-39.5095
F500
G1 Z0.0000 F500
F500
G1 X5.6693 Y-39.5504
G1 X5.6841 Y-39.5781
G1 X5.7311 Y-39.6775
G1 X5.7373 Y-39.6919
G1 X5.7486 Y-39.7212
G1 X5.7802 Y-39.8100
G1 X5.7893 Y-39.8401
G1 X5.8123 Y-39.9314
G1 X5.8192 Y-39.9621
G1 X5.8246 Y-39.9930
G1 X5.8361 Y-40.0707
G1 X5.8400 Y-40.1018
G1 X5.8423 Y-40.1332
G1 X5.8467 Y-40.2273
G1 X5.8467 Y-40.2587
G1 X5.8423 Y-40.3528
G1 X5.8400 Y-40.3841
G1 X5.8361 Y-40.4153
G1 X5.8246 Y-40.4930
G1 X5.8221 Y-40.5085
G1 X5.8160 Y-40.5393
G1 X5.7933 Y-40.6307
G1 X5.7849 Y-40.6610
G1 X5.7750 Y-40.6908
G1 X5.7486 Y-40.7647
G1 X5.7373 Y-40.7941
G1 X5.7246 Y-40.8228
G1 X5.6910 Y-40.8937
G1 X5.6769 Y-40.9218
G1 X5.6614 Y-40.9491
G1 X5.6128 Y-41.0298
G1 X5.5953 Y-41.0560
G1 X5.5394 Y-41.1318
G1 X5.5200 Y-41.1565
G1 X5.4995 Y-41.1803
G1 X5.4468 Y-41.2385
G1 X5.4361 Y-41.2500
G1 X5.4139 Y-41.2722
G1 X5.3324 Y-41.3460
G1 X5.3204 Y-41.3561
G1 X5.2957 Y-41.3755
G1 X5.2326 Y-41.4222
G1 X5.2069 Y-41.4403
G1 X5.1804 Y-41.4571
G1 X5.0995 Y-41.5054
G1 X5.0718 Y-41.5202
G1 X5.0577 Y-41.5271
G1 X4.9867 Y-41.5606
G1 X4.9580 Y-41.5734
G1 X4.9287 Y-41.5847
G1 X4.8547 Y-41.6111
G1 X4.8399 Y-41.6162
G1 X4.8098 Y-41.6254
G1 X4.7185 Y-41.6484
G1 X4.6878 Y-41.6553
G1 X4.6569 Y-41.6607
G1 X4.5637 Y-41.6743
G1 X4.5324 Y-41.6774
G1 X4.5167 Y-41.6784
G1 X4.4383 Y-41.6822
G1 X4.4069 Y-41.6830
G1 X4.3755 Y-41.6822
G1 X4.3009 Y-41.6786
G1 X3.7720 Y-42.2075
G1 X3.7720 Y-44.0420
G1 X5.3339 Y-44.0420
G1 X5.3653 Y-44.0428
G1 X5.3810 Y-44.0437
G1 X5.4122 Y-44.0468
G1 X5.4433 Y-44.0514
G1 X5.4741 Y-44.0576
G1 X5.4894 Y-44.0612
G1 X5.5197 Y-44.0696
G1 X5.5495 Y-44.0794
G1 X5.5642 Y-44.0849
G1 X5.5933 Y-44.0969
G1 X5.6217 Y-44.1103
G1 X5.6356 Y-44.1176
G1 X5.6494 Y-44.1251
G1 X5.6763 Y-44.1413
G1 X5.7024 Y-44.1587
G1 X5.7151 Y-44.1679
G1 X5.7399 Y-44.1873
G1 X5.7519 Y-44.1974
G1 X5.7752 Y-44.2185
G1 X5.7864 Y-44.2295
G1 X5.7974 Y-44.2407
G1 X5.8185 Y-44.2640
G1 X5.8286 Y-44.2760
G1 X5.8480 Y-44.3008
G1 X5.8660 Y-44.3264
G1 X5.8746 Y-44.3396
G1 X5.8908 Y-44.3665
G1 X5.8983 Y-44.3803
G1 X5.9056 Y-44.3942
G1 X5.9190 Y-44.4226
G1 X5.9252 Y-44.4371
G1 X5.9365 Y-44.4664
G1 X5.9463 Y-44.4962
G1 X5.9507 Y-44.5113
G1 X5.9584 Y-44.5419
G1 X6.2342 Y-44.5419
G1 X6.2656 Y-44.5426
G1 X6.3107 Y-44.5450
G1 X6.3419 Y-44.5481
G1 X6.3866 Y-44.5545
G1 X6.4176 Y-44.5599
G1 X6.4482 Y-44.5668
G1 X6.4920 Y-44.5780
G1 X6.5071 Y-44.5823
G1 X6.5369 Y-44.5922
G1 X6.5794 Y-44.6076
G1 X6.5940 Y-44.6134
G1 X6.6227 Y-44.6261
G1 X6.6634 Y-44.6456
G1 X6.6774 Y-44.6529
G1 X6.6911 Y-44.6604
G1 X6.7300 Y-44.6835
G1 X6.7565 Y-44.7003
G1 X6.7822 Y-44.7184
G1 X6.8183 Y-44.7454
G1 X6.8306 Y-44.7553
G1 X6.8544 Y-44.7758
G1 X6.8877 Y-44.8062
G1 X6.8990 Y-44.8172
G1 X10.9791 Y-48.8973
G1 X11.0164 Y-48.8473
G1 X11.0363 Y-48.8230
G1 X11.1244 Y-48.7259
G1 X11.1466 Y-48.7037
G1 X11.1581 Y-48.6930
G1 X11.2437 Y-48.6156
G1 X11.1581 Y-48.5382
G1 X11.1466 Y-48.5275
G1 X11.1244 Y-48.5053
G1 X11.0363 Y-48.4082
G1 X11.0262 Y-48.3962
G1 X11.0069 Y-48.3714
G1 X10.9475 Y-48.2913
G1 X10.9294 Y-48.2656
G1 X10.9126 Y-48.2391
G1 X10.8613 Y-48.1536
G1 X10.8458 Y-48.1262
G1 X10.8386 Y-48.1123
G1 X10.7826 Y-47.9938
G1 X10.7764 Y-47.9793
G1 X10.7651 Y-47.9500
G1 X10.7315 Y-47.8561
G1 X10.7216 Y-47.8263
G1 X10.7132 Y-47.7960
G1 X10.6890 Y-47.6993
G1 X10.6821 Y-47.6687
G1 X10.6793 Y-47.6532
G1 X10.6621 Y-47.5391
G1 X10.6583 Y-47.5079
G1 X10.6569 Y-47.4923
G1 X10.6505 Y-47.3613
G1 X10.6505 Y-47.3299
G1 X10.6535 Y-47.2652
G1 X9.0784 Y-45.6901
G1 X9.0567 Y-45.6673
G1 X9.0266 Y-45.6337
G1 X9.0164 Y-45.6217
G1 X8.9971 Y-45.5970
G1 X8.9704 Y-45.5606
G1 X8.9615 Y-45.5476
G1 X8.9529 Y-45.5345
G1 X8.9295 Y-45.4958
G1 X8.9141 Y-45.4685
G1 X8.9068 Y-45.4545
G1 X8.8808 Y-45.3995
G1 X8.8688 Y-45.3705
G1 X8.8483 Y-45.3132
G1 X8.8391 Y-45.2831
G1 X8.8280 Y-45.2394
G1 X8.8211 Y-45.2087
G1 X8.8182 Y-45.1933
G1 X8.8114 Y-45.1486
G1 X8.8076 Y-45.1175
G1 X8.8053 Y-45.0861
G1 X8.8032 Y-45.0410
G1 X8.8030 Y-42.2684
G1 X5.8051 Y-39.2705
G1 X5.7920 Y-39.3024
G1 X5.7786 Y-39.3308
G1 X5.7638 Y-39.3585
G1 X5.7558 Y-39.3720
G1 X5.7390 Y-39.3986
G1 X5.7210 Y-39.4242
G1 X5.7114 Y-39.4367
G1 X5.6915 Y-39.4610
G1 X5.6704 Y-39.4843
G1 X5.6594 Y-39.4955
G1 X5.6450 Y-39.5095
G0 Z2.0000
G0 X11.2357 Y-39.4119
F500
G1 Z0.0000 F500
F500
G1 X11.2118 Y-39.5079
G1 X11.1957 Y-39.6162
G1 X11.1903 Y-39.7256
G1 X11.1957 Y-39.8350
G1 X11.2118 Y-39.9433
G1 X11.2384 Y-40.0496
G1 X11.2753 Y-40.1527
G1 X11.3221 Y-40.2517
G1 X11.3784 Y-40.3456
G1 X11.4436 Y-40.4336
G1 X11.5172 Y-40.5147
G1 X11.5983 Y-40.5883
G1 X11.6863 Y-40.6535
G1 X11.7802 Y-40.7098
G1 X11.8792 Y-40.7566
G1 X11.9824 Y-40.7935
G1 X12.0886 Y-40.8202
G1 X12.1969 Y-40.8362
G1 X12.3063 Y-40.8416
G1 X12.4157 Y-40.8362
G1 X12.5240 Y-40.8202
G1 X12.6303 Y-40.7935
G1 X12.7334 Y-40.7566
G1 X12.8324 Y-40.7098
G1 X12.9263 Y-40.6535
G1 X13.0143 Y-40.5883
G1 X13.0954 Y-40.5147
G1 X13.1690 Y-40.4336
G1 X13.2342 Y-40.3456
G1 X13.2905 Y-40.2517
G1 X13.3374 Y-40.1527
G1 X13.3743 Y-40.0496
G1 X13.3998 Y-39.9481
G1 X13.4017 Y-39.9385
G1 X13.4169 Y-39.8350
G1 X13.4223 Y-39.7256
G1 X13.4173 Y-39.6211
G1 X13.4163 Y-39.6113
G1 X13.4009 Y-39.5079
G1 X13.3756 Y-39.4064
G1 X13.3727 Y-39.3970
G1 X13.3374 Y-39.2985
G1 X13.2927 Y-39.2039
G1 X13.2881 Y-39.1953
G1 X13.2342 Y-39.1056
G1 X13.1720 Y-39.0215
G1 X13.1658 Y-39.0139
G1 X13.0988 Y-38.9400
G1 X13.0919 Y-38.9331
G1 X13.0143 Y-38.8629
G1 X12.9263 Y-38.7977
G1 X12.8324 Y-38.7414
G1 X12.7379 Y-38.6965
G1 X12.7288 Y-38.6928
G1 X12.6349 Y-38.6592
G1 X12.6255 Y-38.6563
G1 X12.5240 Y-38.6310
G1 X12.4181 Y-38.6152
G1 X12.4108 Y-38.6146
G1 X12.3063 Y-38.6096
G1 X12.2018 Y-38.6146
G1 X12.1921 Y-38.6156
G1 X12.0934 Y-38.6302
G1 X12.0862 Y-38.6316
G1 X11.9824 Y-38.6577
G1 X11.8815 Y-38.6936
G1 X11.8747 Y-38.6965
G1 X11.7824 Y-38.7402
G1 X11.7281 Y-38.7725
G1 X9.0346 Y-36.0790
G1 X9.0346 Y-31.5301
G1 X9.0327 Y-31.4933
G1 X9.0278 Y-31.4593
G1 X9.0259 Y-31.4497
G1 X9.0174 Y-31.4164
G1 X9.0059 Y-31.3840
G1 X9.0022 Y-31.3750
G1 X8.9874 Y-31.3439
G1 X8.9698 Y-31.3144
G1 X8.9644 Y-31.3062
G1 X8.9438 Y-31.2787
G1 X8.9174 Y-31.2496
G1 X4.1438 Y-26.4760
G1 X4.1541 Y-26.4537
G1 X4.1880 Y-26.3590
G1 X4.1908 Y-26.3496
G1 X4.2158 Y-26.2496
G1 X4.2316 Y-26.1428
G1 X4.2369 Y-26.0350
G1 X4.2320 Y-25.9321
G1 X4.2310 Y-25.9223
G1 X4.2158 Y-25.8204
G1 X4.1895 Y-25.7157
G1 X4.1549 Y-25.6186
G1 X4.1512 Y-25.6096
G1 X4.1070 Y-25.5165
G1 X4.0515 Y-25.4239
G1 X3.9902 Y-25.3410
G1 X3.9840 Y-25.3335
G1 X3.9181 Y-25.2607
G1 X3.9130 Y-25.2555
G1 X3.8347 Y-25.1847
G1 X3.7480 Y-25.1204
G1 X3.6554 Y-25.0649
G1 X3.5623 Y-25.0207
G1 X3.5533 Y-25.0170
G1 X3.4609 Y-24.9839
G1 X3.4515 Y-24.9811
G1 X3.3515 Y-24.9561
G1 X3.2447 Y-24.9403
G1 X3.1369 Y-24.9350
G1 X3.0340 Y-24.9399
G1 X3.0242 Y-24.9409
G1 X2.9271 Y-24.9553
G1 X2.9175 Y-24.9572
G1 X2.8176 Y-24.9824
G1 X2.7159 Y-25.0187
G1 X2.6184 Y-25.0649
G1 X2.5299 Y-25.1178
G1 X2.5218 Y-25.1232
G1 X2.4391 Y-25.1847
G1 X2.3591 Y-25.2572
G1 X2.2866 Y-25.3372
G1 X2.2223 Y-25.4239
G1 X2.1668 Y-25.5165
G1 X2.1206 Y-25.6140
G1 X2.0843 Y-25.7157
G1 X2.0591 Y-25.8156
G1 X2.0572 Y-25.8252
G1 X2.0422 Y-25.9272
G1 X2.0370 Y-26.0301
G1 X2.0370 Y-26.0399
G1 X2.0422 Y-26.1428
G1 X2.0572 Y-26.2448
G1 X2.0591 Y-26.2544
G1 X2.0830 Y-26.3496
G1 X2.0858 Y-26.3590
G1 X2.1206 Y-26.4560
G1 X2.1668 Y-26.5535
G1 X2.2223 Y-26.6461
G1 X2.2836 Y-26.7290
G1 X2.2882 Y-26.7347
G1 X2.3591 Y-26.8128
G1 X2.4354 Y-26.8821
G1 X2.4429 Y-26.8883
G1 X2.5218 Y-26.9468
G1 X2.5299 Y-26.9522
G1 X2.6184 Y-27.0051
G1 X2.7159 Y-27.0513
G1 X2.8176 Y-27.0876
G1 X2.9175 Y-27.1128
G1 X2.9271 Y-27.1147
G1 X3.0242 Y-27.1291
G1 X3.0340 Y-27.1301
G1 X3.1369 Y-27.1350
G1 X3.2447 Y-27.1297
G1 X3.3515 Y-27.1139
G1 X3.4515 Y-27.0889
G1 X3.4609 Y-27.0861
G1 X3.5556 Y-27.0522
G1 X3.5779 Y-27.0419
G1 X8.2343 Y-31.6983
G1 X8.2343 Y-36.2448
G1 X8.2363 Y-36.2840
G1 X8.2420 Y-36.3228
G1 X8.2516 Y-36.3609
G1 X8.2639 Y-36.3956
G1 X8.2816 Y-36.4334
G1 X8.3018 Y-36.4671
G1 X8.3252 Y-36.4986
G1 X8.3515 Y-36.5277
G1 X11.2357 Y-39.4119
G0 Z2.0000
G0 X11.1904 Y-37.1807
F500
G1 Z0.0000 F500
F500
G1 X11.1904 Y-37.1905
G1 X11.1957 Y-37.2950
G1 X11.2118 Y-37.4033
G1 X11.2384 Y-37.5096
G1 X11.2753 Y-37.6127
G1 X11.3221 Y-37.7117
G1 X11.3784 Y-37.8056
G1 X11.4436 Y-37.8936
G1 X11.5172 Y-37.9747
G1 X11.5983 Y-38.0483
G1 X11.6863 Y-38.1135
G1 X11.7802 Y-38.1698
G1 X11.8792 Y-38.2166
G1 X11.9824 Y-38.2535
G1 X12.0886 Y-38.2802
G1 X12.1969 Y-38.2962
G1 X12.3063 Y-38.3016
G1 X12.4157 Y-38.2962
G1 X12.5240 Y-38.2802
G1 X12.6303 Y-38.2535
G1 X12.7334 Y-38.2166
G1 X12.8324 Y-38.1698
G1 X12.9263 Y-38.1135
G1 X13.0143 Y-38.0483
G1 X13.0954 Y-37.9747
G1 X13.1690 Y-37.8936
G1 X13.2342 Y-37.8056
G1 X13.2905 Y-37.7117
G1 X13.3374 Y-37.6127
G1 X13.3743 Y-37.5096
G1 X13.4009 Y-37.4033
G1 X13.4169 Y-37.2950
G1 X13.4223 Y-37.1856
G1 X13.4169 Y-37.0762
G1 X13.4009 Y-36.9679
G1 X13.3743 Y-36.8616
G1 X13.3374 Y-36.7585
G1 X13.2905 Y-36.6595
G1 X13.2342 Y-36.5656
G1 X13.1690 Y-36.4776
G1 X13.0954 Y-36.3965
G1 X13.0143 Y-36.3229
G1 X12.9263 Y-36.2577
G1 X12.8324 Y-36.2014
G1 X12.7334 Y-36.1546
G1 X12.6303 Y-36.1177
G1 X12.5240 Y-36.0910
G1 X12.4157 Y-36.0750
G1 X12.3063 Y-36.0696
G1 X12.1969 Y-36.0750
G1 X12.0886 Y-36.0910
G1 X11.9824 Y-36.1177
G1 X11.8792 Y-36.1546
G1 X11.7802 Y-36.2014
G1 X11.6863 Y-36.2577
G1 X11.5983 Y-36.3229
G1 X11.5172 Y-36.3965
G1 X11.4436 Y-36.4776
G1 X11.3784 Y-36.5656
G1 X11.3221 Y-36.6595
G1 X11.2753 Y-36.7585
G1 X11.2384 Y-36.8616
G1 X11.2118 Y-36.9679
G1 X11.1957 Y-37.0762
G1 X11.1904 Y-37.1807
G0 Z2.0000
G0 X11.5565 Y-35.9156
F500
G1 Z0.0000 F500
F500
G1 X11.4958 Y-35.8790
G1 X11.4770 Y-35.8665
G1 X11.3788 Y-35.7936
G1 X11.3699 Y-35.7866
G1 X11.3528 Y-35.7718
G1 X11.2707 Y-35.6972
G1 X11.2626 Y-35.6893
G1 X11.2471 Y-35.6729
G1 X11.1801 Y-35.5991
G1 X11.1653 Y-35.5820
G1 X11.1515 Y-35.5642
G1 X11.0921 Y-35.4841
G1 X11.0854 Y-35.4749
G1 X11.0729 Y-35.4562
G1 X11.0100 Y-35.3513
G1 X10.9994 Y-35.3314
G1 X10.9944 Y-35.3212
G1 X10.9518 Y-35.2311
G1 X10.9427 Y-35.2104
G1 X10.9345 Y-35.1894
G1 X10.9009 Y-35.0955
G1 X10.8939 Y-35.0741
G1 X10.8878 Y-35.0523
G1 X10.8636 Y-34.9556
G1 X10.8587 Y-34.9336
G1 X10.8548 Y-34.9113
G1 X10.8402 Y-34.8127
G1 X10.8387 Y-34.8015
G1 X10.8364 Y-34.7790
G1 X10.8309 Y-34.6682
G1 X10.8303 Y-34.6456
G1 X10.8309 Y-34.6230
G1 X10.8358 Y-34.5234
G1 X10.8374 Y-34.5009
G1 X10.8402 Y-34.4785
G1 X10.8548 Y-34.3799
G1 X10.8587 Y-34.3576
G1 X10.8636 Y-34.3356
G1 X10.8878 Y-34.2389
G1 X10.8939 Y-34.2171
G1 X10.9009 Y-34.1957
G1 X10.9345 Y-34.1018
G1 X10.9427 Y-34.0808
G1 X10.9518 Y-34.0601
G1 X10.9994 Y-33.9598
G1 X11.0046 Y-33.9498
G1 X11.0157 Y-33.9302
G1 X11.0670 Y-33.8447
G1 X11.0791 Y-33.8256
G1 X11.0921 Y-33.8071
G1 X11.1515 Y-33.7270
G1 X11.1653 Y-33.7092
G1 X11.1801 Y-33.6921
G1 X11.2547 Y-33.6100
G1 X11.2626 Y-33.6019
G1 X11.2790 Y-33.5863
G1 X11.3528 Y-33.5194
G1 X11.3613 Y-33.5119
G1 X11.3788 Y-33.4976
G1 X11.4770 Y-33.4247
G1 X11.4958 Y-33.4122
G1 X11.5565 Y-33.3756
G1 X11.4958 Y-33.3390
G1 X11.4770 Y-33.3265
G1 X11.3788 Y-33.2536
G1 X11.3613 Y-33.2393
G1 X11.3528 Y-33.2318
G1 X11.2707 Y-33.1572
G1 X11.2626 Y-33.1493
G1 X11.2471 Y-33.1329
G1 X11.1801 Y-33.0591
G1 X11.1653 Y-33.0420
G1 X11.1515 Y-33.0242
G1 X11.0854 Y-32.9349
G1 X11.0791 Y-32.9256
G1 X11.0670 Y-32.9065
G1 X11.0157 Y-32.8210
G1 X11.0046 Y-32.8014
G1 X10.9944 Y-32.7812
G1 X10.9518 Y-32.6911
G1 X10.9427 Y-32.6704
G1 X10.9345 Y-32.6494
G1 X10.9009 Y-32.5555
G1 X10.8939 Y-32.5341
G1 X10.8878 Y-32.5123
G1 X10.8636 Y-32.4156
G1 X10.8587 Y-32.3936
G1 X10.8566 Y-32.3825
G1 X10.8402 Y-32.2727
G1 X10.8374 Y-32.2503
G1 X10.8358 Y-32.2278
G1 X10.8309 Y-32.1282
G1 X10.8303 Y-32.1056
G1 X10.8309 Y-32.0830
G1 X10.8358 Y-31.9834
G1 X10.8374 Y-31.9609
G1 X10.8402 Y-31.9385
G1 X10.8548 Y-31.8399
